; generated by PrusaSlicer 2.6.0-alpha6 on 2023-04-16 at 19:04:31 UTC


;
;

;
;
; 

; external perimeters extrusion width = 0.68mm
; perimeters extrusion width = 0.68mm
; infill extrusion width = 0.68mm
; solid infill extrusion width = 0.68mm
; top infill extrusion width = 0.60mm
; support material extrusion width = 0.55mm
; first layer extrusion width = 0.65mm

M73 P0 R6
M201 X2500 Y2500 Z400 E5000 ; sets maximum accelerations, mm/sec^2
M203 X180 Y180 Z12 E80 ; sets maximum feedrates, mm / sec
M204 P1250 R1250 T2500 ; sets acceleration (P, T) and retract acceleration (R), mm/sec^2
M205 X8.00 Y8.00 Z2.00 E10.00 ; sets the jerk limits, mm/sec
M205 S0 T0 ; sets the minimum extruding and travel feed rate, mm/sec
;TYPE:Custom
M862.3 P "MINI" ; printer model check
G90 ; use absolute coordinates
M83 ; extruder relative mode
M104 S170 ; set extruder temp for bed leveling
M140 S60 ; set bed temp
M109 R170 ; wait for bed leveling temp
M190 S60 ; wait for bed temp
M204 T1250 ; set travel acceleration
G28 ; home all without mesh bed level
G29 ; mesh bed leveling 
M204 T2500 ; restore travel acceleration
M104 S215 ; set extruder temp
G92 E0
G1 Y-2 X179 F2400
G1 Z3 F720
M109 S215 ; wait for extruder temp

; intro line
M73 P1 R6
G1 X170 F1000
G1 Z0.2 F720
G1 X110 E8 F900
G1 X40 E10 F700
G92 E0

M221 S95 ; set flow
G21 ; set units to millimeters
G90 ; use absolute coordinates
M83 ; use relative distances for extrusion
M900 K0.12 ; Filament gcode LA 1.5
; ; Filament gcode LA 1.0
M107
;LAYER_CHANGE
;Z:0.2
;HEIGHT:0.2
;BEFORE_LAYER_CHANGE
G92 E0.0
;0.2


M73 P2 R6
G1 E-3.2 F4200
M73 P3 R6
G1 Z.2 F720
;AFTER_LAYER_CHANGE
;0.2
G1 Z.4
G1 X59.544 Y84.277 F9000
G1 Z.2 F720
M73 P4 R6
G1 E3.2 F2400
M204 P800
;TYPE:Skirt/Brim
;WIDTH:0.65
G1 F1200
G1 X60.344 Y83.747 E.04844
G1 X61.281 Y83.453 E.04957
G1 X61.996 Y83.393 E.03622
G1 X118.03 Y83.393 E2.82853
G1 X118.681 Y83.447 E.03297
G1 X119.388 Y83.634 E.03692
G1 X120.004 Y83.938 E.03468
G1 X120.532 Y84.347 E.03371
G1 X120.966 Y84.851 E.03357
G1 X121.275 Y85.393 E.03149
G1 X121.51 Y86.096 E.03742
G1 X121.601 Y86.773 E.03448
G1 X121.605 Y93.123 E.32054
G1 X121.442 Y94.163 E.05314
M73 P5 R6
G1 X121.058 Y95.011 E.04699
G1 X120.437 Y95.74 E.04834
G1 X119.653 Y96.254 E.04732
G1 X118.709 Y96.548 E.04991
G1 X118 Y96.607 E.03591
G1 X61.781 Y96.602 E2.83787
G1 X60.604 Y96.363 E.06063
G1 X60.028 Y96.082 E.03235
G1 X59.564 Y95.741 E.02907
G1 X58.867 Y94.885 E.05572
G1 X58.612 Y94.327 E.03097
G1 X58.456 Y93.733 E.031
G1 X58.393 Y93.007 E.03679
G1 X58.393 Y87 E.30323
G1 X58.526 Y85.949 E.05348
G1 X58.923 Y85.02 E.051
G1 X59.486 Y84.346 E.04433
M204 P1250
; printing object backframe_beam.stl id:0 copy 0
G1 E-2.24 F4200
;WIPE_START
G1 F7200
M73 P6 R6
G1 X60.344 Y83.747 E-.57988
G1 X60.998 Y83.542 E-.38012
;WIPE_END
G1 Z.4 F720
G1 X69.061 Y91.654 F9000
G1 Z.2 F720
G1 E3.2 F2400
M204 P800
;TYPE:Perimeter
;WIDTH:0.649999
G1 F1200
G1 X69.23 Y91.188 E.02502
G1 X69.354 Y90.579 E.03137
G1 X69.388 Y89.815 E.0386
G1 X69.277 Y89.011 E.04097
G1 X69.06 Y88.346 E.03531
G1 X110.94 Y88.347 E2.11405
G1 X110.767 Y88.821 E.02547
G1 X110.646 Y89.421 E.0309
G1 X110.612 Y90.185 E.0386
G1 X110.723 Y90.989 E.04097
G1 X110.94 Y91.654 E.03531
G1 X69.151 Y91.654 E2.10946
M204 P1250
G1 X68.017 Y92.261 F9000
M204 P800
M73 P7 R6
G1 F1200
G1 X68.357 Y91.746 E.03115
G1 X68.641 Y91.044 E.03823
G1 X68.749 Y90.526 E.02671
G1 X68.784 Y89.868 E.03326
G1 X68.694 Y89.181 E.03498
G1 X68.429 Y88.4 E.04163
G1 X68.035 Y87.739 E.03884
G1 X111.983 Y87.74 E2.21844
G1 X111.642 Y88.256 E.03122
G1 X111.357 Y88.965 E.03857
G1 X111.251 Y89.474 E.02624
G1 X111.216 Y90.132 E.03326
G1 X111.306 Y90.819 E.03498
G1 X111.571 Y91.6 E.04163
G1 X111.965 Y92.261 E.03884
G1 X68.107 Y92.261 E2.2139
M204 P1250
G1 E-2.24 F4200
;WIPE_START
M73 P8 R6
G1 F7200
G1 X68.357 Y91.746 E-.31725
G1 X68.641 Y91.044 E-.41965
G1 X68.723 Y90.65 E-.2231
;WIPE_END
G1 Z.4 F720
G1 X66.358 Y92.868 F9000
G1 Z.2 F720
G1 E3.2 F2400
M204 P800
G1 F1200
G1 X66.983 Y92.487 E.03695
G1 X67.329 Y92.16 E.02403
G1 X67.69 Y91.69 E.02992
G1 X68 Y91.049 E.03594
G1 X68.122 Y90.611 E.02295
G1 X68.179 Y90.079 E.02701
G1 X68.144 Y89.526 E.02797
G1 X67.973 Y88.876 E.03393
G1 X67.659 Y88.259 E.03495
G1 X67.304 Y87.809 E.02893
G1 X66.79 Y87.374 E.03399
G1 X66.333 Y87.132 E.0261
G1 X113.641 Y87.132 E2.38805
G1 X113.01 Y87.519 E.03737
M73 P9 R6
G1 X112.671 Y87.84 E.02357
G1 X112.198 Y88.499 E.04095
G1 X111.997 Y88.959 E.02534
G1 X111.878 Y89.39 E.02257
G1 X111.821 Y89.921 E.02696
G1 X111.856 Y90.474 E.02797
G1 X112.027 Y91.124 E.03393
G1 X112.341 Y91.741 E.03495
M73 P9 R5
G1 X112.696 Y92.191 E.02893
G1 X113.21 Y92.626 E.03399
G1 X113.636 Y92.868 E.02473
G1 X66.448 Y92.868 E2.38199
M204 P1250
G1 E-2.24 F4200
;WIPE_START
G1 F7200
G1 X66.983 Y92.487 E-.36398
G1 X67.329 Y92.16 E-.26382
G1 X67.69 Y91.69 E-.32842
M73 P10 R5
G1 X67.693 Y91.684 E-.00378
;WIPE_END
G1 Z.4 F720
G1 X63.523 Y92.84 F9000
G1 Z.2 F720
G1 E3.2 F2400
M204 P800
;WIDTH:0.705622
G1 F1200
G1 X62.169 Y92.84 E.07461
G1 X62.168 Y91.484 E.07472
G1 X62.317 Y91.755 E.01704
G1 X62.734 Y92.273 E.03664
G1 X63.192 Y92.648 E.03262
G1 X63.445 Y92.795 E.01612
M204 P1250
G1 E-2.24 F4200
;WIPE_START
G1 F7200
G1 X62.169 Y92.84 E-.70756
G1 X62.169 Y92.384 E-.25244
;WIPE_END
G1 Z.4 F720
G1 X62.17 Y88.487 F9000
G1 Z.2 F720
G1 E3.2 F2400
M204 P800
;WIDTH:0.706826
G1 F1200
G1 X62.165 Y87.16 E.07326
G1 X63.536 Y87.161 E.07568
G1 X62.991 Y87.497 E.03534
G1 X62.648 Y87.822 E.02608
G1 X62.222 Y88.414 E.04026
M204 P1250
G1 E-2.24 F4200
;WIPE_START
G1 F7200
G1 X62.165 Y87.16 E-.69564
G1 X62.642 Y87.16 E-.26436
;WIPE_END
G1 Z.4 F720
G1 X65.523 Y92.6 F9000
G1 Z.2 F720
G1 E3.2 F2400
M204 P800
;TYPE:External perimeter
;WIDTH:0.838536
G1 F1200
G1 X65.049 Y92.647 E.03151
;WIDTH:0.815076
G1 X64.572 Y92.622 E.03067
G1 X64.441 Y92.564 E.0092
;WIDTH:0.773807
G1 X64.309 Y92.506 E.00876
;WIDTH:0.732538
G1 X64.177 Y92.448 E.00827
;WIDTH:0.691269
G1 X64.046 Y92.39 E.00772
;WIDTH:0.649999
G1 X63.59 Y92.153 E.02594
G1 X63.18 Y91.822 E.0266
G1 X62.873 Y91.449 E.02439
;WIDTH:0.653996
G1 X62.608 Y90.955 E.02848
;WIDTH:0.694412
G1 X62.552 Y90.832 E.00732
;WIDTH:0.734827
G1 X62.495 Y90.708 E.00785
;WIDTH:0.775242
G1 X62.439 Y90.585 E.00823
;WIDTH:0.815657
G1 X62.382 Y90.461 E.00877
G1 X62.354 Y90.033 E.02756
;WIDTH:0.821314
G1 X62.385 Y89.514 E.03365
G1 X62.477 Y89.321 E.01384
;WIDTH:0.778486
G1 X62.57 Y89.128 E.0131
;WIDTH:0.735657
G1 X62.662 Y88.935 E.01232
;WIDTH:0.692828
G1 X62.755 Y88.743 E.01153
;WIDTH:0.649999
G1 X63.153 Y88.209 E.03362
G1 X63.459 Y87.94 E.02057
G1 X63.978 Y87.639 E.03029
;WIDTH:0.694823
G1 X64.094 Y87.578 E.0071
;WIDTH:0.739647
G1 X64.209 Y87.517 E.00754
;WIDTH:0.784471
G1 X64.325 Y87.456 E.00808
;WIDTH:0.829294
G1 X64.44 Y87.395 E.00851
G1 X64.951 Y87.353 E.03353
;WIDTH:0.824842
G1 X65.487 Y87.383 E.0349
G1 X65.702 Y87.49 E.01561
;WIDTH:0.781132
G1 X65.918 Y87.596 E.01477
;WIDTH:0.737421
G1 X66.133 Y87.702 E.01384
;WIDTH:0.69371
G1 X66.348 Y87.809 E.013
;WIDTH:0.649999
G1 X66.796 Y88.157 E.02864
G1 X67.127 Y88.551 E.02598
G1 X67.39 Y89.045 E.02825
G1 X67.54 Y89.579 E.028
G1 X67.574 Y90.026 E.02263
G1 X67.532 Y90.466 E.02231
G1 X67.444 Y90.805 E.01768
G1 X67.208 Y91.32 E.0286
G1 X66.847 Y91.791 E.02996
G1 X66.535 Y92.065 E.02096
G1 X66.021 Y92.361 E.02994
;WIDTH:0.697134
G1 X65.926 Y92.418 E.00603
;WIDTH:0.744268
G1 X65.831 Y92.475 E.00646
;WIDTH:0.791402
G1 X65.735 Y92.532 E.00695
;WIDTH:0.838536
G1 X65.612 Y92.591 E.00902
M204 P1250
G1 E-2.24 F4200
;WIPE_START
G1 F7200
G1 X65.049 Y92.647 E-.31354
G1 X64.572 Y92.622 E-.2647
G1 X64.441 Y92.564 E-.07939
G1 X64.309 Y92.506 E-.0799
G1 X64.177 Y92.448 E-.0799
G1 X64.046 Y92.39 E-.07939
G1 X63.945 Y92.337 E-.06318
;WIPE_END
G1 Z.4 F720
G1 X117.831 Y91.515 F9000
G1 Z.2 F720
G1 E3.2 F2400
M204 P800
;TYPE:Perimeter
;WIDTH:0.707041
G1 F1200
G1 X117.835 Y92.839 E.07311
G1 X116.465 Y92.839 E.07565
G1 X117.002 Y92.508 E.03483
G1 X117.352 Y92.178 E.02656
G1 X117.778 Y91.588 E.04019
M204 P1250
G1 E-2.24 F4200
;WIPE_START
G1 F7200
G1 X117.835 Y92.839 E-.69398
G1 X117.355 Y92.839 E-.26602
;WIPE_END
G1 Z.4 F720
G1 X117.837 Y88.523 F9000
G1 Z.2 F720
G1 E3.2 F2400
M204 P800
;WIDTH:0.707758
G1 F1200
G1 X117.684 Y88.245 E.01754
G1 X117.27 Y87.729 E.03657
G1 X116.808 Y87.351 E.033
G1 X116.465 Y87.161 E.02168
G1 X117.838 Y87.161 E.0759
G1 X117.837 Y88.433 E.07032
M204 P1250
G1 E-2.24 F4200
;WIPE_START
M73 P11 R5
G1 F7200
G1 X117.684 Y88.245 E-.13432
G1 X117.27 Y87.729 E-.36661
G1 X116.808 Y87.351 E-.3308
G1 X116.606 Y87.239 E-.12827
;WIPE_END
G1 Z.4 F720
G1 X117.646 Y90.011 F9000
G1 Z.2 F720
G1 E3.2 F2400
M204 P800
;TYPE:External perimeter
;WIDTH:0.813716
G1 F1200
G1 X117.647 Y90.033 E.00141
;WIDTH:0.803421
G1 X117.606 Y90.485 E.0287
G1 X117.516 Y90.678 E.01347
;WIDTH:0.765066
G1 X117.426 Y90.871 E.01279
;WIDTH:0.72671
G1 X117.336 Y91.064 E.01211
;WIDTH:0.688355
G1 X117.245 Y91.258 E.0115
;WIDTH:0.649999
G1 X116.847 Y91.791 E.03358
G1 X116.535 Y92.065 E.02096
G1 X116.021 Y92.361 E.02994
;WIDTH:0.697134
G1 X115.926 Y92.418 E.00603
;WIDTH:0.744268
G1 X115.831 Y92.475 E.00646
;WIDTH:0.791402
G1 X115.735 Y92.532 E.00695
;WIDTH:0.838536
G1 X115.64 Y92.589 E.00733
G1 X115.049 Y92.647 E.03929
;WIDTH:0.815076
G1 X114.572 Y92.622 E.03067
G1 X114.441 Y92.564 E.0092
;WIDTH:0.773807
G1 X114.309 Y92.506 E.00876
;WIDTH:0.732538
G1 X114.177 Y92.448 E.00827
;WIDTH:0.691269
G1 X114.046 Y92.39 E.00772
;WIDTH:0.649999
G1 X113.59 Y92.153 E.02594
G1 X113.161 Y91.801 E.02801
G1 X112.873 Y91.449 E.02296
G1 X112.61 Y90.955 E.02825
G1 X112.46 Y90.421 E.028
G1 X112.426 Y90.026 E.02001
G1 X112.468 Y89.534 E.02493
G1 X112.553 Y89.202 E.0173
G1 X112.755 Y88.743 E.02531
G1 X113.153 Y88.209 E.03362
G1 X113.459 Y87.94 E.02057
G1 X113.978 Y87.639 E.03029
;WIDTH:0.694774
G1 X114.094 Y87.578 E.0071
;WIDTH:0.739548
G1 X114.209 Y87.517 E.00754
;WIDTH:0.784322
G1 X114.325 Y87.456 E.00808
;WIDTH:0.829096
G1 X114.44 Y87.395 E.00851
G1 X114.951 Y87.353 E.03352
;WIDTH:0.824644
G1 X115.487 Y87.383 E.03489
G1 X115.702 Y87.49 E.01561
;WIDTH:0.780983
G1 X115.918 Y87.596 E.01477
;WIDTH:0.737322
G1 X116.133 Y87.702 E.01384
;WIDTH:0.693661
G1 X116.348 Y87.809 E.01299
;WIDTH:0.649999
G1 X116.796 Y88.157 E.02864
G1 X117.127 Y88.551 E.02598
G1 X117.39 Y89.045 E.02825
;WIDTH:0.690929
G1 X117.448 Y89.177 E.00777
;WIDTH:0.731858
G1 X117.506 Y89.309 E.00826
;WIDTH:0.772787
G1 X117.563 Y89.44 E.00867
;WIDTH:0.813716
G1 X117.621 Y89.572 E.00924
G1 X117.641 Y89.921 E.0224
M204 P1250
G1 X117.666 Y90.02 F9000
G1 E-2.24 F4200
;WIPE_START
G1 F7200
G1 X117.647 Y90.033 E-.06216
G1 X117.606 Y90.485 E-.25151
G1 X117.516 Y90.678 E-.11801
G1 X117.426 Y90.871 E-.11801
G1 X117.336 Y91.064 E-.11801
G1 X117.245 Y91.258 E-.11875
G1 X117.058 Y91.509 E-.17355
;WIPE_END
G1 Z.4 F720
G1 X61.652 Y93.388 F9000
G1 Z.2 F720
G1 E3.2 F2400
M204 P800
;WIDTH:0.649999
G1 F1200
G1 X61.535 Y93.12 E.01476
G1 X61.533 Y91.299 E.09192
;WIDTH:0.697353
G1 X61.557 Y91.07 E.01253
;WIDTH:0.744706
G1 X61.58 Y90.842 E.01337
;WIDTH:0.792059
G1 X61.604 Y90.614 E.01428
;WIDTH:0.794175
G1 X61.604 Y90.066 E.03423
;WIDTH:0.811646
G1 X61.613 Y89.539 E.03369
G1 X61.593 Y89.356 E.01177
;WIDTH:0.773314
G1 X61.574 Y89.172 E.01123
;WIDTH:0.734982
G1 X61.555 Y88.989 E.01059
;WIDTH:0.696649
G1 X61.531 Y88.487 E.02732
;WIDTH:0.649999
G1 X61.53 Y86.909 E.07966
G1 X61.562 Y86.754 E.00799
G1 X61.654 Y86.609 E.00867
G1 X62.028 Y86.525 E.01935
G1 X63.079 Y86.525 E.05305
;WIDTH:0.678247
G1 X63.872 Y86.539 E.0419
;WIDTH:0.716009
G1 X63.997 Y86.558 E.00708
;WIDTH:0.753771
G1 X64.122 Y86.577 E.00747
;WIDTH:0.791533
G1 X64.247 Y86.596 E.00787
;WIDTH:0.829294
G1 X64.372 Y86.615 E.00827
G1 X64.91 Y86.599 E.03519
;WIDTH:0.815054
G1 X65.46 Y86.608 E.03532
G1 X65.653 Y86.587 E.01246
;WIDTH:0.773195
G1 X65.847 Y86.566 E.01185
;WIDTH:0.731336
G1 X66.04 Y86.545 E.01111
;WIDTH:0.689476
G1 X66.633 Y86.525 E.0319
;WIDTH:0.649999
G1 X113.079 Y86.525 E2.34454
;WIDTH:0.678224
G1 X113.872 Y86.54 E.0419
;WIDTH:0.715942
M73 P12 R5
G1 X113.997 Y86.558 E.00707
;WIDTH:0.75366
G1 X114.122 Y86.577 E.00747
;WIDTH:0.791378
G1 X114.247 Y86.596 E.00787
;WIDTH:0.829096
G1 X114.372 Y86.615 E.00827
G1 X114.91 Y86.6 E.03518
;WIDTH:0.814859
G1 X115.46 Y86.608 E.03531
G1 X115.653 Y86.587 E.01246
;WIDTH:0.773054
G1 X115.847 Y86.566 E.01185
;WIDTH:0.731249
G1 X116.04 Y86.545 E.01111
;WIDTH:0.689443
G1 X116.633 Y86.525 E.0319
;WIDTH:0.649999
G1 X117.973 Y86.525 E.06764
G1 X118.272 Y86.567 E.01524
G1 X118.404 Y86.683 E.00887
G1 X118.474 Y86.961 E.01447
G1 X118.473 Y88.701 E.08783
;WIDTH:0.690627
G1 X118.452 Y88.929 E.01233
;WIDTH:0.731255
G1 X118.432 Y89.158 E.01316
;WIDTH:0.771883
G1 X118.411 Y89.386 E.01388
;WIDTH:0.796345
G1 X118.399 Y89.935 E.0344
;WIDTH:0.813458
G1 X118.39 Y90.462 E.03377
G1 X118.413 Y90.669 E.01334
;WIDTH:0.76659
G1 X118.437 Y90.877 E.0126
;WIDTH:0.719721
G1 X118.454 Y91.196 E.01798
;WIDTH:0.68486
G1 X118.471 Y91.516 E.0171
;WIDTH:0.649999
G1 X118.47 Y92.929 E.07133
G1 X118.438 Y93.246 E.01608
G1 X118.346 Y93.391 E.00867
G1 X117.972 Y93.475 E.01935
G1 X116.32 Y93.475 E.08339
;WIDTH:0.697134
G1 X116.163 Y93.451 E.00864
;WIDTH:0.744268
G1 X116.006 Y93.428 E.00925
;WIDTH:0.791402
G1 X115.849 Y93.404 E.00988
;WIDTH:0.838536
G1 X115.692 Y93.381 E.0105
G1 X115.099 Y93.4 E.03925
;WIDTH:0.815076
G1 X114.539 Y93.392 E.03596
G1 X114.377 Y93.413 E.01049
;WIDTH:0.773807
G1 X114.215 Y93.434 E.00993
;WIDTH:0.732538
G1 X114.053 Y93.454 E.00936
;WIDTH:0.691269
G1 X113.891 Y93.475 E.00881
;WIDTH:0.649999
G1 X66.32 Y93.475 E2.40133
;WIDTH:0.697134
G1 X66.163 Y93.451 E.00864
;WIDTH:0.744268
M73 P13 R5
G1 X66.006 Y93.428 E.00925
;WIDTH:0.791402
G1 X65.849 Y93.404 E.00988
;WIDTH:0.838536
G1 X65.692 Y93.381 E.0105
G1 X65.099 Y93.4 E.03925
;WIDTH:0.815076
G1 X64.539 Y93.392 E.03596
G1 X64.377 Y93.413 E.01049
;WIDTH:0.773807
G1 X64.215 Y93.434 E.00993
;WIDTH:0.732538
G1 X64.053 Y93.454 E.00936
;WIDTH:0.691269
G1 X63.891 Y93.475 E.00881
;WIDTH:0.649999
G1 X62.082 Y93.475 E.09132
G1 X61.74 Y93.405 E.01762
M204 P1250
G1 X61.727 Y93.106 F9000
G1 E-2.24 F4200
;WIPE_START
G1 F7200
G1 X61.535 Y93.12 E-.19455
G1 X61.533 Y91.739 E-.76545
;WIPE_END
G1 Z.4 F720
G1 X69.85 Y89.978 F9000
G1 Z.2 F720
G1 E3.2 F2400
M204 P800
;TYPE:Solid infill
G1 F1200
G1 X69.749 Y90.972 E.05043
G1 X69.692 Y91.198 E.01177
G1 X110.329 Y91.198 E2.05131
G1 X110.199 Y90.657 E.02809
G1 X110.15 Y90.022 E.03215
G1 X110.25 Y89.03 E.05033
G1 X110.308 Y88.802 E.01188
G1 X69.671 Y88.802 E2.05131
G1 X69.801 Y89.343 E.02809
M73 P14 R5
G1 X69.843 Y89.888 E.02759
M204 P1250
G1 X70.456 Y89.935 F9000
M204 P800
G1 F1200
G1 X70.4 Y90.591 E.03323
G1 X109.582 Y90.591 E1.97786
G1 X109.544 Y90.066 E.02657
G1 X109.599 Y89.409 E.03328
G1 X70.418 Y89.409 E1.97781
G1 X70.45 Y89.845 E.02207
M204 P1250
M73 P15 R5
G1 E-2.24 F4200
;WIPE_START
G1 F7200
G1 X70.418 Y89.409 E-.24227
G1 X71.713 Y89.409 E-.71773
;WIPE_END
G1 Z.4 F720
G1 X108.95 Y90 F9000
G1 Z.2 F720
G1 E3.2 F2400
M204 P800
;WIDTH:0.618518
G1 F1200
G1 X71.14 Y90 E1.80963
M204 P1250
; stop printing object backframe_beam.stl id:0 copy 0
M106 S84.15
;LAYER_CHANGE
;Z:0.5
;HEIGHT:0.3
;BEFORE_LAYER_CHANGE
G92 E0.0
;0.5


G1 E-2.24 F4200
;WIPE_START
G1 F7200
G1 X72.872 Y90 E-.96
;WIPE_END
G1 Z.4 F720
M73 P16 R5
G1 Z.5
;AFTER_LAYER_CHANGE
;0.5
G1 Z.7
G1 X72.872 Y96.603 F9000
G1 Z.5 F720
G1 E3.2 F2400
;TYPE:Skirt/Brim
;WIDTH:0.65
G1 X61.781 Y96.602 E.81011
G1 X60.604 Y96.363 E.08772
G1 X60.028 Y96.082 E.04681
G1 X59.564 Y95.741 E.04206
G1 X58.867 Y94.885 E.08063
G1 X58.612 Y94.327 E.04481
G1 X58.456 Y93.733 E.04486
G1 X58.393 Y93.007 E.05323
G1 X58.393 Y87 E.43876
G1 X58.526 Y85.949 E.07738
G1 X58.923 Y85.02 E.07379
G1 X59.544 Y84.277 E.07073
G1 X60.344 Y83.747 E.07009
G1 X61.281 Y83.453 E.07173
G1 X61.996 Y83.393 E.05241
G1 X118.03 Y83.393 E4.09282
G1 X118.681 Y83.447 E.04771
G1 X119.388 Y83.634 E.05342
G1 X120.004 Y83.938 E.05017
G1 X120.532 Y84.347 E.04878
G1 X120.966 Y84.851 E.04858
G1 X121.275 Y85.393 E.04557
G1 X121.51 Y86.096 E.05414
G1 X121.601 Y86.773 E.04989
G1 X121.605 Y93.123 E.46381
G1 X121.442 Y94.163 E.07689
G1 X121.058 Y95.011 E.06799
G1 X120.437 Y95.74 E.06995
