; generated by PrusaSlicer 2.6.0-alpha6 on 2023-04-08 at 22:12:00 UTC


;
;

;
;
; 

; external perimeters extrusion width = 0.68mm
; perimeters extrusion width = 0.68mm
; infill extrusion width = 0.68mm
; solid infill extrusion width = 0.68mm
; top infill extrusion width = 0.60mm
; support material extrusion width = 0.55mm
; first layer extrusion width = 0.65mm

M73 P0 R11
M201 X2500 Y2500 Z400 E5000 ; sets maximum accelerations, mm/sec^2
M203 X180 Y180 Z12 E80 ; sets maximum feedrates, mm / sec
M204 P1250 R1250 T2500 ; sets acceleration (P, T) and retract acceleration (R), mm/sec^2
M205 X8.00 Y8.00 Z2.00 E10.00 ; sets the jerk limits, mm/sec
M205 S0 T0 ; sets the minimum extruding and travel feed rate, mm/sec
;TYPE:Custom
M862.3 P "MINI" ; printer model check
G90 ; use absolute coordinates
M83 ; extruder relative mode
M104 S170 ; set extruder temp for bed leveling
M140 S60 ; set bed temp
M109 R170 ; wait for bed leveling temp
M190 S60 ; wait for bed temp
M204 T1250 ; set travel acceleration
G28 ; home all without mesh bed level
G29 ; mesh bed leveling 
M204 T2500 ; restore travel acceleration
M104 S215 ; set extruder temp
G92 E0
G1 Y-2 X179 F2400
G1 Z3 F720
M109 S215 ; wait for extruder temp

; intro line
G1 X170 F1000
G1 Z0.2 F720
G1 X110 E8 F900
G1 X40 E10 F700
G92 E0

M221 S95 ; set flow
G21 ; set units to millimeters
G90 ; use absolute coordinates
M83 ; use relative distances for extrusion
M900 K0.12 ; Filament gcode LA 1.5
; ; Filament gcode LA 1.0
M107
;LAYER_CHANGE
;Z:0.2
;HEIGHT:0.2
;BEFORE_LAYER_CHANGE
G92 E0.0
;0.2


M73 P1 R11
G1 E-3.2 F4200
M73 P2 R10
G1 Z.2 F720
;AFTER_LAYER_CHANGE
;0.2
G1 Z.4
G1 X83.941 Y83.472 F9000
G1 Z.2 F720
G1 E3.2 F2400
M204 P800
;TYPE:Skirt/Brim
;WIDTH:0.65
G1 F1200
G1 X84.623 Y82.899 E.04496
G1 X85.498 Y82.315 E.0531
G1 X86.288 Y81.904 E.04495
G1 X87.268 Y81.523 E.05308
G1 X88.128 Y81.292 E.04495
G1 X89.267 Y81.124 E.05812
G1 X90.323 Y81.099 E.05332
G1 X91.219 Y81.177 E.0454
G1 X92.348 Y81.409 E.05818
G1 X93.347 Y81.746 E.05322
G1 X94.163 Y82.126 E.04544
G1 X95.055 Y82.667 E.05266
G1 X95.769 Y83.214 E.0454
G1 X96.528 Y83.941 E.05305
G1 X97.261 Y84.842 E.05863
G1 X97.872 Y85.834 E.05881
G1 X98.25 Y86.644 E.04512
G1 X98.586 Y87.631 E.05263
G1 X98.781 Y88.51 E.04545
G1 X98.895 Y89.554 E.05301
G1 X98.878 Y90.711 E.05841
G1 X98.761 Y91.602 E.04536
G1 X98.481 Y92.72 E.05818
G1 X97.746 Y94.396 E.09238
G1 X91.457 Y105.408 E.64014
G1 X90.289 Y106.939 E.09721
G1 X89.454 Y107.716 E.05758
G1 X88.116 Y108.619 E.08148
G1 X86.181 Y109.401 E.10535
G1 X85.064 Y109.629 E.05755
G1 X83.451 Y109.703 E.08151
G1 X81.392 Y109.364 E.10534
G1 X79.889 Y108.776 E.08147
G1 X78.518 Y107.925 E.08145
G1 X77.324 Y106.839 E.08147
G1 X76.609 Y105.951 E.05755
G1 X75.835 Y104.607 E.07829
G1 X75.255 Y102.961 E.0881
G1 X75.016 Y101.36 E.08171
G1 X75.073 Y99.744 E.08162
G1 X75.423 Y98.164 E.08169
G1 X75.835 Y97.108 E.05722
G1 X76.366 Y96.124 E.05644
G1 X82.269 Y85.577 E.61012
G1 X83.214 Y84.231 E.08302
M73 P3 R10
G1 X83.879 Y83.537 E.04852
M204 P1250
; printing object beacon_feet.stl id:0 copy 0
G1 E-2.24 F4200
;WIPE_START
G1 F7200
G1 X84.623 Y82.899 E-.54313
G1 X85.249 Y82.481 E-.41687
;WIPE_END
G1 Z.4 F720
G1 X90.106 Y87.572 F9000
G1 Z.2 F720
G1 E3.2 F2400
M204 P800
;TYPE:Support material
G1 F1200
G1 X90.422 Y87.606 E.01604
G1 X90.629 Y87.652 E.0107
G1 X91.027 Y87.797 E.02138
G1 X91.394 Y88.009 E.02139
G1 X91.562 Y88.138 E.01069
G1 X91.792 Y88.358 E.01607
G1 X91.929 Y88.52 E.01071
G1 X92.105 Y88.785 E.01606
G1 X92.284 Y89.169 E.02139
G1 X92.394 Y89.578 E.02138
G1 X92.429 Y89.894 E.01605
G1 X92.429 Y90.106 E.0107
G1 X92.41 Y90.318 E.01074
G1 X92.348 Y90.629 E.01601
G1 X92.203 Y91.027 E.02138
G1 X92.105 Y91.215 E.0107
G1 X91.929 Y91.48 E.01606
G1 X91.642 Y91.792 E.0214
G1 X91.306 Y92.05 E.02138
G1 X91.122 Y92.156 E.01072
G1 X90.831 Y92.284 E.01605
G1 X90.422 Y92.394 E.02138
G1 X90.212 Y92.422 E.01069
G1 X89.894 Y92.428 E.01606
G1 X89.474 Y92.373 E.02138
G1 X89.169 Y92.284 E.01604
G1 X88.973 Y92.203 E.01071
G1 X88.606 Y91.991 E.02139
G1 X88.438 Y91.862 E.01069
G1 X88.208 Y91.642 E.01607
G1 X88.071 Y91.48 E.01071
G1 X87.895 Y91.216 E.01602
G1 X87.716 Y90.831 E.02143
G1 X87.606 Y90.422 E.02138
G1 X87.571 Y90.106 E.01605
G1 X87.571 Y89.894 E.0107
G1 X87.59 Y89.682 E.01074
G1 X87.652 Y89.371 E.01601
G1 X87.797 Y88.973 E.02138
G1 X87.895 Y88.785 E.0107
G1 X88.071 Y88.52 E.01606
G1 X88.358 Y88.208 E.0214
G1 X88.694 Y87.95 E.02138
G1 X88.878 Y87.844 E.01072
G1 X89.169 Y87.716 E.01605
G1 X89.578 Y87.606 E.02138
G1 X90.015 Y87.57 E.02213
M204 P1250
G1 X91.349 Y91.683 F9000
M204 P800
G1 F1200
G1 X91.349 Y88.685 E.15134
G1 X91.211 Y88.556 E.00954
G1 X91.012 Y88.411 E.01243
G1 X90.675 Y88.241 E.01905
G1 X90.675 Y91.759 E.17758
G1 X90.327 Y91.856 E.01824
G1 X90 Y91.884 E.01657
G1 X90 Y88.116 E.1902
G1 X89.673 Y88.144 E.01657
G1 X89.325 Y88.241 E.01824
G1 X89.325 Y91.759 E.17758
G1 X88.988 Y91.589 E.01905
G1 X88.789 Y91.444 E.01243
G1 X88.651 Y91.315 E.00954
G1 X88.651 Y88.317 E.15134
M204 P1250
G1 E-2.24 F4200
;WIPE_START
G1 F7200
G1 X88.651 Y90.049 E-.96
;WIPE_END
G1 Z.4 F720
G1 X84.536 Y94.64 F9000
G1 Z.2 F720
G1 E3.2 F2400
M204 P800
G1 F1200
G1 X84.937 Y95.076 E.0299
G1 X85.399 Y95.498 E.03159
G1 X85.896 Y95.878 E.03158
G1 X86.424 Y96.213 E.03156
G1 X86.979 Y96.501 E.03156
G1 X87.557 Y96.74 E.03157
G1 X88.154 Y96.927 E.03158
G1 X88.797 Y97.067 E.03322
G1 X89.193 Y97.6 E.03352
G1 X89.696 Y98.624 E.05759
G1 X90.004 Y99.722 E.05757
G1 X90.108 Y100.855 E.05743
G1 X90.061 Y101.377 E.02646
G1 X90.003 Y101.995 E.03133
G1 X89.696 Y103.091 E.05745
G1 X89.193 Y104.115 E.05759
G1 X88.513 Y105.03 E.05755
G1 X87.678 Y105.807 E.05758
G1 X86.716 Y106.419 E.05755
G1 X85.659 Y106.847 E.05756
G1 X84.542 Y107.075 E.05755
G1 X83.402 Y107.097 E.05756
G1 X82.276 Y106.911 E.05761
G1 X81.204 Y106.525 E.05751
G1 X80.219 Y105.95 E.05757
G1 X79.356 Y105.206 E.05752
G1 X78.641 Y104.317 E.05759
G1 X78.13 Y103.37 E.05432
G1 X77.93 Y102.837 E.02874
G1 X77.762 Y102.247 E.03097
G1 X77.669 Y101.731 E.02647
G1 X77.612 Y101.12 E.03098
G1 X77.612 Y100.595 E.0265
G1 X77.669 Y99.984 E.03098
G1 X77.762 Y99.468 E.02647
G1 X77.93 Y98.878 E.03097
G1 X78.13 Y98.345 E.02874
G1 X78.641 Y97.398 E.05432
G1 X79.332 Y96.539 E.05565
G1 X79.826 Y96.088 E.03377
G1 X80.263 Y95.739 E.02823
G1 X81.204 Y95.19 E.05499
G1 X82.276 Y94.804 E.05751
G1 X83.402 Y94.618 E.05761
G1 X84.445 Y94.638 E.05266
M204 P1250
G1 X89.325 Y103.225 F9000
M204 P800
G1 F1200
G1 X89.325 Y99.327 E.19677
G1 X89.183 Y98.82 E.02658
G1 X88.725 Y97.886 E.05251
G1 X88.651 Y97.787 E.00624
G1 X88.651 Y103.928 E.30999
G1 X88.104 Y104.664 E.04629
G1 X87.976 Y104.783 E.00882
G1 X87.976 Y97.445 E.37041
G1 X87.302 Y97.227 E.03576
G1 X87.302 Y105.399 E.41251
G1 X86.627 Y105.828 E.04037
G1 X86.627 Y96.938 E.44876
G1 X85.953 Y96.567 E.03884
M73 P4 R10
G1 X85.953 Y106.138 E.48313
G1 X85.5 Y106.321 E.02466
G1 X85.278 Y106.367 E.01144
G1 X85.278 Y96.101 E.51822
G1 X85.029 Y95.9 E.01615
G1 X84.604 Y95.513 E.02902
G1 X84.604 Y106.505 E.55486
G1 X84.481 Y106.53 E.00634
G1 X83.929 Y106.54 E.02787
G1 X83.929 Y95.175 E.57369
G1 X83.441 Y95.165 E.02464
G1 X83.255 Y95.196 E.00952
G1 X83.255 Y106.519 E.57157
G1 X82.58 Y106.408 E.03453
G1 X82.58 Y95.307 E.56037
G1 X82.415 Y95.335 E.00845
G1 X81.906 Y95.518 E.0273
G1 X81.906 Y106.197 E.53906
G1 X81.436 Y106.028 E.02521
G1 X81.231 Y105.908 E.01199
G1 X81.231 Y95.807 E.50989
G1 X80.557 Y96.204 E.03949
G1 X80.557 Y105.514 E.46996
G1 X79.882 Y104.938 E.04479
G1 X79.882 Y96.776 E.41201
G1 X79.731 Y96.914 E.01033
G1 X79.207 Y97.565 E.04218
G1 X79.207 Y104.15 E.3324
G1 X79.098 Y104.014 E.0088
G1 X78.629 Y103.143 E.04994
G1 X78.533 Y102.888 E.01375
G1 X78.533 Y98.174 E.23796
M204 P1250
G1 E-2.24 F4200
;WIPE_START
M73 P5 R10
G1 F7200
G1 X78.533 Y99.906 E-.96
;WIPE_END
G1 Z.4 F720
G1 X93.111 Y94.079 F9000
G1 Z.2 F720
G1 E3.2 F2400
M204 P800
;TYPE:Perimeter
;WIDTH:0.723579
G1 F1200
G1 X92.642 Y94.395 E.03201
;WIDTH:0.717496
G1 X92.176 Y94.647 E.02972
;WIDTH:0.71901
G1 X91.741 Y94.827 E.02647
G1 X90.96 Y95.042 E.04554
;WIDTH:0.720092
G1 X90.439 Y95.111 E.02959
G1 X89.868 Y95.127 E.03216
;WIDTH:0.723428
G1 X89.323 Y95.084 E.03093
G1 X88.648 Y94.95 E.03894
;WIDTH:0.717981
G1 X87.84 Y94.656 E.04826
;WIDTH:0.717491
G1 X87.333 Y94.382 E.03233
;WIDTH:0.723581
G1 X86.866 Y94.06 E.0321
G1 X86.207 Y93.456 E.05059
;WIDTH:0.718986
G1 X85.709 Y92.817 E.04554
;WIDTH:0.720108
G1 X85.446 Y92.362 E.02959
G1 X85.213 Y91.84 E.03219
;WIDTH:0.723567
G1 X85.041 Y91.313 E.03137
G1 X84.929 Y90.759 E.03199
;WIDTH:0.717496
G1 X84.874 Y90.232 E.02972
;WIDTH:0.718117
G1 X84.873 Y89.761 E.02644
;WIDTH:0.718259
G1 X84.987 Y88.899 E.04883
G1 X85.176 Y88.252 E.03785
G1 X85.355 Y87.818 E.02636
;WIDTH:0.718112
G1 X85.749 Y87.127 E.04466
;WIDTH:0.723422
G1 X86.076 Y86.697 E.03057
G1 X86.468 Y86.282 E.0323
;WIDTH:0.72358
G1 X86.889 Y85.921 E.03139
G1 X87.358 Y85.605 E.03201
;WIDTH:0.717542
G1 X87.82 Y85.354 E.02949
;WIDTH:0.718111
G1 X88.259 Y85.172 E.02668
G1 X89.024 Y84.962 E.04454
;WIDTH:0.723178
G1 X89.561 Y84.89 E.03065
G1 X90.248 Y84.875 E.03887
;WIDTH:0.718392
G1 X91.101 Y84.987 E.04832
;WIDTH:0.718233
G1 X91.748 Y85.176 E.03785
G1 X92.16 Y85.344 E.02498
;WIDTH:0.717495
G1 X92.667 Y85.619 E.03235
;WIDTH:0.723579
G1 X93.134 Y85.94 E.03207
G1 X93.793 Y86.544 E.05059
;WIDTH:0.718984
G1 X94.291 Y87.183 E.04554
;WIDTH:0.720102
G1 X94.554 Y87.638 E.02959
G1 X94.787 Y88.158 E.03209
;WIDTH:0.723302
G1 X94.959 Y88.687 E.03147
G1 X95.07 Y89.23 E.03135
;WIDTH:0.717562
G1 X95.126 Y89.768 E.03034
;WIDTH:0.718118
G1 X95.127 Y90.239 E.02644
;WIDTH:0.718257
G1 X95.013 Y91.101 E.04883
G1 X94.824 Y91.748 E.03785
G1 X94.645 Y92.182 E.02636
;WIDTH:0.718111
G1 X94.251 Y92.873 E.04466
;WIDTH:0.723423
G1 X93.924 Y93.303 E.03057
G1 X93.532 Y93.718 E.0323
;WIDTH:0.723579
G1 X93.179 Y94.02 E.02629
M204 P1250
G1 X93.487 Y94.601 F9000
M204 P800
;TYPE:External perimeter
;WIDTH:0.649999
G1 F1200
G1 X93.106 Y94.868 E.02348
G1 X92.437 Y95.235 E.03852
G1 X91.975 Y95.426 E.02524
G1 X91.495 Y95.578 E.02542
G1 X91.003 Y95.687 E.02544
G1 X90.507 Y95.752 E.02525
G1 X89.798 Y95.768 E.0358
G1 X89.25 Y95.726 E.02774
G1 X88.507 Y95.578 E.03824
G1 X88.025 Y95.426 E.02551
G1 X87.563 Y95.235 E.02524
G1 X86.941 Y94.894 E.03581
G1 X86.52 Y94.606 E.02575
G1 X86.131 Y94.285 E.02546
G1 X85.773 Y93.932 E.02538
G1 X85.446 Y93.548 E.02546
G1 X85.154 Y93.137 E.02545
G1 X84.88 Y92.67 E.02733
G1 X84.573 Y91.972 E.03849
G1 X84.422 Y91.495 E.02526
G1 X84.314 Y91.006 E.02528
G1 X84.231 Y90.248 E.03849
G1 X84.231 Y89.748 E.02524
G1 X84.275 Y89.246 E.02544
G1 X84.362 Y88.754 E.02522
G1 X84.575 Y88.022 E.03848
G1 X84.766 Y87.56 E.02524
G1 X84.999 Y87.113 E.02545
G1 X85.27 Y86.688 E.02544
G1 X85.574 Y86.291 E.02524
G1 X86.101 Y85.74 E.03849
G1 X86.485 Y85.419 E.02526
G1 X86.894 Y85.132 E.02522
G1 X87.559 Y84.767 E.03829
G1 X88.025 Y84.574 E.02546
G1 X88.505 Y84.422 E.02542
G1 X88.997 Y84.313 E.02544
G1 X89.493 Y84.248 E.02525
G1 X90.251 Y84.231 E.03827
G1 X90.754 Y84.275 E.02549
G1 X91.246 Y84.362 E.02522
G1 X91.927 Y84.56 E.0358
G1 X92.437 Y84.765 E.02775
G1 X93.106 Y85.132 E.03852
G1 X93.515 Y85.419 E.02522
G1 X93.901 Y85.743 E.02544
G1 X94.257 Y86.099 E.02541
G1 X94.581 Y86.485 E.02544
G1 X94.87 Y86.897 E.0254
G1 X95.12 Y87.33 E.02524
G1 X95.427 Y88.028 E.03849
G1 X95.578 Y88.505 E.02526
G1 X95.686 Y88.994 E.02528
G1 X95.769 Y89.752 E.03849
G1 X95.769 Y90.252 E.02524
G1 X95.725 Y90.754 E.02544
G1 X95.638 Y91.246 E.02522
G1 X95.425 Y91.978 E.03848
G1 X95.234 Y92.44 E.02524
G1 X95.001 Y92.887 E.02545
G1 X94.73 Y93.312 E.02544
G1 X94.426 Y93.709 E.02524
G1 X93.899 Y94.26 E.03849
G1 X93.557 Y94.546 E.0225
M204 P1250
G1 X93.056 Y94.426 F9000
G1 E-2.24 F4200
;WIPE_START
G1 F7200
G1 X93.106 Y94.868 E-.30709
G1 X92.437 Y95.235 E-.42286
G1 X92.053 Y95.394 E-.23005
;WIPE_END
G1 Z.4 F720
G1 X86.925 Y86.784 F9000
G1 Z.2 F720
G1 E3.2 F2400
M204 P800
;TYPE:Perimeter
;WIDTH:0.723422
G1 F1200
G1 X86.984 Y86.72 E.00493
;WIDTH:0.719177
G1 X87.517 Y86.295 E.03833
;WIDTH:0.717542
G1 X88.138 Y85.949 E.03988
;WIDTH:0.718118
G1 X88.86 Y85.69 E.04306
;WIDTH:0.723178
G1 X89.606 Y85.568 E.04276
G1 X90.19 Y85.548 E.03305
;WIDTH:0.718392
G1 X90.692 Y85.593 E.02831
;WIDTH:0.718233
G1 X91.559 Y85.824 E.05038
G1 X92.327 Y86.195 E.04789
;WIDTH:0.719017
G1 X93.027 Y86.729 E.0495
;WIDTH:0.723568
G1 X93.534 Y87.297 E.04309
G1 X93.806 Y87.673 E.02626
;WIDTH:0.713717
G1 X94.088 Y88.218 E.03423
;WIDTH:0.723302
G1 X94.3 Y88.856 E.03803
G1 X94.404 Y89.296 E.02558
;WIDTH:0.717562
G1 X94.455 Y89.835 E.03037
;WIDTH:0.718104
G1 X94.418 Y90.597 E.04283
;WIDTH:0.718256
G1 X94.36 Y90.929 E.01893
G1 X94.176 Y91.559 E.03686
G1 X93.853 Y92.242 E.04243
;WIDTH:0.723423
G1 X93.412 Y92.854 E.04268
G1 X93.016 Y93.28 E.03291
;WIDTH:0.719175
G1 X92.483 Y93.705 E.03833
;WIDTH:0.717496
G1 X91.858 Y94.053 E.04012
;WIDTH:0.723591
G1 X91.144 Y94.3 E.04276
G1 X90.694 Y94.407 E.02618
;WIDTH:0.713708
G1 X90.082 Y94.458 E.03425
;WIDTH:0.723428
G1 X89.426 Y94.412 E.03721
G1 X88.851 Y94.307 E.03307
;WIDTH:0.717981
G1 X88.369 Y94.152 E.02842
;WIDTH:0.713838
G1 X87.673 Y93.805 E.04339
;WIDTH:0.71902
G1 X86.973 Y93.271 E.0495
;WIDTH:0.723572
G1 X86.466 Y92.703 E.04309
G1 X86.194 Y92.327 E.02626
;WIDTH:0.713739
G1 X85.912 Y91.782 E.03423
;WIDTH:0.723567
G1 X85.7 Y91.144 E.03805
G1 X85.594 Y90.694 E.02617
;WIDTH:0.717496
G1 X85.54 Y90.082 E.03446
;WIDTH:0.718104
G1 X85.582 Y89.403 E.03819
;WIDTH:0.718257
G1 X85.64 Y89.071 E.01893
G1 X85.824 Y88.441 E.03686
G1 X86.147 Y87.758 E.04243
;WIDTH:0.723422
G1 X86.588 Y87.146 E.04268
G1 X86.863 Y86.849 E.0229
M204 P1250
G1 X87.431 Y87.184 F9000
M204 P800
;TYPE:External perimeter
;WIDTH:0.649999
G1 F1200
G1 X87.918 Y86.793 E.03153
G1 X88.434 Y86.518 E.02952
G1 X89.053 Y86.302 E.03309
G1 X89.677 Y86.208 E.03185
G1 X90.135 Y86.186 E.02315
G1 X90.637 Y86.23 E.02544
G1 X91.379 Y86.44 E.03893
G1 X92.033 Y86.761 E.03678
G1 X92.626 Y87.229 E.03813
G1 X93.239 Y87.968 E.04847
G1 X93.523 Y88.512 E.03098
G1 X93.769 Y89.352 E.04418
G1 X93.824 Y89.973 E.03147
G1 X93.779 Y90.541 E.02876
G1 X93.561 Y91.379 E.04371
G1 X93.284 Y91.946 E.03185
G1 X92.91 Y92.451 E.03172
G1 X92.614 Y92.78 E.02234
G1 X92.082 Y93.207 E.03444
G1 X91.562 Y93.484 E.02974
G1 X90.638 Y93.77 E.04883
G1 X90.026 Y93.824 E.03101
G1 X89.496 Y93.772 E.02688
G1 X89.044 Y93.695 E.02315
G1 X88.561 Y93.543 E.02556
G1 X87.968 Y93.239 E.03364
G1 X87.374 Y92.771 E.03817
M73 P6 R10
G1 X86.761 Y92.032 E.04847
G1 X86.477 Y91.488 E.03098
G1 X86.23 Y90.638 E.04468
G1 X86.176 Y90.026 E.03101
G1 X86.221 Y89.459 E.02871
G1 X86.44 Y88.621 E.04372
G1 X86.716 Y88.054 E.03183
G1 X87.09 Y87.549 E.03172
G1 X87.364 Y87.244 E.0207
M204 P1250
G1 X87.299 Y86.599 F9000
; stop printing object beacon_feet.stl id:0 copy 0
M106 S84.15
;LAYER_CHANGE
;Z:0.5
;HEIGHT:0.3
;BEFORE_LAYER_CHANGE
G92 E0.0
;0.5


G1 E-2.24 F4200
;WIPE_START
G1 F7200
G1 X87.918 Y86.793 E-.39588
G1 X88.434 Y86.518 E-.32402
G1 X88.843 Y86.375 E-.2401
;WIPE_END
G1 Z.4 F720
G1 Z.5
;AFTER_LAYER_CHANGE
;0.5
G1 Z.7
G1 X86.997 Y81.628 F9000
G1 Z.5 F720
G1 E3.2 F2400
;TYPE:Skirt/Brim
;WIDTH:0.65
G1 F1211
G1 X87.268 Y81.523 E.02123
G1 X88.128 Y81.292 E.06504
G1 X89.267 Y81.124 E.08409
G1 X90.323 Y81.099 E.07715
G1 X91.219 Y81.177 E.06569
G1 X92.348 Y81.409 E.08419
G1 X93.347 Y81.746 E.07701
G1 X94.163 Y82.126 E.06575
G1 X95.055 Y82.667 E.0762
G1 X95.769 Y83.214 E.0657
G1 X96.528 Y83.941 E.07677
G1 X97.261 Y84.842 E.08484
G1 X97.872 Y85.834 E.0851
G1 X98.25 Y86.644 E.06529
G1 X98.586 Y87.631 E.07616
G1 X98.781 Y88.51 E.06576
G1 X98.895 Y89.554 E.07671
G1 X98.878 Y90.711 E.08452
G1 X98.761 Y91.602 E.06564
G1 X98.481 Y92.72 E.08418
G1 X97.746 Y94.396 E.13367
G1 X91.457 Y105.408 E.92626
G1 X90.289 Y106.939 E.14065
G1 X89.454 Y107.716 E.08331
G1 X88.116 Y108.619 E.1179
G1 X86.181 Y109.401 E.15244
G1 X85.064 Y109.629 E.08327
G1 X83.451 Y109.703 E.11794
G1 X81.392 Y109.364 E.15242
G1 X79.889 Y108.776 E.11788
G1 X78.518 Y107.925 E.11786
G1 X77.324 Y106.839 E.11789
G1 X76.609 Y105.951 E.08327
G1 X75.835 Y104.607 E.11328
G1 X75.255 Y102.961 E.12747
G1 X75.016 Y101.36 E.11824
G1 X75.073 Y99.744 E.11811
