; generated by PrusaSlicer 2.6.0-alpha6 on 2023-04-09 at 13:19:44 UTC


;
;

;
;
; 

; external perimeters extrusion width = 0.68mm
; perimeters extrusion width = 0.68mm
; infill extrusion width = 0.68mm
; solid infill extrusion width = 0.68mm
; top infill extrusion width = 0.60mm
; support material extrusion width = 0.55mm
; first layer extrusion width = 0.65mm

M73 P0 R12
M201 X2500 Y2500 Z400 E5000 ; sets maximum accelerations, mm/sec^2
M203 X180 Y180 Z12 E80 ; sets maximum feedrates, mm / sec
M204 P1250 R1250 T2500 ; sets acceleration (P, T) and retract acceleration (R), mm/sec^2
M205 X8.00 Y8.00 Z2.00 E10.00 ; sets the jerk limits, mm/sec
M205 S0 T0 ; sets the minimum extruding and travel feed rate, mm/sec
;TYPE:Custom
M862.3 P "MINI" ; printer model check
G90 ; use absolute coordinates
M83 ; extruder relative mode
M104 S170 ; set extruder temp for bed leveling
M140 S60 ; set bed temp
M109 R170 ; wait for bed leveling temp
M190 S60 ; wait for bed temp
M204 T1250 ; set travel acceleration
G28 ; home all without mesh bed level
G29 ; mesh bed leveling 
M204 T2500 ; restore travel acceleration
M104 S215 ; set extruder temp
G92 E0
G1 Y-2 X179 F2400
G1 Z3 F720
M109 S215 ; wait for extruder temp

; intro line
G1 X170 F1000
G1 Z0.2 F720
G1 X110 E8 F900
G1 X40 E10 F700
G92 E0

M221 S95 ; set flow
G21 ; set units to millimeters
G90 ; use absolute coordinates
M83 ; use relative distances for extrusion
M900 K0.12 ; Filament gcode LA 1.5
; ; Filament gcode LA 1.0
M107
;LAYER_CHANGE
;Z:0.2
;HEIGHT:0.2
;BEFORE_LAYER_CHANGE
G92 E0.0
;0.2


M73 P1 R11
G1 E-3.2 F4200
M73 P2 R11
G1 Z.2 F720
;AFTER_LAYER_CHANGE
;0.2
G1 Z.4
G1 X83.513 Y83.042 F9000
G1 Z.2 F720
G1 E3.2 F2400
M204 P800
;TYPE:Skirt/Brim
;WIDTH:0.65
G1 F1091
G1 X84.937 Y81.945 E.09074
G1 X86.676 Y81.086 E.09791
G1 X88.415 Y80.619 E.09089
G1 X90.344 Y80.493 E.09758
G1 X92.128 Y80.727 E.09083
G1 X93.952 Y81.346 E.09723
G1 X95.508 Y82.243 E.09066
G1 X96.967 Y83.521 E.09791
G1 X98.058 Y84.942 E.09043
G1 X98.912 Y86.671 E.09734
G1 X99.381 Y88.417 E.09126
G1 X99.507 Y90.345 E.09753
G1 X99.274 Y92.122 E.09047
G1 X98.653 Y93.955 E.09769
G1 X97.752 Y95.515 E.09094
G1 X96.484 Y96.961 E.09708
G1 X95.052 Y98.061 E.09115
G1 X93.32 Y98.916 E.0975
G1 X91.583 Y99.381 E.09077
G1 X89.655 Y99.507 E.09753
G1 X87.873 Y99.273 E.09073
G1 X86.043 Y98.652 E.09755
G1 X84.486 Y97.753 E.09076
G1 X83.033 Y96.478 E.09758
G1 X81.942 Y95.058 E.09039
G1 X81.086 Y93.324 E.09761
G1 X80.621 Y91.595 E.09038
G1 X80.493 Y89.655 E.09814
G1 X80.727 Y87.874 E.09068
G1 X81.347 Y86.046 E.09744
G1 X82.241 Y84.496 E.09032
G1 X83.453 Y83.109 E.09298
M204 P1250
G1 X83.908 Y83.508 F9000
M204 P800
G1 F1091
G1 X85.253 Y82.464 E.08595
G1 X86.896 Y81.652 E.09251
G1 X88.508 Y81.219 E.08426
G1 X90.33 Y81.1 E.09217
G1 X91.983 Y81.317 E.08416
G1 X93.708 Y81.902 E.09195
G1 X95.15 Y82.733 E.08401
G1 X96.528 Y83.941 E.0925
G1 X97.539 Y85.257 E.08377
G1 X98.347 Y86.892 E.09206
G1 X98.781 Y88.51 E.08456
G1 X98.9 Y90.332 E.09217
G1 X98.684 Y91.978 E.0838
G1 X98.097 Y93.711 E.09236
G1 X97.263 Y95.156 E.08422
G1 X96.065 Y96.523 E.09175
G1 X94.737 Y97.542 E.0845
G1 X93.1 Y98.35 E.09215
G1 X91.49 Y98.781 E.08413
G1 X89.668 Y98.9 E.09217
G1 X88.017 Y98.683 E.08406
G1 X86.288 Y98.096 E.09217
M73 P3 R11
G1 X84.845 Y97.263 E.08411
G1 X83.472 Y96.059 E.09218
G1 X82.461 Y94.743 E.08377
G1 X81.652 Y93.103 E.09231
G1 X81.221 Y91.502 E.08369
G1 X81.1 Y89.668 E.09278
G1 X81.317 Y88.018 E.08401
G1 X81.903 Y86.29 E.09211
G1 X82.731 Y84.854 E.08367
G1 X83.849 Y83.575 E.08575
M204 P1250
; printing object beacon_feet.stl id:0 copy 0
G1 E-2.24 F4200
;WIPE_START
G1 F7200
G1 X85.207 Y82.5 E-.96
;WIPE_END
G1 Z.4 F720
G1 X89.115 Y84.965 F9000
G1 Z.2 F720
G1 E3.2 F2400
M204 P800
;TYPE:Perimeter
;WIDTH:0.723584
G1 F1091
G1 X89.542 Y84.888 E.02456
;WIDTH:0.717504
G1 X90.119 Y84.872 E.03238
;WIDTH:0.723581
G1 X90.684 Y84.916 E.03207
G1 X91.2 Y85.014 E.02973
;WIDTH:0.723421
G1 X91.782 Y85.19 E.0344
G1 X92.25 Y85.391 E.02882
;WIDTH:0.72008
G1 X92.78 Y85.688 E.03421
G1 X93.223 Y86.007 E.03074
;WIDTH:0.713706
G1 X93.736 Y86.481 E.03896
;WIDTH:0.723579
G1 X94.079 Y86.889 E.03017
G1 X94.548 Y87.621 E.0492
;WIDTH:0.717507
G1 X94.783 Y88.147 E.03232
;WIDTH:0.720378
G1 X94.96 Y88.686 E.03196
G1 X95.074 Y89.269 E.03346
;WIDTH:0.713073
G1 X95.131 Y90.154 E.04942
;WIDTH:0.72356
G1 X95.084 Y90.684 E.03011
G1 X94.918 Y91.44 E.04381
;WIDTH:0.713094
G1 X94.681 Y92.106 E.03939
;WIDTH:0.723602
G1 X94.435 Y92.578 E.03013
G1 X93.938 Y93.291 E.04919
;WIDTH:0.718233
G1 X93.472 Y93.778 E.03785
G1 X93.113 Y94.081 E.02638
;WIDTH:0.718125
G1 X92.459 Y94.496 E.04349
;WIDTH:0.713081
G1 X91.821 Y94.799 E.03936
;WIDTH:0.723589
G1 X91.313 Y94.959 E.03014
G1 X90.439 Y95.113 E.05023
;WIDTH:0.717504
G1 X89.616 Y95.112 E.04616
;WIDTH:0.713089
G1 X88.74 Y94.976 E.0494
;WIDTH:0.723577
G1 X88.232 Y94.815 E.03016
G1 X87.75 Y94.609 E.02967
;WIDTH:0.720081
G1 X87.22 Y94.312 E.03421
G1 X86.777 Y93.993 E.03074
;WIDTH:0.713707
G1 X86.264 Y93.519 E.03896
;WIDTH:0.723581
G1 X85.921 Y93.111 E.03017
G1 X85.452 Y92.379 E.0492
;WIDTH:0.717511
G1 X85.217 Y91.853 E.03232
;WIDTH:0.72038
G1 X85.04 Y91.314 E.03196
G1 X84.926 Y90.731 E.03346
;WIDTH:0.723106
G1 X84.874 Y90.213 E.02944
G1 X84.869 Y89.846 E.02076
;WIDTH:0.723562
G1 X84.916 Y89.316 E.03011
G1 X85.082 Y88.56 E.04381
;WIDTH:0.713095
G1 X85.319 Y87.895 E.03934
;WIDTH:0.723603
G1 X85.565 Y87.422 E.03018
G1 X86.062 Y86.709 E.04919
;WIDTH:0.718232
G1 X86.528 Y86.222 E.03785
G1 X86.887 Y85.919 E.02638
;WIDTH:0.718127
G1 X87.541 Y85.504 E.04349
;WIDTH:0.713074
G1 X88.179 Y85.201 E.03936
;WIDTH:0.723584
G1 X88.687 Y85.041 E.03014
G1 X89.026 Y84.98 E.01949
M204 P1250
G1 X88.997 Y84.313 F9000
M204 P800
;TYPE:External perimeter
;WIDTH:0.649999
G1 F1091
G1 X89.493 Y84.248 E.02525
G1 X90.254 Y84.231 E.03842
G1 X90.754 Y84.275 E.02534
G1 X91.246 Y84.362 E.02522
G1 X91.927 Y84.56 E.0358
G1 X92.437 Y84.765 E.02775
G1 X93.105 Y85.131 E.03845
G1 X93.515 Y85.419 E.02529
G1 X93.901 Y85.743 E.02544
G1 X94.257 Y86.099 E.02541
G1 X94.581 Y86.485 E.02544
G1 X94.87 Y86.897 E.0254
G1 X95.12 Y87.33 E.02524
G1 X95.427 Y88.028 E.03849
G1 X95.578 Y88.505 E.02526
G1 X95.686 Y88.994 E.02528
G1 X95.769 Y89.752 E.03849
G1 X95.769 Y90.252 E.02524
G1 X95.725 Y90.754 E.02544
G1 X95.638 Y91.246 E.02522
G1 X95.425 Y91.978 E.03848
G1 X95.234 Y92.441 E.02528
G1 X95.001 Y92.887 E.0254
G1 X94.73 Y93.312 E.02544
G1 X94.426 Y93.709 E.02524
G1 X93.899 Y94.26 E.03849
G1 X93.515 Y94.581 E.02526
G1 X93.106 Y94.868 E.02522
G1 X92.437 Y95.235 E.03852
G1 X91.975 Y95.426 E.02524
G1 X91.495 Y95.578 E.02542
G1 X91.003 Y95.687 E.02544
G1 X90.507 Y95.752 E.02525
G1 X89.748 Y95.769 E.03832
G1 X88.995 Y95.686 E.03824
G1 X88.505 Y95.578 E.02533
G1 X88.025 Y95.426 E.02542
G1 X87.563 Y95.235 E.02524
G1 X86.895 Y94.869 E.03845
G1 X86.485 Y94.581 E.02529
G1 X86.099 Y94.258 E.02541
G1 X85.743 Y93.901 E.02545
G1 X85.419 Y93.515 E.02544
G1 X85.13 Y93.103 E.0254
G1 X84.88 Y92.67 E.02524
G1 X84.573 Y91.972 E.03849
G1 X84.422 Y91.495 E.02526
G1 X84.314 Y91.006 E.02528
G1 X84.231 Y90.248 E.03849
G1 X84.231 Y89.748 E.02524
G1 X84.275 Y89.246 E.02544
G1 X84.362 Y88.754 E.02522
G1 X84.575 Y88.022 E.03848
G1 X84.766 Y87.56 E.02524
G1 X84.999 Y87.113 E.02545
G1 X85.27 Y86.688 E.02544
G1 X85.574 Y86.291 E.02524
G1 X86.101 Y85.74 E.03849
G1 X86.485 Y85.419 E.02526
G1 X86.894 Y85.132 E.02522
G1 X87.562 Y84.766 E.03845
G1 X88.025 Y84.574 E.0253
G1 X88.505 Y84.422 E.02542
G1 X88.909 Y84.333 E.02088
M204 P1250
G1 X89.319 Y84.696 F9000
G1 E-2.24 F4200
;WIPE_START
G1 F7200
G1 X89.493 Y84.248 E-.32704
G1 X90.254 Y84.231 E-.42183
G1 X90.634 Y84.264 E-.21113
;WIPE_END
G1 Z.4 F720
G1 X94.446 Y89.863 F9000
G1 Z.2 F720
G1 E3.2 F2400
M204 P800
;TYPE:Perimeter
;WIDTH:0.723106
G1 F1091
G1 X94.45 Y90.297 E.02455
;WIDTH:0.71918
G1 X94.349 Y90.972 E.03838
;WIDTH:0.720099
G1 X94.18 Y91.537 E.03321
G1 X93.998 Y91.977 E.02681
;WIDTH:0.719025
G1 X93.638 Y92.574 E.03919
G1 X93.438 Y92.837 E.01857
;WIDTH:0.718257
G1 X92.985 Y93.311 E.03682
G1 X92.394 Y93.759 E.04164
;WIDTH:0.720087
G1 X91.869 Y94.043 E.03361
G1 X91.429 Y94.225 E.02681
;WIDTH:0.719024
G1 X90.752 Y94.393 E.03921
G1 X89.887 Y94.459 E.04877
;WIDTH:0.723124
G1 X89.207 Y94.378 E.03873
G1 X88.747 Y94.28 E.0266
;WIDTH:0.719166
G1 X88.11 Y94.035 E.03838
;WIDTH:0.720081
G1 X87.596 Y93.749 E.03312
G1 X87.22 Y93.489 E.02574
;WIDTH:0.713707
G1 X86.767 Y93.074 E.03427
;WIDTH:0.719026
G1 X86.229 Y92.376 E.04954
G1 X85.838 Y91.602 E.04875
;WIDTH:0.713687
G1 X85.622 Y90.855 E.04337
;WIDTH:0.723106
G1 X85.541 Y89.908 E.05376
;WIDTH:0.719181
G1 X85.651 Y89.028 E.04987
;WIDTH:0.720098
G1 X85.82 Y88.463 E.03321
G1 X86.002 Y88.023 E.02681
;WIDTH:0.719024
G1 X86.362 Y87.426 E.03919
G1 X86.562 Y87.163 E.01857
;WIDTH:0.718258
G1 X87.016 Y86.689 E.03686
G1 X87.606 Y86.241 E.0416
;WIDTH:0.720079
G1 X88.13 Y85.958 E.03353
G1 X88.572 Y85.775 E.02694
;WIDTH:0.719036
G1 X89.248 Y85.607 E.03916
G1 X90.113 Y85.541 E.04877
;WIDTH:0.719186
G1 X90.972 Y85.651 E.0487
;WIDTH:0.723421
G1 X91.528 Y85.822 E.03291
G1 X92.078 Y86.052 E.03373
;WIDTH:0.713695
G1 X92.65 Y86.411 E.03767
G1 X93.233 Y86.926 E.04339
;WIDTH:0.719023
G1 X93.771 Y87.624 E.04954
G1 X94.162 Y88.398 E.04875
;WIDTH:0.713686
G1 X94.378 Y89.145 E.04337
;WIDTH:0.723106
G1 X94.441 Y89.774 E.03575
M204 P1250
G1 X93.806 Y89.93 F9000
M204 P800
;TYPE:External perimeter
;WIDTH:0.649999
G1 F1091
G1 X93.818 Y90.2 E.01364
G1 X93.702 Y90.958 E.03871
M73 P4 R11
G1 X93.477 Y91.592 E.03396
G1 X93.09 Y92.242 E.03819
G1 X92.521 Y92.867 E.04267
G1 X92.027 Y93.234 E.03106
G1 X91.333 Y93.584 E.03924
G1 X90.6 Y93.77 E.03817
G1 X89.859 Y93.821 E.03749
G1 X88.979 Y93.684 E.04496
G1 X88.264 Y93.407 E.03871
G1 X87.693 Y93.05 E.03399
G1 X87.199 Y92.603 E.03363
G1 X86.747 Y91.996 E.0382
G1 X86.416 Y91.333 E.03741
G1 X86.239 Y90.69 E.03367
G1 X86.179 Y89.866 E.0417
G1 X86.286 Y89.126 E.03774
G1 X86.523 Y88.408 E.03817
G1 X86.91 Y87.758 E.03819
G1 X87.479 Y87.133 E.04267
G1 X87.973 Y86.766 E.03106
G1 X88.667 Y86.416 E.03924
G1 X89.4 Y86.23 E.03817
G1 X90.141 Y86.179 E.03749
G1 X90.874 Y86.286 E.03739
G1 X91.658 Y86.563 E.04197
G1 X92.307 Y86.95 E.03814
G1 X92.801 Y87.397 E.03363
G1 X93.253 Y88.004 E.0382
G1 X93.584 Y88.667 E.03741
G1 X93.761 Y89.31 E.03367
G1 X93.802 Y89.841 E.02688
M204 P1250
G1 X94.051 Y90.045 F9000
; stop printing object beacon_feet.stl id:0 copy 0
M106 S84.15
;LAYER_CHANGE
;Z:0.5
;HEIGHT:0.3
;BEFORE_LAYER_CHANGE
G92 E0.0
;0.5


G1 E-2.24 F4200
;WIPE_START
G1 F7200
G1 X93.818 Y90.2 E-.19914
G1 X93.702 Y90.958 E-.42495
G1 X93.499 Y91.529 E-.33591
;WIPE_END
G1 Z.4 F720
G1 Z.5
;AFTER_LAYER_CHANGE
;0.5
G1 Z.7
G1 X98.859 Y93.346 F9000
G1 Z.5 F720
G1 E3.2 F2400
;TYPE:Skirt/Brim
;WIDTH:0.65
G1 F1050
G1 X98.653 Y93.955 E.04696
G1 X97.752 Y95.515 E.13158
G1 X96.484 Y96.961 E.14047
G1 X95.052 Y98.061 E.13189
G1 X93.32 Y98.916 E.14108
G1 X91.583 Y99.381 E.13134
G1 X89.655 Y99.507 E.14112
G1 X87.873 Y99.273 E.13128
G1 X86.043 Y98.652 E.14115
G1 X84.486 Y97.753 E.13132
G1 X83.033 Y96.478 E.1412
G1 X81.942 Y95.058 E.1308
G1 X81.086 Y93.324 E.14125
G1 X80.621 Y91.595 E.13078
G1 X80.493 Y89.655 E.14201
G1 X80.727 Y87.874 E.13121
G1 X81.347 Y86.046 E.14099
G1 X82.241 Y84.496 E.1307
G1 X83.513 Y83.042 E.14111
G1 X84.937 Y81.945 E.1313
G1 X86.676 Y81.086 E.14167
G1 X88.415 Y80.619 E.13152
G1 X90.344 Y80.493 E.1412
G1 X92.128 Y80.727 E.13142
G1 X93.952 Y81.346 E.14069
G1 X95.508 Y82.243 E.13119
G1 X96.967 Y83.521 E.14167
G1 X98.058 Y84.942 E.13086
G1 X98.912 Y86.671 E.14085
G1 X99.381 Y88.417 E.13205
G1 X99.507 Y90.345 E.14112
G1 X99.274 Y92.122 E.13091
G1 X98.888 Y93.261 E.08784
G1 X98.315 Y93.067 F9000
G1 F1050
G1 X98.097 Y93.711 E.04966
G1 X97.263 Y95.156 E.12186
G1 X96.065 Y96.523 E.13277
G1 X94.737 Y97.542 E.12226
G1 X93.1 Y98.35 E.13334
G1 X91.49 Y98.781 E.12174
G1 X89.668 Y98.9 E.13337
G1 X88.017 Y98.683 E.12163
G1 X86.288 Y98.096 E.13337
G1 X84.845 Y97.263 E.1217
G1 X83.472 Y96.059 E.13338
G1 X82.461 Y94.743 E.12121
G1 X81.652 Y93.103 E.13357
G1 X81.221 Y91.502 E.1211
G1 X81.1 Y89.668 E.13425
G1 X81.317 Y88.018 E.12156
G1 X81.903 Y86.29 E.13328
G1 X82.731 Y84.854 E.12107
G1 X83.933 Y83.48 E.13334
G1 X85.253 Y82.464 E.12167
G1 X86.896 Y81.652 E.13386
G1 X88.508 Y81.219 E.12192
G1 X90.33 Y81.1 E.13337
M73 P5 R11
G1 X91.983 Y81.317 E.12177
G1 X93.708 Y81.902 E.13305
G1 X95.15 Y82.733 E.12156
G1 X96.528 Y83.941 E.13385
G1 X97.539 Y85.257 E.12121
G1 X98.347 Y86.892 E.13321
G1 X98.781 Y88.51 E.12236
G1 X98.9 Y90.332 E.13337
G1 X98.684 Y91.978 E.12126
G1 X98.344 Y92.981 E.07736
; printing object beacon_feet.stl id:0 copy 0
G1 E-2.24 F4200
;WIPE_START
G1 F7200
G1 X98.097 Y93.711 E-.42707
G1 X97.616 Y94.544 E-.53293
;WIPE_END
G1 Z.7 F720
G1 X89.063 Y84.865 F9000
G1 Z.5 F720
G1 E3.2 F2400
M204 P800
;TYPE:Perimeter
;WIDTH:0.92492
G1 F1050
G1 X89.557 Y84.8 E.05348
G1 X90.259 Y84.785 E.07536
;WIDTH:0.919873
G1 X91.119 Y84.898 E.09255
;WIDTH:0.919718
G1 X91.775 Y85.089 E.07289
G1 X92.217 Y85.272 E.05104
;WIDTH:0.919188
G1 X92.699 Y85.533 E.05844
;WIDTH:0.925147
G1 X93.193 Y85.87 E.0642
G1 X93.863 Y86.486 E.09771
;WIDTH:0.920551
G1 X94.36 Y87.124 E.08636
;WIDTH:0.921832
G1 X94.636 Y87.6 E.05884
G1 X94.877 Y88.142 E.06344
;WIDTH:0.925065
G1 X95.047 Y88.667 E.05924
G1 X95.163 Y89.244 E.06318
;WIDTH:0.919251
G1 X95.216 Y89.757 E.05499
;WIDTH:0.91985
G1 X95.217 Y90.247 E.05228
G1 X95.102 Y91.119 E.09385
;WIDTH:0.919734
G1 X94.911 Y91.775 E.07289
;WIDTH:0.919892
G1 X94.725 Y92.224 E.05186
G1 X94.316 Y92.939 E.08789
;WIDTH:0.924968
G1 X93.99 Y93.363 E.05741
G1 X93.583 Y93.795 E.06371
;WIDTH:0.92515
G1 X93.163 Y94.153 E.05925
G1 X92.671 Y94.482 E.06354
;WIDTH:0.919182
G1 X92.217 Y94.728 E.05505
;WIDTH:0.920575
G1 X91.769 Y94.914 E.0518
G1 X90.988 Y95.129 E.08651
;WIDTH:0.921821
G1 X90.443 Y95.202 E.05881
G1 X89.772 Y95.217 E.07178
;WIDTH:0.919771
G1 X89.109 Y95.145 E.07115
;WIDTH:0.919902
G1 X88.63 Y95.04 E.05233
G1 X87.783 Y94.728 E.09632
;WIDTH:0.919183
G1 X87.301 Y94.467 E.05844
;WIDTH:0.925149
G1 X86.807 Y94.13 E.0642
G1 X86.137 Y93.514 E.09771
;WIDTH:0.920543
G1 X85.641 Y92.877 E.08621
;WIDTH:0.921899
G1 X85.364 Y92.4 E.059
G1 X85.123 Y91.858 E.06344
;WIDTH:0.925067
G1 X84.953 Y91.333 E.05924
G1 X84.837 Y90.756 E.06318
;WIDTH:0.919251
G1 X84.784 Y90.243 E.05499
;WIDTH:0.919849
G1 X84.782 Y89.772 E.05026
G1 X84.898 Y88.881 E.09587
;WIDTH:0.919736
G1 X85.089 Y88.225 E.07289
;WIDTH:0.919893
G1 X85.275 Y87.776 E.05186
G1 X85.684 Y87.061 E.08789
;WIDTH:0.924969
G1 X86.01 Y86.637 E.05741
G1 X86.417 Y86.205 E.06371
;WIDTH:0.925152
G1 X86.837 Y85.847 E.05925
G1 X87.329 Y85.518 E.06354
;WIDTH:0.919221
G1 X87.779 Y85.274 E.05458
;WIDTH:0.919888
G1 X88.232 Y85.086 E.05233
G1 X88.975 Y84.884 E.08216
M204 P1250
G1 X88.963 Y84.131 F9000
M204 P800
;TYPE:External perimeter
;WIDTH:0.68
G1 F1050
G1 X89.477 Y84.063 E.03981
G1 X90.259 Y84.046 E.06006
G1 X90.778 Y84.091 E.04
G1 X91.286 Y84.181 E.03961
G1 X92.042 Y84.401 E.06046
G1 X92.515 Y84.597 E.03931
G1 X93.202 Y84.974 E.06017
G1 X93.628 Y85.272 E.03992
G1 X94.026 Y85.606 E.03989
G1 X94.394 Y85.974 E.03996
G1 X94.728 Y86.372 E.03989
G1 X95.026 Y86.798 E.03992
G1 X95.284 Y87.245 E.03963
G1 X95.601 Y87.965 E.06041
G1 X95.757 Y88.458 E.0397
G1 X95.868 Y88.962 E.03963
G1 X95.954 Y89.74 E.0601
G1 X95.954 Y90.26 E.03993
G1 X95.909 Y90.778 E.03992
G1 X95.819 Y91.286 E.03961
G1 X95.599 Y92.042 E.06046
G1 X95.401 Y92.519 E.03966
G1 X95.161 Y92.98 E.03991
G1 X94.882 Y93.418 E.03987
G1 X94.568 Y93.828 E.03965
G1 X94.023 Y94.396 E.06044
G1 X93.628 Y94.728 E.03962
G1 X93.205 Y95.024 E.03964
G1 X92.515 Y95.403 E.06045
G1 X92.038 Y95.6 E.03963
G1 X91.543 Y95.757 E.03987
G1 X91.035 Y95.869 E.03994
G1 X90.523 Y95.937 E.03966
G1 X89.74 Y95.954 E.06014
G1 X88.966 Y95.869 E.05979
G1 X88.457 Y95.757 E.04002
G1 X87.962 Y95.6 E.03987
G1 X87.485 Y95.403 E.03963
G1 X86.798 Y95.026 E.06017
G1 X86.372 Y94.728 E.03992
G1 X85.974 Y94.394 E.03989
G1 X85.606 Y94.026 E.03996
G1 X85.272 Y93.628 E.03989
G1 X84.974 Y93.202 E.03992
G1 X84.716 Y92.755 E.03963
G1 X84.399 Y92.035 E.06041
G1 X84.243 Y91.542 E.0397
G1 X84.132 Y91.038 E.03963
G1 X84.046 Y90.26 E.0601
