; generated by PrusaSlicer 2.3.3 on 2022-01-25 at 22:16:20 UTC


;
;

;
;
; 

; external perimeters extrusion width = 0.45mm
; perimeters extrusion width = 0.45mm
; infill extrusion width = 0.45mm
; solid infill extrusion width = 0.45mm
; top infill extrusion width = 0.40mm
; support material extrusion width = 0.35mm
; first layer extrusion width = 0.42mm

M73 P0 R15
M201 X1250 Y1250 Z400 E5000 ; sets maximum accelerations, mm/sec^2
M203 X180 Y180 Z12 E80 ; sets maximum feedrates, mm/sec
M204 P1250 R1250 T1250 ; sets acceleration (P, T) and retract acceleration (R), mm/sec^2
M205 X8.00 Y8.00 Z2.00 E10.00 ; sets the jerk limits, mm/sec
M205 S0 T0 ; sets the minimum extruding and travel feed rate, mm/sec
M107
;TYPE:Custom
G90 ; use absolute coordinates
M83 ; extruder relative mode
M104 S170 ; set extruder temp for bed leveling
M140 S60 ; set bed temp
M109 R170 ; wait for bed leveling temp
M190 S60 ; wait for bed temp
G28 ; home all without mesh bed level
G29 ; mesh bed leveling 
M104 S215 ; set extruder temp
G92 E0.0
G1 Y-2.0 X179 F2400
G1 Z3 F720
M109 S215 ; wait for extruder temp

; intro line
G1 X170 F1000
G1 Z0.2 F720
G1 X110.0 E8.0 F900
M73 P1 R15
G1 X40.0 E10.0 F700
G92 E0.0

M221 S95 ; set flow
G21 ; set units to millimeters
G90 ; use absolute coordinates
M83 ; use relative distances for extrusion
M900 K0.2 ; Filament gcode LA 1.5
; ; Filament gcode LA 1.0
;LAYER_CHANGE
;Z:0.2
;HEIGHT:0.2
;BEFORE_LAYER_CHANGE
G92 E0.0
;0.2


G1 E-3.20000 F4200.000
G1 Z0.200 F9000.000
;AFTER_LAYER_CHANGE
;0.2
G1 Z0.400
G1 X47.041 Y81.483
G1 Z0.200
G1 E3.20000 F2400.000
M204 S800
;TYPE:Skirt
;WIDTH:0.42
G1 F1200.000
G1 X47.378 Y80.414 E0.03516
G1 X53.982 Y68.968 E0.41431
G1 X54.400 Y68.406 E0.02196
G1 X54.933 Y67.937 E0.02226
G1 X55.564 Y67.585 E0.02266
G1 X56.229 Y67.380 E0.02181
G1 X56.885 Y67.316 E0.02069
G1 X123.119 Y67.316 E2.07670
M73 P2 R15
G1 X123.992 Y67.431 E0.02761
G1 X124.803 Y67.768 E0.02754
G1 X125.498 Y68.300 E0.02746
G1 X126.036 Y68.998 E0.02760
G1 X132.706 Y80.592 E0.41941
G1 X132.934 Y81.329 E0.02418
G1 X132.989 Y82.089 E0.02389
G1 X132.864 Y82.871 E0.02484
G1 X132.567 Y83.590 E0.02437
G1 X132.210 Y84.112 E0.01983
G1 X131.790 Y84.534 E0.01869
G1 X99.096 Y111.892 E1.33665
G1 X98.405 Y112.341 E0.02582
G1 X97.602 Y112.615 E0.02662
G1 X96.934 Y112.684 E0.02105
G1 X82.978 Y112.683 E0.43757
G1 X82.160 Y112.557 E0.02596
G1 X81.363 Y112.217 E0.02717
G1 X48.194 Y84.521 E1.35486
G1 X47.477 Y83.668 E0.03495
G1 X47.074 Y82.617 E0.03529
G1 X47.043 Y81.543 E0.03367
M204 S1250
; printing object bracket_flat_120.stl id:0 copy 0
G1 E-2.24000 F4200.000
;WIPE_START
G1 F7200.000
G1 X47.378 Y80.414 E-0.65299
G1 X47.612 Y80.009 E-0.25901
;WIPE_END
G1 E-0.04800 F4200.000
G1 Z0.400 F9000.000
M73 P3 R15
G1 X86.267 Y95.778
G1 Z0.200
G1 E3.20000 F2400.000
M204 S800
;TYPE:Perimeter
G1 F1200.000
G1 X86.419 Y95.453 E0.01125
G1 X86.595 Y95.148 E0.01104
G1 X86.800 Y94.854 E0.01125
G1 X87.144 Y94.462 E0.01635
G1 X87.525 Y94.127 E0.01590
G1 X87.830 Y93.912 E0.01169
G1 X88.136 Y93.736 E0.01107
G1 X88.455 Y93.587 E0.01104
G1 X88.786 Y93.466 E0.01104
G1 X89.126 Y93.375 E0.01104
G1 X89.479 Y93.313 E0.01123
G1 X89.979 Y93.279 E0.01570
G1 X90.351 Y93.295 E0.01169
G1 X90.701 Y93.341 E0.01107
G1 X91.051 Y93.418 E0.01125
G1 X91.539 Y93.584 E0.01616
G1 X91.864 Y93.736 E0.01125
G1 X92.169 Y93.912 E0.01104
G1 X92.463 Y94.117 E0.01125
G1 X92.855 Y94.461 E0.01635
G1 X93.190 Y94.842 E0.01590
G1 X93.405 Y95.147 E0.01169
G1 X93.581 Y95.453 E0.01107
G1 X93.733 Y95.777 E0.01123
G1 X93.894 Y96.251 E0.01570
G1 X93.976 Y96.615 E0.01169
G1 X94.022 Y96.965 E0.01107
G1 X94.038 Y97.317 E0.01104
G1 X94.022 Y97.669 E0.01104
G1 X93.976 Y98.018 E0.01104
G1 X93.899 Y98.368 E0.01125
G1 X93.733 Y98.856 E0.01616
G1 X93.581 Y99.181 E0.01125
G1 X93.405 Y99.486 E0.01104
G1 X93.200 Y99.780 E0.01125
G1 X92.856 Y100.172 E0.01635
G1 X92.475 Y100.507 E0.01590
G1 X92.170 Y100.722 E0.01169
G1 X91.864 Y100.898 E0.01107
G1 X91.540 Y101.050 E0.01123
G1 X91.066 Y101.211 E0.01570
G1 X90.702 Y101.293 E0.01169
G1 X90.352 Y101.339 E0.01107
G1 X90.000 Y101.355 E0.01104
G1 X89.648 Y101.339 E0.01104
G1 X89.299 Y101.293 E0.01104
G1 X88.949 Y101.216 E0.01125
G1 X88.461 Y101.050 E0.01616
G1 X88.136 Y100.898 E0.01125
G1 X87.831 Y100.722 E0.01104
G1 X87.537 Y100.517 E0.01125
G1 X87.145 Y100.173 E0.01635
G1 X86.810 Y99.792 E0.01590
G1 X86.595 Y99.487 E0.01169
G1 X86.419 Y99.181 E0.01107
G1 X86.267 Y98.857 E0.01123
G1 X86.106 Y98.383 E0.01570
G1 X86.024 Y98.019 E0.01169
G1 X85.978 Y97.669 E0.01107
G1 X85.962 Y97.317 E0.01104
G1 X85.978 Y96.965 E0.01104
G1 X86.024 Y96.616 E0.01104
G1 X86.101 Y96.266 E0.01125
G1 X86.248 Y95.834 E0.01428
M204 S1250
G1 X86.605 Y95.956 F9000.000
M204 S800
;TYPE:External perimeter
G1 F1200.000
G1 X86.753 Y95.627 E0.01131
G1 X86.913 Y95.350 E0.01001
G1 X87.097 Y95.087 E0.01008
G1 X87.412 Y94.729 E0.01494
G1 X87.759 Y94.423 E0.01450
G1 X88.033 Y94.230 E0.01052
G1 X88.310 Y94.070 E0.01002
G1 X88.599 Y93.935 E0.01001
G1 X88.899 Y93.826 E0.01001
G1 X89.208 Y93.744 E0.01001
G1 X89.524 Y93.688 E0.01008
G1 X89.983 Y93.657 E0.01443
G1 X90.319 Y93.671 E0.01052
G1 X90.636 Y93.712 E0.01002
G1 X90.950 Y93.782 E0.01008
G1 X91.399 Y93.934 E0.01487
G1 X91.690 Y94.070 E0.01008
G1 X91.967 Y94.230 E0.01001
G1 X92.230 Y94.414 E0.01008
G1 X92.588 Y94.729 E0.01494
G1 X92.894 Y95.076 E0.01450
G1 X93.087 Y95.350 E0.01052
G1 X93.247 Y95.627 E0.01002
G1 X93.383 Y95.918 E0.01008
G1 X93.531 Y96.354 E0.01443
G1 X93.605 Y96.681 E0.01052
G1 X93.646 Y96.998 E0.01002
G1 X93.660 Y97.317 E0.01001
G1 X93.646 Y97.636 E0.01001
G1 X93.605 Y97.953 E0.01001
G1 X93.535 Y98.267 E0.01008
G1 X93.383 Y98.716 E0.01487
G1 X93.247 Y99.007 E0.01008
G1 X93.087 Y99.284 E0.01001
G1 X92.903 Y99.547 E0.01008
G1 X92.588 Y99.905 E0.01494
G1 X92.241 Y100.211 E0.01450
G1 X91.967 Y100.404 E0.01052
G1 X91.690 Y100.564 E0.01002
G1 X91.399 Y100.700 E0.01008
G1 X90.963 Y100.848 E0.01443
G1 X90.636 Y100.922 E0.01052
G1 X90.319 Y100.963 E0.01002
G1 X90.000 Y100.977 E0.01001
G1 X89.681 Y100.963 E0.01001
G1 X89.364 Y100.922 E0.01001
G1 X89.050 Y100.852 E0.01008
G1 X88.601 Y100.700 E0.01487
G1 X88.310 Y100.564 E0.01008
G1 X88.033 Y100.404 E0.01001
G1 X87.770 Y100.220 E0.01008
G1 X87.412 Y99.905 E0.01494
G1 X87.106 Y99.558 E0.01450
G1 X86.913 Y99.284 E0.01052
G1 X86.753 Y99.007 E0.01002
G1 X86.617 Y98.716 E0.01008
G1 X86.469 Y98.280 E0.01443
G1 X86.395 Y97.953 E0.01052
G1 X86.354 Y97.636 E0.01002
G1 X86.340 Y97.317 E0.01001
G1 X86.354 Y96.998 E0.01001
G1 X86.395 Y96.681 E0.01001
G1 X86.465 Y96.367 E0.01008
G1 X86.585 Y96.013 E0.01175
M204 S1250
G1 X86.380 Y95.673 F9000.000
G1 E-2.24000 F4200.000
;WIPE_START
G1 F7200.000
G1 X86.753 Y95.627 E-0.23307
G1 X86.913 Y95.350 E-0.17696
G1 X87.097 Y95.087 E-0.17822
G1 X87.412 Y94.729 E-0.26399
G1 X87.493 Y94.658 E-0.05976
;WIPE_END
G1 E-0.04800 F4200.000
G1 Z0.400 F9000.000
G1 X74.225 Y88.334
G1 Z0.200
G1 E3.20000 F2400.000
M204 S800
;TYPE:Perimeter
G1 F1200.000
G1 X73.914 Y88.722 E0.01558
G1 X73.592 Y88.992 E0.01319
G1 X73.150 Y89.234 E0.01578
G1 X72.667 Y89.375 E0.01577
G1 X72.248 Y89.412 E0.01319
G1 X71.755 Y89.358 E0.01557
G1 X71.359 Y89.233 E0.01299
G1 X70.992 Y89.042 E0.01299
G1 X70.605 Y88.731 E0.01557
G1 X70.334 Y88.409 E0.01319
G1 X70.092 Y87.967 E0.01578
G1 X69.952 Y87.485 E0.01577
G1 X69.915 Y87.065 E0.01319
G1 X69.969 Y86.572 E0.01557
G1 X70.095 Y86.170 E0.01319
G1 X70.334 Y85.735 E0.01557
G1 X70.601 Y85.418 E0.01299
G1 X70.918 Y85.151 E0.01299
G1 X71.353 Y84.912 E0.01557
G1 X71.754 Y84.786 E0.01317
G1 X72.238 Y84.732 E0.01526
G1 X72.667 Y84.768 E0.01349
G1 X73.150 Y84.909 E0.01580
G1 X73.592 Y85.151 E0.01578
G1 X73.914 Y85.422 E0.01319
G1 X74.225 Y85.809 E0.01557
G1 X74.416 Y86.177 E0.01299
G1 X74.541 Y86.572 E0.01299
G1 X74.595 Y87.065 E0.01557
G1 X74.558 Y87.484 E0.01319
G1 X74.419 Y87.961 E0.01558
G1 X74.253 Y88.281 E0.01131
M204 S1250
G1 X73.918 Y88.107 F9000.000
M204 S800
;TYPE:External perimeter
G1 F1200.000
G1 X73.643 Y88.457 E0.01395
G1 X73.378 Y88.680 E0.01086
G1 X73.005 Y88.884 E0.01332
G1 X72.598 Y89.003 E0.01332
G1 X72.252 Y89.033 E0.01086
G1 X71.833 Y88.987 E0.01324
G1 X71.504 Y88.883 E0.01079
G1 X71.199 Y88.724 E0.01079
G1 X70.870 Y88.460 E0.01324
G1 X70.647 Y88.195 E0.01086
G1 X70.443 Y87.822 E0.01332
G1 X70.324 Y87.415 E0.01331
G1 X70.294 Y87.070 E0.01086
G1 X70.340 Y86.650 E0.01324
G1 X70.444 Y86.319 E0.01086
G1 X70.647 Y85.949 E0.01324
G1 X70.868 Y85.685 E0.01079
G1 X71.132 Y85.464 E0.01079
G1 X71.502 Y85.261 E0.01324
G1 X71.832 Y85.157 E0.01086
G1 X72.243 Y85.111 E0.01295
G1 X72.597 Y85.141 E0.01115
G1 X73.005 Y85.260 E0.01332
G1 X73.378 Y85.464 E0.01332
G1 X73.643 Y85.687 E0.01086
G1 X73.908 Y86.016 E0.01325
G1 X74.066 Y86.321 E0.01079
G1 X74.170 Y86.650 E0.01079
G1 X74.216 Y87.069 E0.01325
G1 X74.186 Y87.414 E0.01086
G1 X74.067 Y87.820 E0.01325
G1 X73.946 Y88.054 E0.00826
M204 S1250
G1 X74.103 Y88.462 F9000.000
G1 E-2.24000 F4200.000
;WIPE_START
G1 F7200.000
G1 X73.643 Y88.457 E-0.27928
G1 X73.378 Y88.680 E-0.19197
G1 X73.005 Y88.884 E-0.23540
G1 X72.650 Y88.988 E-0.20535
;WIPE_END
G1 E-0.04800 F4200.000
G1 Z0.400 F9000.000
G1 X61.185 Y80.909
G1 Z0.200
G1 E3.20000 F2400.000
M204 S800
;TYPE:Perimeter
G1 F1200.000
G1 X60.919 Y81.226 E0.01298
G1 X60.601 Y81.492 E0.01298
G1 X60.160 Y81.734 E0.01578
G1 X59.677 Y81.875 E0.01578
G1 X59.258 Y81.912 E0.01319
G1 X58.764 Y81.858 E0.01558
G1 X58.369 Y81.733 E0.01298
G1 X58.002 Y81.542 E0.01299
G1 X57.614 Y81.231 E0.01557
G1 X57.344 Y80.909 E0.01320
G1 X57.102 Y80.468 E0.01578
G1 X56.961 Y79.985 E0.01577
G1 X56.924 Y79.565 E0.01319
G1 X56.979 Y79.072 E0.01557
G1 X57.105 Y78.670 E0.01320
G1 X57.344 Y78.235 E0.01557
G1 X57.610 Y77.918 E0.01300
G1 X57.928 Y77.651 E0.01299
G1 X58.363 Y77.412 E0.01557
G1 X58.764 Y77.286 E0.01317
G1 X59.247 Y77.232 E0.01526
G1 X59.676 Y77.268 E0.01349
G1 X60.160 Y77.409 E0.01580
G1 X60.601 Y77.651 E0.01578
G1 X60.924 Y77.922 E0.01319
G1 X61.234 Y78.309 E0.01557
G1 X61.426 Y78.676 E0.01299
G1 X61.550 Y79.072 E0.01299
G1 X61.604 Y79.565 E0.01557
G1 X61.568 Y79.985 E0.01319
G1 X61.427 Y80.468 E0.01578
G1 X61.214 Y80.856 E0.01390
M204 S1250
G1 X61.076 Y80.322 F9000.000
M204 S800
;TYPE:External perimeter
G1 F1200.000
G1 X60.872 Y80.695 E0.01332
G1 X60.651 Y80.958 E0.01079
G1 X60.387 Y81.180 E0.01079
G1 X60.015 Y81.384 E0.01332
G1 X59.607 Y81.503 E0.01332
G1 X59.262 Y81.533 E0.01086
G1 X58.842 Y81.487 E0.01325
G1 X58.514 Y81.383 E0.01078
G1 X58.209 Y81.225 E0.01079
G1 X57.879 Y80.960 E0.01324
G1 X57.657 Y80.695 E0.01087
G1 X57.452 Y80.322 E0.01331
G1 X57.334 Y79.915 E0.01332
G1 X57.303 Y79.570 E0.01086
G1 X57.349 Y79.150 E0.01324
G1 X57.454 Y78.819 E0.01087
G1 X57.657 Y78.449 E0.01324
G1 X57.878 Y78.185 E0.01080
G1 X58.142 Y77.964 E0.01079
G1 X58.512 Y77.761 E0.01324
G1 X58.842 Y77.657 E0.01085
G1 X59.253 Y77.611 E0.01295
G1 X59.607 Y77.641 E0.01115
G1 X60.015 Y77.760 E0.01332
G1 X60.387 Y77.964 E0.01332
G1 X60.653 Y78.187 E0.01086
G1 X60.917 Y78.516 E0.01324
G1 X61.076 Y78.821 E0.01079
G1 X61.180 Y79.150 E0.01079
G1 X61.225 Y79.569 E0.01325
G1 X61.195 Y79.915 E0.01086
G1 X61.093 Y80.265 E0.01144
M204 S1250
G1 X61.318 Y80.641 F9000.000
G1 E-2.24000 F4200.000
;WIPE_START
G1 F7200.000
G1 X60.872 Y80.695 E-0.26793
G1 X60.651 Y80.958 E-0.19065
G1 X60.387 Y81.180 E-0.19065
G1 X60.015 Y81.384 E-0.23542
G1 X59.968 Y81.398 E-0.02735
;WIPE_END
G1 E-0.04800 F4200.000
G1 Z0.400 F9000.000
G1 X105.459 Y86.572
G1 Z0.200
G1 E3.20000 F2400.000
M204 S800
;TYPE:Perimeter
G1 F1200.000
G1 X105.584 Y86.177 E0.01299
G1 X105.775 Y85.809 E0.01299
G1 X106.086 Y85.422 E0.01557
G1 X106.408 Y85.151 E0.01319
G1 X106.844 Y84.912 E0.01558
G1 X107.245 Y84.786 E0.01317
G1 X107.728 Y84.732 E0.01526
G1 X108.157 Y84.768 E0.01349
G1 X108.641 Y84.909 E0.01580
G1 X109.082 Y85.151 E0.01577
G1 X109.399 Y85.418 E0.01299
G1 X109.666 Y85.735 E0.01299
G1 X109.905 Y86.170 E0.01557
G1 X110.031 Y86.572 E0.01319
G1 X110.085 Y87.065 E0.01557
G1 X110.048 Y87.485 E0.01319
G1 X109.908 Y87.967 E0.01577
G1 X109.666 Y88.409 E0.01578
G1 X109.395 Y88.731 E0.01319
G1 X109.008 Y89.042 E0.01557
G1 X108.641 Y89.233 E0.01299
G1 X108.245 Y89.358 E0.01299
G1 X107.752 Y89.412 E0.01557
G1 X107.333 Y89.375 E0.01319
G1 X106.849 Y89.234 E0.01577
G1 X106.408 Y88.992 E0.01578
G1 X106.086 Y88.722 E0.01319
G1 X105.775 Y88.334 E0.01558
G1 X105.581 Y87.961 E0.01319
G1 X105.442 Y87.484 E0.01558
G1 X105.405 Y87.065 E0.01319
G1 X105.453 Y86.631 E0.01369
M204 S1250
G1 X105.828 Y86.672 F9000.000
M204 S800
;TYPE:External perimeter
G1 F1200.000
G1 X105.934 Y86.321 E0.01149
G1 X106.092 Y86.016 E0.01079
G1 X106.357 Y85.687 E0.01325
G1 X106.622 Y85.464 E0.01086
G1 X106.993 Y85.261 E0.01325
G1 X107.323 Y85.157 E0.01085
G1 X107.733 Y85.111 E0.01295
G1 X108.088 Y85.141 E0.01115
G1 X108.496 Y85.260 E0.01333
G1 X108.868 Y85.464 E0.01331
G1 X109.132 Y85.685 E0.01079
G1 X109.353 Y85.949 E0.01079
G1 X109.556 Y86.319 E0.01324
G1 X109.660 Y86.650 E0.01086
G1 X109.706 Y87.070 E0.01324
G1 X109.676 Y87.415 E0.01086
G1 X109.557 Y87.822 E0.01331
G1 X109.353 Y88.195 E0.01332
G1 X109.130 Y88.460 E0.01086
G1 X108.801 Y88.724 E0.01324
G1 X108.496 Y88.883 E0.01079
G1 X108.167 Y88.987 E0.01079
G1 X107.748 Y89.033 E0.01324
G1 X107.402 Y89.003 E0.01086
G1 X106.995 Y88.884 E0.01332
G1 X106.622 Y88.680 E0.01332
G1 X106.357 Y88.457 E0.01086
G1 X106.092 Y88.127 E0.01325
G1 X105.933 Y87.820 E0.01086
G1 X105.814 Y87.414 E0.01325
G1 X105.784 Y87.069 E0.01086
G1 X105.821 Y86.732 E0.01065
M204 S1250
G1 X105.553 Y86.429 F9000.000
G1 E-2.24000 F4200.000
;WIPE_START
G1 F7200.000
G1 X105.934 Y86.321 E-0.23586
G1 X106.092 Y86.016 E-0.19066
G1 X106.357 Y85.687 E-0.23412
G1 X106.622 Y85.464 E-0.19201
M73 P4 R15
G1 X106.716 Y85.413 E-0.05935
;WIPE_END
G1 E-0.04800 F4200.000
G1 Z0.400 F9000.000
G1 X118.573 Y80.468
G1 Z0.200
G1 E3.20000 F2400.000
M204 S800
;TYPE:Perimeter
G1 F1200.000
G1 X118.432 Y79.985 E0.01578
G1 X118.396 Y79.565 E0.01319
G1 X118.450 Y79.072 E0.01557
G1 X118.574 Y78.676 E0.01299
G1 X118.766 Y78.309 E0.01299
G1 X119.076 Y77.922 E0.01557
G1 X119.399 Y77.651 E0.01319
G1 X119.834 Y77.412 E0.01558
G1 X120.235 Y77.286 E0.01317
G1 X120.719 Y77.232 E0.01526
G1 X121.147 Y77.268 E0.01349
G1 X121.631 Y77.409 E0.01580
G1 X122.072 Y77.651 E0.01578
G1 X122.390 Y77.918 E0.01299
G1 X122.656 Y78.235 E0.01300
G1 X122.895 Y78.670 E0.01557
G1 X123.021 Y79.072 E0.01320
G1 X123.076 Y79.565 E0.01557
G1 X123.039 Y79.985 E0.01319
G1 X122.898 Y80.468 E0.01577
G1 X122.656 Y80.909 E0.01578
G1 X122.386 Y81.231 E0.01320
G1 X121.998 Y81.542 E0.01557
G1 X121.631 Y81.733 E0.01299
G1 X121.236 Y81.858 E0.01298
G1 X120.742 Y81.912 E0.01558
G1 X120.323 Y81.875 E0.01319
G1 X119.840 Y81.734 E0.01578
G1 X119.399 Y81.492 E0.01578
G1 X119.081 Y81.226 E0.01298
G1 X118.815 Y80.909 E0.01298
G1 X118.602 Y80.520 E0.01390
M204 S1250
G1 X118.933 Y80.339 F9000.000
M204 S800
;TYPE:External perimeter
G1 F1200.000
G1 X118.805 Y79.915 E0.01389
G1 X118.775 Y79.569 E0.01086
G1 X118.820 Y79.150 E0.01325
G1 X118.924 Y78.821 E0.01079
G1 X119.083 Y78.516 E0.01079
G1 X119.347 Y78.187 E0.01324
G1 X119.613 Y77.964 E0.01086
G1 X119.983 Y77.761 E0.01324
G1 X120.313 Y77.657 E0.01086
G1 X120.724 Y77.611 E0.01295
G1 X121.078 Y77.641 E0.01115
G1 X121.486 Y77.760 E0.01332
G1 X121.858 Y77.964 E0.01332
G1 X122.122 Y78.185 E0.01079
G1 X122.343 Y78.449 E0.01080
G1 X122.546 Y78.819 E0.01324
G1 X122.651 Y79.150 E0.01087
G1 X122.697 Y79.570 E0.01324
G1 X122.666 Y79.915 E0.01086
G1 X122.548 Y80.322 E0.01332
G1 X122.343 Y80.695 E0.01331
G1 X122.121 Y80.960 E0.01087
G1 X121.791 Y81.225 E0.01324
G1 X121.486 Y81.383 E0.01079
G1 X121.158 Y81.487 E0.01078
G1 X120.738 Y81.533 E0.01325
G1 X120.393 Y81.503 E0.01086
G1 X119.985 Y81.384 E0.01332
G1 X119.613 Y81.180 E0.01332
G1 X119.349 Y80.958 E0.01079
G1 X119.128 Y80.695 E0.01079
G1 X118.962 Y80.391 E0.01085
M204 S1250
G1 X118.536 Y80.287 F9000.000
G1 E-2.24000 F4200.000
;WIPE_START
G1 F7200.000
G1 X118.805 Y79.915 E-0.27816
G1 X118.775 Y79.569 E-0.19201
G1 X118.820 Y79.150 E-0.23411
G1 X118.924 Y78.821 E-0.19076
G1 X118.938 Y78.794 E-0.01696
;WIPE_END
G1 E-0.04800 F4200.000
G1 Z0.400 F9000.000
G1 X123.137 Y70.485
G1 Z0.200
