; generated by PrusaSlicer 2.3.3 on 2022-01-25 at 22:22:56 UTC


;
;

;
;
; 

; external perimeters extrusion width = 0.45mm
; perimeters extrusion width = 0.45mm
; infill extrusion width = 0.45mm
; solid infill extrusion width = 0.45mm
; top infill extrusion width = 0.40mm
; support material extrusion width = 0.35mm
; first layer extrusion width = 0.42mm

M73 P0 R18
M201 X1250 Y1250 Z400 E5000 ; sets maximum accelerations, mm/sec^2
M203 X180 Y180 Z12 E80 ; sets maximum feedrates, mm/sec
M204 P1250 R1250 T1250 ; sets acceleration (P, T) and retract acceleration (R), mm/sec^2
M205 X8.00 Y8.00 Z2.00 E10.00 ; sets the jerk limits, mm/sec
M205 S0 T0 ; sets the minimum extruding and travel feed rate, mm/sec
M107
;TYPE:Custom
G90 ; use absolute coordinates
M83 ; extruder relative mode
M104 S170 ; set extruder temp for bed leveling
M140 S60 ; set bed temp
M109 R170 ; wait for bed leveling temp
M190 S60 ; wait for bed temp
G28 ; home all without mesh bed level
G29 ; mesh bed leveling 
M104 S215 ; set extruder temp
G92 E0.0
G1 Y-2.0 X179 F2400
M73 P0 R17
G1 Z3 F720
M109 S215 ; wait for extruder temp

; intro line
G1 X170 F1000
G1 Z0.2 F720
G1 X110.0 E8.0 F900
G1 X40.0 E10.0 F700
G92 E0.0

M221 S95 ; set flow
G21 ; set units to millimeters
G90 ; use absolute coordinates
M83 ; use relative distances for extrusion
M900 K0.2 ; Filament gcode LA 1.5
; ; Filament gcode LA 1.0
;LAYER_CHANGE
;Z:0.2
;HEIGHT:0.2
;BEFORE_LAYER_CHANGE
G92 E0.0
;0.2


M73 P1 R17
G1 E-3.20000 F4200.000
G1 Z0.200 F9000.000
;AFTER_LAYER_CHANGE
;0.2
G1 Z0.400
G1 X77.932 Y71.195
G1 Z0.200
G1 E3.20000 F2400.000
M204 S800
;TYPE:Skirt
;WIDTH:0.42
G1 F1200.000
G1 X78.519 Y70.571 E0.02687
G1 X79.245 Y70.090 E0.02729
G1 X80.083 Y69.783 E0.02799
G1 X80.945 Y69.684 E0.02721
G1 X81.910 Y69.810 E0.03050
G1 X82.810 Y70.181 E0.03051
G1 X107.463 Y84.414 E0.89256
G1 X108.107 Y84.894 E0.02520
G1 X108.655 Y85.528 E0.02625
G1 X109.126 Y86.484 E0.03342
G1 X109.309 Y87.516 E0.03285
G1 X109.311 Y107.490 E0.62627
G1 X109.219 Y108.138 E0.02052
G1 X108.976 Y108.745 E0.02052
G1 X108.597 Y109.279 E0.02052
G1 X108.103 Y109.708 E0.02052
G1 X107.382 Y110.056 E0.02511
G1 X106.595 Y110.182 E0.02498
G1 X104.677 Y110.156 E0.06013
G1 X104.117 Y110.017 E0.01809
G1 X103.602 Y109.766 E0.01796
G1 X72.274 Y87.761 E1.20037
M73 P2 R17
G1 X71.749 Y87.311 E0.02168
G1 X71.328 Y86.792 E0.02097
G1 X70.876 Y85.867 E0.03228
G1 X70.691 Y84.832 E0.03296
G1 X70.792 Y83.819 E0.03191
G1 X71.176 Y82.846 E0.03280
G1 X77.902 Y71.247 E0.42040
M204 S1250
G1 E-2.24000 F4200.000
;WIPE_START
G1 F7200.000
G1 X78.519 Y70.571 E-0.50737
G1 X79.128 Y70.167 E-0.40463
;WIPE_END
G1 E-0.04800 F4200.000
G1 Z0.400 F9000.000
G1 X81.813 Y70.175
G1 Z0.200
G1 E3.20000 F2400.000
M204 S800
G1 F1200.000
G1 X82.622 Y70.508 E0.02743
G1 X107.269 Y84.738 E0.89234
G1 X107.846 Y85.166 E0.02252
G1 X108.338 Y85.733 E0.02354
G1 X108.772 Y86.616 E0.03086
G1 X108.933 Y87.580 E0.03065
G1 X108.934 Y107.474 E0.62376
G1 X108.857 Y108.031 E0.01763
G1 X108.649 Y108.558 E0.01775
G1 X108.325 Y109.017 E0.01763
G1 X107.902 Y109.388 E0.01763
G1 X107.275 Y109.695 E0.02190
G1 X106.589 Y109.805 E0.02178
G1 X104.750 Y109.785 E0.05767
G1 X104.254 Y109.666 E0.01597
G1 X103.793 Y109.441 E0.01609
G1 X72.495 Y87.455 E1.19925
G1 X72.045 Y87.074 E0.01849
G1 X71.646 Y86.589 E0.01971
G1 X71.236 Y85.755 E0.02912
G1 X71.068 Y84.819 E0.02982
G1 X71.159 Y83.909 E0.02868
G1 X71.505 Y83.031 E0.02958
G1 X78.202 Y71.465 E0.41905
G1 X78.742 Y70.876 E0.02505
G1 X79.396 Y70.436 E0.02474
G1 X80.165 Y70.152 E0.02570
G1 X80.945 Y70.061 E0.02464
G1 X81.754 Y70.167 E0.02556
M204 S1250
; printing object bracket_vert_right.stl id:0 copy 0
G1 E-2.24000 F4200.000
;WIPE_START
G1 F7200.000
G1 X82.622 Y70.508 E-0.51705
G1 X83.239 Y70.864 E-0.39495
;WIPE_END
G1 E-0.04800 F4200.000
G1 Z0.400 F9000.000
G1 X95.023 Y87.805
G1 Z0.200
G1 E3.20000 F2400.000
M204 S800
;TYPE:Perimeter
G1 F1200.000
G1 X95.398 Y87.610 E0.01326
G1 X95.801 Y87.482 E0.01324
G1 X96.295 Y87.427 E0.01561
G1 X96.732 Y87.464 E0.01376
G1 X97.221 Y87.607 E0.01594
G1 X97.602 Y87.805 E0.01347
G1 X97.998 Y88.122 E0.01591
G1 X98.274 Y88.452 E0.01347
G1 X98.518 Y88.897 E0.01591
G1 X98.647 Y89.306 E0.01346
G1 X98.703 Y89.817 E0.01612
G1 X98.647 Y90.328 E0.01612
G1 X98.518 Y90.737 E0.01346
G1 X98.274 Y91.182 E0.01591
G1 X97.998 Y91.512 E0.01347
G1 X97.602 Y91.829 E0.01591
G1 X97.226 Y92.025 E0.01326
G1 X96.823 Y92.152 E0.01326
G1 X96.312 Y92.208 E0.01612
G1 X95.801 Y92.152 E0.01612
G1 X95.398 Y92.025 E0.01326
G1 X95.023 Y91.829 E0.01326
G1 X94.622 Y91.507 E0.01612
G1 X94.300 Y91.107 E0.01612
G1 X94.105 Y90.731 E0.01326
G1 X93.977 Y90.328 E0.01326
G1 X93.921 Y89.817 E0.01612
G1 X93.977 Y89.306 E0.01612
G1 X94.105 Y88.903 E0.01326
G1 X94.300 Y88.527 E0.01326
G1 X94.622 Y88.127 E0.01612
G1 X94.976 Y87.842 E0.01424
M204 S1250
G1 X94.890 Y88.395 F9000.000
M204 S800
;TYPE:External perimeter
G1 F1200.000
G1 X95.230 Y88.122 E0.01366
G1 X95.543 Y87.959 E0.01106
G1 X95.879 Y87.853 E0.01106
G1 X96.300 Y87.806 E0.01330
G1 X96.663 Y87.837 E0.01142
G1 X97.080 Y87.958 E0.01360
G1 X97.395 Y88.122 E0.01114
G1 X97.733 Y88.393 E0.01358
G1 X97.961 Y88.665 E0.01114
G1 X98.169 Y89.045 E0.01358
G1 X98.276 Y89.384 E0.01113
G1 X98.323 Y89.817 E0.01366
G1 X98.276 Y90.250 E0.01366
G1 X98.169 Y90.589 E0.01113
G1 X97.961 Y90.969 E0.01358
G1 X97.733 Y91.241 E0.01114
G1 X97.395 Y91.512 E0.01359
G1 X97.082 Y91.675 E0.01106
G1 X96.745 Y91.781 E0.01106
G1 X96.312 Y91.828 E0.01366
G1 X95.879 Y91.781 E0.01366
G1 X95.543 Y91.675 E0.01106
G1 X95.230 Y91.512 E0.01106
G1 X94.890 Y91.239 E0.01366
G1 X94.617 Y90.899 E0.01366
G1 X94.454 Y90.587 E0.01106
G1 X94.348 Y90.250 E0.01106
G1 X94.301 Y89.817 E0.01366
G1 X94.348 Y89.384 E0.01366
G1 X94.454 Y89.048 E0.01106
G1 X94.617 Y88.734 E0.01106
G1 X94.852 Y88.442 E0.01178
M204 S1250
G1 X94.789 Y88.008 F9000.000
G1 E-2.24000 F4200.000
;WIPE_START
G1 F7200.000
G1 X95.230 Y88.122 E-0.27393
G1 X95.543 Y87.959 E-0.19556
G1 X95.879 Y87.853 E-0.19541
G1 X96.300 Y87.806 E-0.23499
G1 X96.322 Y87.808 E-0.01211
;WIPE_END
G1 E-0.04800 F4200.000
G1 Z0.400 F9000.000
G1 X85.334 Y83.607
G1 Z0.200
G1 E3.20000 F2400.000
M204 S800
;TYPE:Perimeter
G1 F1200.000
G1 X85.016 Y84.002 E0.01592
G1 X84.687 Y84.279 E0.01347
G1 X84.242 Y84.523 E0.01591
G1 X83.833 Y84.652 E0.01346
G1 X83.322 Y84.708 E0.01612
G1 X82.811 Y84.652 E0.01612
G1 X82.401 Y84.523 E0.01346
G1 X81.956 Y84.278 E0.01591
G1 X81.627 Y84.002 E0.01347
M73 P3 R17
G1 X81.310 Y83.607 E0.01591
G1 X81.111 Y83.226 E0.01347
G1 X80.969 Y82.738 E0.01591
G1 X80.932 Y82.317 E0.01326
G1 X80.969 Y81.896 E0.01326
G1 X81.111 Y81.408 E0.01591
G1 X81.310 Y81.027 E0.01347
G1 X81.631 Y80.627 E0.01612
G1 X82.032 Y80.305 E0.01611
G1 X82.407 Y80.110 E0.01326
G1 X82.810 Y79.982 E0.01324
G1 X83.305 Y79.927 E0.01561
G1 X83.742 Y79.964 E0.01376
G1 X84.237 Y80.108 E0.01615
G1 X84.687 Y80.356 E0.01612
G1 X85.016 Y80.632 E0.01346
G1 X85.334 Y81.027 E0.01592
G1 X85.529 Y81.403 E0.01326
G1 X85.656 Y81.806 E0.01326
G1 X85.712 Y82.317 E0.01612
G1 X85.656 Y82.828 E0.01612
G1 X85.529 Y83.231 E0.01326
G1 X85.362 Y83.553 E0.01138
M204 S1250
G1 X85.027 Y83.379 F9000.000
M204 S800
;TYPE:External perimeter
G1 F1200.000
G1 X84.745 Y83.737 E0.01429
G1 X84.473 Y83.966 E0.01114
G1 X84.093 Y84.174 E0.01359
G1 X83.755 Y84.281 E0.01114
G1 X83.322 Y84.328 E0.01366
G1 X82.889 Y84.281 E0.01366
G1 X82.550 Y84.174 E0.01113
G1 X82.170 Y83.966 E0.01358
G1 X81.898 Y83.737 E0.01114
G1 X81.627 Y83.400 E0.01359
G1 X81.463 Y83.084 E0.01114
G1 X81.342 Y82.669 E0.01358
G1 X81.311 Y82.317 E0.01106
G1 X81.342 Y81.965 E0.01106
G1 X81.463 Y81.550 E0.01358
G1 X81.627 Y81.234 E0.01114
G1 X81.900 Y80.895 E0.01366
G1 X82.239 Y80.622 E0.01365
G1 X82.552 Y80.459 E0.01107
G1 X82.888 Y80.353 E0.01106
G1 X83.310 Y80.306 E0.01330
G1 X83.673 Y80.337 E0.01142
G1 X84.091 Y80.459 E0.01367
G1 X84.473 Y80.668 E0.01366
G1 X84.745 Y80.897 E0.01113
G1 X85.017 Y81.234 E0.01359
G1 X85.179 Y81.548 E0.01106
G1 X85.286 Y81.884 E0.01106
G1 X85.333 Y82.317 E0.01366
G1 X85.286 Y82.750 E0.01366
G1 X85.179 Y83.086 E0.01106
G1 X85.055 Y83.326 E0.00847
M204 S1250
G1 X85.209 Y83.735 F9000.000
G1 E-2.24000 F4200.000
;WIPE_START
G1 F7200.000
G1 X84.745 Y83.737 E-0.28527
G1 X84.473 Y83.966 E-0.19682
G1 X84.093 Y84.174 E-0.24012
G1 X83.767 Y84.277 E-0.18979
;WIPE_END
G1 E-0.04800 F4200.000
G1 Z0.400 F9000.000
G1 X74.247 Y84.762
G1 Z0.200
G1 E3.20000 F2400.000
M204 S800
;TYPE:Perimeter
G1 F1200.000
G1 X74.244 Y84.635 E0.00398
G1 X74.278 Y84.556 E0.00270
G1 X80.751 Y73.346 E0.40585
G1 X80.847 Y73.253 E0.00419
G1 X80.952 Y73.230 E0.00337
G1 X81.078 Y73.270 E0.00417
G1 X105.640 Y87.451 E0.88924
G1 X105.710 Y87.508 E0.00283
G1 X105.755 Y87.593 E0.00303
G1 X105.770 Y87.696 E0.00325
G1 X105.770 Y103.615 E0.49913
G1 X105.740 Y103.491 E0.00399
G1 X105.568 Y103.142 E0.01222
G1 X105.323 Y102.837 E0.01222
G1 X105.035 Y102.606 E0.01162
G1 X74.365 Y84.897 E1.11042
G1 X74.274 Y84.816 E0.00381
M204 S1250
G1 X73.886 Y84.884 F9000.000
M204 S800
;TYPE:External perimeter
G1 F1200.000
G1 X73.855 Y84.713 E0.00545
G1 X73.876 Y84.538 E0.00553
G1 X73.939 Y84.388 E0.00510
G1 X80.441 Y73.129 E0.40764
G1 X80.545 Y73.004 E0.00511
G1 X80.671 Y72.916 E0.00482
G1 X80.815 Y72.864 E0.00481
G1 X80.968 Y72.850 E0.00482
G1 X81.122 Y72.877 E0.00488
G1 X81.249 Y72.934 E0.00438
G1 X105.842 Y87.132 E0.89039
G1 X106.020 Y87.286 E0.00734
G1 X106.118 Y87.475 E0.00668
G1 X106.147 Y87.667 E0.00611
G1 X106.147 Y106.588 E0.59323
G1 X105.467 Y106.588 E0.02134
G1 X105.457 Y103.921 E0.08360
G1 X105.383 Y103.621 E0.00970
G1 X105.248 Y103.345 E0.00963
G1 X105.055 Y103.106 E0.00963
G1 X104.821 Y102.918 E0.00942
G1 X74.159 Y85.214 E1.11013
M73 P4 R17
G1 X74.047 Y85.132 E0.00434
G1 X73.967 Y85.043 E0.00376
G1 X73.913 Y84.937 E0.00372
M204 S1250
G1 X74.003 Y84.755 F9000.000
G1 X74.866 Y84.860
M204 S800
;TYPE:Solid infill
G1 F1200.000
G1 X75.059 Y84.667 E0.00854
G1 X74.792 Y84.401 E0.01182
G1 X75.325 Y83.867 E0.02365
G1 X75.592 Y84.134 E0.01182
G1 X75.325 Y84.401 E0.01182
G1 X75.592 Y84.667 E0.01182
G1 X75.859 Y84.401 E0.01182
G1 X76.125 Y84.667 E0.01182
G1 X75.592 Y85.201 E0.02365
G1 X75.325 Y84.934 E0.01182
G1 X75.204 Y85.055 E0.00537
M204 S1250
G1 X75.880 Y85.446 F9000.000
M204 S800
G1 F1200.000
G1 X76.392 Y84.934 E0.02269
G1 X76.658 Y85.201 E0.01182
G1 X76.392 Y85.467 E0.01182
G1 X76.658 Y85.734 E0.01182
G1 X76.925 Y85.467 E0.01182
G1 X77.192 Y85.734 E0.01182
G1 X76.894 Y86.031 E0.01318
M204 S1250
G1 E-2.24000 F4200.000
;WIPE_START
G1 F7200.000
G1 X77.192 Y85.734 E-0.23300
G1 X76.925 Y85.467 E-0.20896
G1 X76.658 Y85.734 E-0.20896
G1 X76.392 Y85.467 E-0.20896
G1 X76.458 Y85.401 E-0.05211
;WIPE_END
G1 E-0.04800 F4200.000
G1 Z0.400 F9000.000
G1 X78.301 Y86.844
G1 Z0.200
G1 E3.20000 F2400.000
M204 S800
G1 F1200.000
G1 X77.992 Y86.534 E0.01374
G1 X77.909 Y86.617 E0.00368
M204 S1250
G1 X77.571 Y86.422 F9000.000
M204 S800
G1 F1200.000
G1 X77.725 Y86.267 E0.00685
G1 X77.458 Y86.000 E0.01182
G1 X77.992 Y85.467 E0.02365
G1 X78.258 Y85.734 E0.01182
G1 X77.992 Y86.000 E0.01182
G1 X78.525 Y86.534 E0.02365
G1 X78.792 Y86.267 E0.01182
G1 X78.525 Y86.000 E0.01182
G1 X78.792 Y85.734 E0.01182
G1 X79.058 Y86.000 E0.01182
G1 X79.325 Y85.734 E0.01182
G1 X78.792 Y85.201 E0.02365
G1 X78.525 Y85.467 E0.01182
G1 X78.258 Y85.201 E0.01182
G1 X78.792 Y84.667 E0.02365
G1 X79.058 Y84.934 E0.01182
G1 X79.325 Y84.667 E0.01182
G1 X79.058 Y84.401 E0.01182
G1 X79.591 Y83.867 E0.02365
G1 X79.858 Y84.134 E0.01182
G1 X79.591 Y84.401 E0.01182
G1 X79.858 Y84.667 E0.01182
G1 X80.125 Y84.401 E0.01182
G1 X80.391 Y84.667 E0.01182
G1 X79.858 Y85.201 E0.02365
G1 X79.591 Y84.934 E0.01182
G1 X79.325 Y85.201 E0.01182
G1 X80.125 Y86.000 E0.03547
G1 X80.391 Y85.734 E0.01182
G1 X80.125 Y85.467 E0.01182
G1 X80.658 Y84.934 E0.02365
G1 X80.925 Y85.201 E0.01182
G1 X80.658 Y85.467 E0.01182
G1 X80.925 Y85.734 E0.01182
G1 X81.191 Y85.467 E0.01182
G1 X81.458 Y85.734 E0.01182
G1 X80.925 Y86.267 E0.02365
G1 X80.658 Y86.000 E0.01182
G1 X80.391 Y86.267 E0.01182
G1 X80.658 Y86.534 E0.01182
G1 X80.125 Y87.067 E0.02365
G1 X79.858 Y86.800 E0.01182
G1 X80.125 Y86.534 E0.01182
G1 X79.591 Y86.000 E0.02365
G1 X79.325 Y86.267 E0.01182
G1 X79.591 Y86.534 E0.01182
G1 X79.325 Y86.800 E0.01182
G1 X79.058 Y86.534 E0.01182
G1 X78.792 Y86.800 E0.01182
G1 X79.325 Y87.334 E0.02365
G1 X79.591 Y87.067 E0.01182
G1 X79.858 Y87.334 E0.01182
G1 X79.599 Y87.593 E0.01149
M204 S1250
G1 X80.275 Y87.983 F9000.000
M204 S800
G1 F1200.000
G1 X80.391 Y87.867 E0.00515
G1 X80.125 Y87.600 E0.01182
G1 X80.658 Y87.067 E0.02365
G1 X80.925 Y87.334 E0.01182
G1 X80.658 Y87.600 E0.01182
G1 X80.925 Y87.867 E0.01182
G1 X81.191 Y87.600 E0.01182
G1 X81.458 Y87.867 E0.01182
G1 X80.951 Y88.374 E0.02246
M204 S1250
G1 X80.825 Y88.301 F9000.000
M204 S800
G1 F1200.000
G1 X80.658 Y88.134 E0.00741
G1 X80.613 Y88.178 E0.00199
M204 S1250
G1 E-2.24000 F4200.000
;WIPE_START
G1 F7200.000
G1 X80.658 Y88.134 E-0.03510
G1 X80.825 Y88.301 E-0.13100
;WIPE_END
G1 E-0.79391 F4200.000
G1 Z0.400 F9000.000
G1 X85.684 Y91.106
G1 Z0.200
G1 E3.20000 F2400.000
M204 S800
G1 F1200.000
G1 X85.724 Y91.067 E0.00176
G1 X85.457 Y90.800 E0.01182
G1 X85.991 Y90.267 E0.02365
G1 X86.257 Y90.533 E0.01182
G1 X85.991 Y90.800 E0.01182
G1 X86.257 Y91.067 E0.01182
G1 X86.524 Y90.800 E0.01182
G1 X86.791 Y91.067 E0.01182
G1 X86.360 Y91.497 E0.01908
M204 S1250
G1 X86.698 Y91.692 F9000.000
M204 S800
G1 F1200.000
G1 X87.057 Y91.333 E0.01591
G1 X87.324 Y91.600 E0.01182
G1 X87.057 Y91.866 E0.01182
G1 X87.134 Y91.944 E0.00342
M204 S1250
G1 X87.375 Y92.082 F9000.000
M204 S800
G1 F1200.000
G1 X87.590 Y91.866 E0.00957
G1 X87.857 Y92.133 E0.01182
G1 X87.713 Y92.278 E0.00640
M204 S1250
G1 X88.389 Y92.668 F9000.000
M204 S800
G1 F1200.000
G1 X88.124 Y92.400 E0.01182
G1 X88.657 Y91.866 E0.02365
G1 X88.924 Y92.133 E0.01182
G1 X88.657 Y92.400 E0.01182
G1 X89.190 Y92.933 E0.02365
G1 X89.457 Y92.666 E0.01182
G1 X89.190 Y92.400 E0.01182
G1 X89.457 Y92.133 E0.01182
G1 X89.724 Y92.400 E0.01182
G1 X89.990 Y92.133 E0.01182
G1 X89.457 Y91.600 E0.02365
G1 X89.190 Y91.866 E0.01182
G1 X88.924 Y91.600 E0.01182
G1 X89.457 Y91.067 E0.02365
G1 X89.724 Y91.333 E0.01182
G1 X89.990 Y91.067 E0.01182
G1 X89.724 Y90.800 E0.01182
G1 X90.257 Y90.267 E0.02365
G1 X90.523 Y90.533 E0.01182
G1 X90.257 Y90.800 E0.01182
G1 X90.523 Y91.067 E0.01182
G1 X90.790 Y90.800 E0.01182
G1 X91.057 Y91.067 E0.01182
G1 X90.523 Y91.600 E0.02365
G1 X90.257 Y91.333 E0.01182
G1 X89.990 Y91.600 E0.01182
G1 X90.790 Y92.400 E0.03547
G1 X91.057 Y92.133 E0.01182
G1 X90.790 Y91.866 E0.01182
G1 X91.323 Y91.333 E0.02365
G1 X91.590 Y91.600 E0.01182
G1 X91.323 Y91.866 E0.01182
G1 X91.590 Y92.133 E0.01182
G1 X91.857 Y91.866 E0.01182
G1 X92.123 Y92.133 E0.01182
G1 X91.590 Y92.666 E0.02365
G1 X91.323 Y92.400 E0.01182
G1 X91.057 Y92.666 E0.01182
G1 X91.323 Y92.933 E0.01182
G1 X90.790 Y93.466 E0.02365
G1 X90.523 Y93.200 E0.01182
G1 X90.790 Y92.933 E0.01182
G1 X90.257 Y92.400 E0.02365
G1 X89.990 Y92.666 E0.01182
G1 X90.257 Y92.933 E0.01182
G1 X89.990 Y93.200 E0.01182
G1 X89.724 Y92.933 E0.01182
G1 X89.457 Y93.200 E0.01182
G1 X89.658 Y93.401 E0.00892
M204 S1250
G1 X90.079 Y93.644 F9000.000
M204 S800
G1 F1200.000
G1 X90.257 Y93.466 E0.00788
G1 X90.523 Y93.733 E0.01182
G1 X90.417 Y93.839 E0.00471
M204 S1250
G1 X90.755 Y94.034 F9000.000
M204 S800
G1 F1200.000
G1 X90.790 Y94.000 E0.00154
G1 X90.920 Y94.129 E0.00576
M204 S1250
G1 X91.431 Y94.425 F9000.000
M204 S800
G1 F1200.000
G1 X91.590 Y94.266 E0.00703
G1 X91.857 Y94.533 E0.01182
G1 X92.123 Y94.266 E0.01182
G1 X91.590 Y93.733 E0.02365
G1 X91.323 Y94.000 E0.01182
G1 X91.057 Y93.733 E0.01182
G1 X91.590 Y93.200 E0.02365
G1 X91.857 Y93.466 E0.01182
G1 X92.123 Y93.200 E0.01182
G1 X91.857 Y92.933 E0.01182
G1 X92.390 Y92.400 E0.02365
G1 X92.657 Y92.666 E0.01182
G1 X92.390 Y92.933 E0.01182
G1 X92.657 Y93.200 E0.01182
G1 X92.923 Y92.933 E0.01182
G1 X93.190 Y93.200 E0.01182
G1 X92.657 Y93.733 E0.02365
G1 X92.390 Y93.466 E0.01182
G1 X92.123 Y93.733 E0.01182
G1 X92.923 Y94.533 E0.03547
G1 X93.190 Y94.266 E0.01182
G1 X92.923 Y94.000 E0.01182
G1 X93.456 Y93.466 E0.02365
G1 X93.723 Y93.733 E0.01182
