; generated by PrusaSlicer 2.3.3 on 2022-01-29 at 18:36:06 UTC


;
;

;
;
; 

; external perimeters extrusion width = 0.45mm
; perimeters extrusion width = 0.45mm
; infill extrusion width = 0.45mm
; solid infill extrusion width = 0.45mm
; top infill extrusion width = 0.40mm
; support material extrusion width = 0.35mm
; first layer extrusion width = 0.42mm

M73 P0 R22
M201 X1250 Y1250 Z400 E5000 ; sets maximum accelerations, mm/sec^2
M203 X180 Y180 Z12 E80 ; sets maximum feedrates, mm/sec
M204 P1250 R1250 T1250 ; sets acceleration (P, T) and retract acceleration (R), mm/sec^2
M205 X8.00 Y8.00 Z2.00 E10.00 ; sets the jerk limits, mm/sec
M205 S0 T0 ; sets the minimum extruding and travel feed rate, mm/sec
M107
;TYPE:Custom
G90 ; use absolute coordinates
M83 ; extruder relative mode
M104 S170 ; set extruder temp for bed leveling
M140 S60 ; set bed temp
M109 R170 ; wait for bed leveling temp
M190 S60 ; wait for bed temp
G28 ; home all without mesh bed level
G29 ; mesh bed leveling 
M104 S215 ; set extruder temp
G92 E0.0
G1 Y-2.0 X179 F2400
G1 Z3 F720
M109 S215 ; wait for extruder temp

; intro line
G1 X170 F1000
G1 Z0.2 F720
G1 X110.0 E8.0 F900
G1 X40.0 E10.0 F700
G92 E0.0

M221 S95 ; set flow
G21 ; set units to millimeters
G90 ; use absolute coordinates
M83 ; use relative distances for extrusion
M900 K0.2 ; Filament gcode LA 1.5
; ; Filament gcode LA 1.0
;LAYER_CHANGE
;Z:0.2
;HEIGHT:0.2
;BEFORE_LAYER_CHANGE
G92 E0.0
;0.2


M73 P1 R22
G1 E-3.20000 F4200.000
G1 Z0.200 F9000.000
;AFTER_LAYER_CHANGE
;0.2
G1 Z0.400
G1 X53.786 Y75.030
G1 Z0.200
G1 E3.20000 F2400.000
M204 S800
;TYPE:Skirt
;WIDTH:0.42
G1 F1200.000
G1 X54.156 Y74.765 E0.01425
G1 X54.880 Y74.540 E0.02378
G1 X124.126 Y74.516 E2.17116
G1 X124.918 Y74.652 E0.02520
G1 X125.622 Y75.047 E0.02532
G1 X129.305 Y78.711 E0.16288
G1 X129.696 Y79.234 E0.02048
G1 X130.598 Y81.049 E0.06356
G1 X130.835 Y81.973 E0.02989
G1 X130.835 Y85.851 E0.12159
G1 X130.685 Y86.579 E0.02331
G1 X130.315 Y87.228 E0.02343
G1 X128.360 Y89.175 E0.08651
G1 X125.483 Y90.957 E0.10610
G1 X106.160 Y102.144 E0.70006
G1 X101.344 Y104.742 E0.17158
G1 X99.260 Y105.460 E0.06913
G1 X81.700 Y105.482 E0.55058
G1 X78.858 Y104.805 E0.09160
G1 X54.419 Y90.897 E0.88166
M73 P1 R21
G1 X52.769 Y89.647 E0.06489
G1 X49.649 Y86.530 E0.13830
G1 X49.230 Y85.925 E0.02308
G1 X49.016 Y85.224 E0.02296
G1 X49.223 Y81.554 E0.11524
G1 X49.391 Y81.073 E0.01597
G1 X50.470 Y78.918 E0.07559
G1 X51.735 Y77.026 E0.07135
G1 X53.539 Y75.207 E0.08032
G1 X53.738 Y75.065 E0.00765
M204 S1250
; printing object bracket_side_120.stl id:0 copy 0
G1 E-2.24000 F4200.000
;WIPE_START
G1 F7200.000
G1 X54.156 Y74.765 E-0.28514
G1 X54.880 Y74.540 E-0.42036
G1 X55.253 Y74.540 E-0.20649
;WIPE_END
G1 E-0.04800 F4200.000
G1 Z0.400 F9000.000
G1 X127.616 Y80.384
M73 P2 R21
G1 Z0.200
G1 E3.20000 F2400.000
M204 S800
;TYPE:Support material
G1 F1200.000
G1 X124.126 Y76.893 E0.15476
G1 X123.364 Y76.893 E0.02389
G1 X127.953 Y81.483 E0.20350
G1 X127.953 Y81.583 E0.00314
G1 X128.461 Y82.090 E0.02248
G1 X128.461 Y82.752 E0.02075
G1 X122.602 Y76.893 E0.25976
G1 X121.840 Y76.893 E0.02389
G1 X128.461 Y83.513 E0.29354
G1 X128.461 Y84.275 E0.02389
G1 X121.079 Y76.893 E0.32732
G1 X120.628 Y76.893 E0.01413
G1 X120.472 Y77.049 E0.00690
G1 X128.461 Y85.037 E0.35421
G1 X128.461 Y85.740 E0.02205
G1 X128.431 Y85.770 E0.00130
G1 X120.062 Y77.400 E0.37110
G1 X119.614 Y77.400 E0.01406
G1 X119.457 Y77.557 E0.00695
G1 X128.050 Y86.150 E0.38104
G1 X127.669 Y86.531 E0.01689
G1 X119.076 Y77.938 E0.38104
G1 X118.695 Y78.319 E0.01689
G1 X127.288 Y86.912 E0.38104
G1 X126.908 Y87.293 E0.01689
G1 X118.061 Y78.446 E0.39228
G1 X117.680 Y78.827 E0.01689
G1 X126.273 Y87.421 E0.38104
G1 X125.892 Y87.801 E0.01689
G1 X117.045 Y78.955 E0.39228
G1 X116.664 Y79.336 E0.01689
G1 X125.258 Y87.929 E0.38104
G1 X124.877 Y88.310 E0.01689
G1 X116.284 Y79.716 E0.38104
G1 X116.064 Y79.936 E0.00973
G1 X115.741 Y79.936 E0.01013
G1 X124.496 Y88.691 E0.38820
G1 X124.278 Y88.908 E0.00965
G1 X123.952 Y88.908 E0.01023
G1 X115.268 Y80.225 E0.38505
G1 X115.050 Y80.443 E0.00968
G1 X114.725 Y80.443 E0.01020
G1 X123.481 Y89.199 E0.38825
G1 X123.264 Y89.415 E0.00960
G1 X122.935 Y89.415 E0.01031
G1 X114.253 Y80.733 E0.38499
G1 X114.036 Y80.950 E0.00962
G1 X113.708 Y80.950 E0.01028
G1 X122.465 Y89.707 E0.38831
G1 X122.250 Y89.923 E0.00955
G1 X121.919 Y89.923 E0.01038
G1 X113.238 Y81.241 E0.38494
M73 P3 R21
G1 X112.857 Y81.622 E0.01689
G1 X121.450 Y90.215 E0.38104
G1 X121.069 Y90.596 E0.01689
G1 X112.437 Y81.964 E0.38277
G1 X112.008 Y81.964 E0.01346
G1 X111.841 Y82.130 E0.00737
G1 X120.647 Y90.937 E0.39048
G1 X120.222 Y90.937 E0.01335
G1 X120.054 Y91.105 E0.00745
G1 X111.420 Y82.471 E0.38282
G1 X110.993 Y82.471 E0.01338
G1 X110.826 Y82.639 E0.00743
G1 X119.631 Y91.444 E0.39043
G1 X119.207 Y91.444 E0.01328
G1 X119.038 Y91.613 E0.00750
G1 X110.404 Y82.978 E0.38287
G1 X109.979 Y82.978 E0.01331
G1 X109.811 Y83.147 E0.00748
G1 X118.657 Y91.994 E0.39228
G1 X118.276 Y92.375 E0.01689
G1 X109.430 Y83.528 E0.39228
G1 X109.049 Y83.909 E0.01689
G1 X117.642 Y92.502 E0.38104
G1 X117.261 Y92.883 E0.01689
G1 X108.414 Y84.036 E0.39228
G1 X108.033 Y84.417 E0.01689
G1 X116.627 Y93.010 E0.38104
G1 X116.246 Y93.391 E0.01689
G1 X107.399 Y84.544 E0.39228
G1 X107.018 Y84.925 E0.01689
G1 X115.611 Y93.519 E0.38104
G1 X115.230 Y93.900 E0.01689
G1 X106.384 Y85.053 E0.39228
G1 X106.003 Y85.434 E0.01689
G1 X114.849 Y94.280 E0.39228
G1 X114.644 Y94.486 E0.00912
G1 X114.293 Y94.486 E0.01098
G1 X105.622 Y85.815 E0.38452
G1 X105.416 Y86.021 E0.00915
G1 X105.066 Y86.021 E0.01095
G1 X113.834 Y94.789 E0.38878
G1 X113.630 Y94.993 E0.00907
G1 X113.277 Y94.993 E0.01106
G1 X104.606 Y86.323 E0.38446
G1 X104.401 Y86.528 E0.00909
G1 X104.050 Y86.528 E0.01103
G1 X112.819 Y95.297 E0.38884
G1 X112.615 Y95.500 E0.00902
G1 X112.260 Y95.500 E0.01113
G1 X103.591 Y86.831 E0.38441
M73 P4 R21
G1 X103.210 Y87.212 E0.01689
G1 X111.803 Y95.805 E0.38104
G1 X111.422 Y96.186 E0.01689
G1 X102.778 Y87.542 E0.38330
G1 X102.373 Y87.542 E0.01271
G1 X102.195 Y87.720 E0.00790
G1 X110.989 Y96.515 E0.38995
G1 X110.587 Y96.515 E0.01260
G1 X110.407 Y96.694 E0.00798
G1 X101.762 Y88.049 E0.38335
G1 X101.359 Y88.049 E0.01263
G1 X101.179 Y88.229 E0.00796
G1 X109.972 Y97.022 E0.38990
G1 X109.573 Y97.022 E0.01253
G1 X109.392 Y97.203 E0.00803
G1 X100.745 Y88.556 E0.38340
G1 X100.345 Y88.556 E0.01256
G1 X100.164 Y88.737 E0.00801
G1 X108.956 Y97.529 E0.38984
G1 X108.559 Y97.529 E0.01245
G1 X108.376 Y97.711 E0.00809
G1 X99.783 Y89.118 E0.38104
G1 X99.402 Y89.499 E0.01689
G1 X107.996 Y98.092 E0.38104
G1 X107.615 Y98.473 E0.01689
G1 X98.768 Y89.626 E0.39228
G1 X98.387 Y90.007 E0.01689
G1 X106.980 Y98.600 E0.38104
G1 X106.599 Y98.981 E0.01689
G1 X97.752 Y90.134 E0.39228
G1 X97.372 Y90.515 E0.01689
G1 X105.965 Y99.109 E0.38104
G1 X105.584 Y99.489 E0.01689
G1 X96.737 Y90.643 E0.39228
G1 X96.356 Y91.023 E0.01689
G1 X105.203 Y99.870 E0.39228
G1 X105.009 Y100.064 E0.00859
G1 X104.635 Y100.064 E0.01173
G1 X95.975 Y91.404 E0.38398
G1 X95.781 Y91.599 E0.00861
G1 X95.408 Y91.599 E0.01170
G1 X104.188 Y100.379 E0.38931
G1 X103.995 Y100.571 E0.00854
G1 X103.618 Y100.571 E0.01181
G1 X94.960 Y91.913 E0.38393
G1 X94.767 Y92.106 E0.00856
G1 X94.391 Y92.106 E0.01178
G1 X103.172 Y100.887 E0.38937
G1 X102.981 Y101.078 E0.00849
G1 X102.602 Y101.078 E0.01188
G1 X93.629 Y92.106 E0.39785
M73 P5 R21
G1 X92.868 Y92.106 E0.02389
G1 X102.157 Y101.395 E0.41191
G1 X101.776 Y101.776 E0.01689
G1 X92.106 Y92.106 E0.42880
G1 X91.344 Y92.106 E0.02389
G1 X101.331 Y102.092 E0.44282
G1 X100.953 Y102.092 E0.01185
G1 X100.761 Y102.284 E0.00851
G1 X90.582 Y92.106 E0.45133
G1 X89.820 Y92.106 E0.02389
G1 X100.314 Y102.599 E0.46531
G1 X99.552 Y102.599 E0.02389
G1 X89.059 Y92.106 E0.46531
G1 X88.297 Y92.106 E0.02389
G1 X99.111 Y102.920 E0.47952
G1 X98.924 Y103.107 E0.00827
G1 X98.536 Y103.107 E0.01219
G1 X87.535 Y92.106 E0.48779
G1 X86.773 Y92.106 E0.02389
G1 X97.774 Y103.107 E0.48779
G1 X97.012 Y103.107 E0.02389
G1 X86.011 Y92.106 E0.48779
G1 X85.249 Y92.106 E0.02389
G1 X96.250 Y103.107 E0.48779
G1 X95.488 Y103.107 E0.02389
G1 X82.966 Y90.585 E0.55525
G1 X82.698 Y90.585 E0.00842
G1 X82.191 Y90.077 E0.02248
G1 X81.697 Y90.077 E0.01546
G1 X94.727 Y103.107 E0.57773
G1 X93.965 Y103.107 E0.02389
G1 X79.414 Y88.556 E0.64519
G1 X79.148 Y88.556 E0.00835
G1 X78.641 Y88.049 E0.02248
G1 X78.146 Y88.049 E0.01554
G1 X93.203 Y103.107 E0.66767
G1 X92.441 Y103.107 E0.02389
G1 X75.863 Y86.528 E0.73512
M73 P6 R21
G1 X75.599 Y86.528 E0.00827
G1 X75.092 Y86.021 E0.02248
G1 X74.594 Y86.021 E0.01561
G1 X91.679 Y103.107 E0.75761
G1 X90.917 Y103.107 E0.02389
G1 X72.311 Y84.500 E0.82506
G1 X72.049 Y84.500 E0.00820
G1 X71.542 Y83.993 E0.02248
G1 X71.042 Y83.993 E0.01569
G1 X90.156 Y103.107 E0.84755
G1 X89.394 Y103.107 E0.02389
G1 X68.759 Y82.471 E0.91500
M73 P6 R20
G1 X68.500 Y82.471 E0.00812
G1 X67.992 Y81.964 E0.02248
G1 X67.490 Y81.964 E0.01576
G1 X88.632 Y103.107 E0.93749
G1 X87.870 Y103.107 E0.02389
G1 X65.207 Y80.443 E1.00494
G1 X64.950 Y80.443 E0.00805
G1 X64.443 Y79.936 E0.02248
G1 X63.938 Y79.936 E0.01584
G1 X87.108 Y103.107 E1.02743
G1 X86.347 Y103.107 E0.02389
G1 X61.655 Y78.415 E1.09488
M73 P7 R20
G1 X61.400 Y78.415 E0.00798
G1 X60.386 Y77.400 E0.04497
G1 X59.879 Y77.400 E0.01590
G1 X59.372 Y76.893 E0.02248
G1 X85.585 Y103.107 E1.16233
G1 X84.823 Y103.107 E0.02389
G1 X58.610 Y76.893 E1.16233
G1 X57.848 Y76.893 E0.02389
G1 X84.061 Y103.107 E1.16233
G1 X83.299 Y103.107 E0.02389
G1 X57.086 Y76.893 E1.16233
G1 X56.324 Y76.893 E0.02389
G1 X82.538 Y103.107 E1.16233
G1 X81.776 Y103.107 E0.02389
G1 X55.563 Y76.893 E1.16233
G1 X55.215 Y76.893 E0.01091
G1 X55.008 Y77.100 E0.00918
G1 X80.507 Y102.599 E1.13067
M73 P8 R20
G1 X79.745 Y102.599 E0.02389
G1 X54.627 Y77.481 E1.11378
G1 X54.246 Y77.862 E0.01689
G1 X77.462 Y101.078 E1.02944
G1 X77.019 Y101.078 E0.01389
G1 X76.512 Y100.571 E0.02248
G1 X76.193 Y100.571 E0.01000
G1 X53.865 Y78.243 E0.99006
G1 X53.568 Y78.540 E0.01318
G1 X53.568 Y78.708 E0.00524
G1 X73.910 Y99.050 E0.90201
G1 X73.470 Y99.050 E0.01381
G1 X72.962 Y98.543 E0.02248
G1 X72.641 Y98.543 E0.01007
G1 X53.357 Y79.258 E0.85510
G1 X52.976 Y79.639 E0.01689
G1 X70.358 Y97.022 E0.77076
G1 X69.920 Y97.022 E0.01374
G1 X69.413 Y96.515 E0.02248
G1 X69.089 Y96.515 E0.01015
G1 X52.595 Y80.020 E0.73138
G1 X52.554 Y80.062 E0.00183
G1 X52.554 Y80.569 E0.01590
G1 X52.468 Y80.655 E0.00381
G1 X66.806 Y94.993 E0.63580
G1 X66.370 Y94.993 E0.01366
G1 X65.863 Y94.486 E0.02248
G1 X65.537 Y94.486 E0.01022
G1 X52.087 Y81.036 E0.59642
M73 P9 R20
G1 X52.047 Y81.076 E0.00178
G1 X52.047 Y81.583 E0.01590
G1 X51.959 Y81.670 E0.00387
G1 X63.254 Y92.965 E0.50084
G1 X62.821 Y92.965 E0.01359
G1 X62.314 Y92.458 E0.02248
G1 X61.985 Y92.458 E0.01030
G1 X51.578 Y82.051 E0.46146
G1 X51.539 Y82.090 E0.00173
G1 X51.539 Y82.774 E0.02144
G1 X59.702 Y90.937 E0.36195
G1 X59.271 Y90.937 E0.01351
G1 X58.257 Y89.923 E0.04497
G1 X57.926 Y89.923 E0.01037
G1 X51.539 Y83.536 E0.28321
G1 X51.539 Y84.297 E0.02389
G1 X56.150 Y88.908 E0.20446
G1 X55.722 Y88.908 E0.01344
G1 X54.708 Y87.894 E0.04497
G1 X54.374 Y87.894 E0.01045
G1 X51.370 Y84.890 E0.13323
M204 S1250
; stop printing object bracket_side_120.stl id:0 copy 0
M106 S84.15
;LAYER_CHANGE
;Z:0.5
;HEIGHT:0.3
;BEFORE_LAYER_CHANGE
G92 E0.0
;0.5


G1 E-2.24000 F4200.000
;WIPE_START
G1 F7200.000
G1 X52.533 Y86.053 E-0.91200
;WIPE_END
G1 E-0.04800 F4200.000
G1 Z0.400 F9000.000
G1 Z0.500
;AFTER_LAYER_CHANGE
;0.5
G1 Z0.700
G1 X50.854 Y87.734
G1 Z0.500
G1 E3.20000 F2400.000
;TYPE:Skirt
G1 X49.649 Y86.530 E0.07557
G1 X49.230 Y85.925 E0.03264
G1 X49.016 Y85.224 E0.03248
G1 X49.223 Y81.554 E0.16303
G1 X49.391 Y81.073 E0.02260
G1 X50.470 Y78.918 E0.10693
G1 X51.735 Y77.026 E0.10093
G1 X53.539 Y75.207 E0.11363
G1 X54.156 Y74.765 E0.03365
G1 X54.880 Y74.540 E0.03365
G1 X124.126 Y74.516 E3.07139
G1 X124.918 Y74.652 E0.03564
G1 X125.622 Y75.047 E0.03581
G1 X129.305 Y78.711 E0.23042
G1 X129.696 Y79.234 E0.02897
G1 X130.598 Y81.049 E0.08991
G1 X130.835 Y81.973 E0.04229
G1 X130.835 Y85.851 E0.17201
G1 X130.685 Y86.579 E0.03298
G1 X130.315 Y87.228 E0.03314
G1 X128.360 Y89.175 E0.12238
G1 X125.483 Y90.957 E0.15009
G1 X106.160 Y102.144 E0.99032
G1 X101.344 Y104.742 E0.24272
G1 X99.260 Y105.460 E0.09780
G1 X81.700 Y105.482 E0.77887
G1 X78.858 Y104.805 E0.12958
G1 X54.419 Y90.897 E1.24722
G1 X52.769 Y89.647 E0.09179
G1 X50.897 Y87.776 E0.11742
; printing object bracket_side_120.stl id:0 copy 0
G1 E-2.24000 F4200.000
;WIPE_START
G1 F7200.000
G1 X49.732 Y86.613 E-0.91200
;WIPE_END
G1 E-0.04800 F4200.000
G1 Z0.700 F9000.000
G1 X125.416 Y84.560
G1 Z0.500
G1 E3.20000 F2400.000
;TYPE:Support material interface
;WIDTH:0.35
G1 F1920.000
G1 X125.416 Y83.408 E0.04105
G1 X125.009 Y83.408 E0.01450
G1 X125.009 Y84.422 E0.03613
G1 X124.602 Y84.422 E0.01450
G1 X124.602 Y82.394 E0.07226
G1 X124.481 Y82.394 E0.00429
G1 X124.481 Y81.380 E0.03613
G1 X124.195 Y81.380 E0.01021
G1 X124.195 Y84.929 E0.12645
G1 X123.788 Y84.929 E0.01450
G1 X123.788 Y80.873 E0.14451
G1 X123.467 Y80.873 E0.01141
G1 X123.467 Y79.858 E0.03613
G1 X123.380 Y79.858 E0.00309
G1 X123.380 Y85.436 E0.19871
G1 X122.973 Y85.436 E0.01450
G1 X122.973 Y79.858 E0.19871
G1 X122.566 Y79.858 E0.01450
G1 X122.566 Y85.943 E0.21677
G1 X122.159 Y85.943 E0.01450
G1 X122.159 Y79.858 E0.21677
G1 X121.946 Y79.858 E0.00760
G1 X121.946 Y80.365 E0.01806
G1 X121.752 Y80.365 E0.00690
G1 X121.752 Y86.450 E0.21677
G1 X121.345 Y86.450 E0.01450
G1 X121.345 Y80.365 E0.21677
G1 X120.938 Y80.365 E0.01450
G1 X120.932 Y86.958 E0.23484
G1 X120.531 Y86.958 E0.01428
G1 X120.531 Y80.873 E0.21677
G1 X120.425 Y80.873 E0.00378
G1 X120.425 Y81.380 E0.01806
G1 X120.124 Y81.380 E0.01072
G1 X120.124 Y86.958 E0.19871
G1 X119.918 Y86.958 E0.00735
G1 X119.918 Y87.465 E0.01806
G1 X119.717 Y87.465 E0.00716
G1 X119.717 Y81.380 E0.21677
G1 X119.411 Y81.380 E0.01091
G1 X119.411 Y81.887 E0.01806
G1 X119.310 Y81.887 E0.00359
G1 X119.310 Y87.972 E0.21677
M73 P10 R20
G1 X118.903 Y87.972 E0.01450
G1 X118.903 Y81.887 E0.21677
G1 X118.496 Y81.887 E0.01450
G1 X118.496 Y87.972 E0.21677
G1 X118.396 Y87.972 E0.00353
G1 X118.396 Y88.479 E0.01806
G1 X118.088 Y88.479 E0.01097
G1 X118.088 Y82.394 E0.21677
G1 X117.889 Y82.394 E0.00709
G1 X117.889 Y82.901 E0.01806
G1 X117.681 Y82.901 E0.00741
G1 X117.681 Y88.479 E0.19871
G1 X117.382 Y88.479 E0.01066
G1 X117.382 Y88.986 E0.01806
G1 X117.274 Y88.986 E0.00385
G1 X117.274 Y82.901 E0.21677
G1 X116.875 Y82.901 E0.01422
G1 X116.867 Y89.493 E0.23484
G1 X116.460 Y89.493 E0.01450
G1 X116.460 Y83.408 E0.21677
G1 X116.053 Y83.408 E0.01450
G1 X116.053 Y89.493 E0.21677
G1 X115.861 Y89.493 E0.00684
G1 X115.861 Y90.000 E0.01806
G1 X115.646 Y90.000 E0.00766
G1 X115.646 Y83.915 E0.21677
G1 X115.239 Y83.915 E0.01450
G1 X115.239 Y90.000 E0.21677
G1 X114.847 Y90.000 E0.01397
G1 X114.847 Y90.507 E0.01806
G1 X114.832 Y90.507 E0.00054
G1 X114.832 Y84.422 E0.21677
G1 X114.425 Y84.422 E0.01450
G1 X114.425 Y90.507 E0.21677
G1 X114.018 Y90.507 E0.01450
G1 X114.018 Y84.929 E0.19871
G1 X113.611 Y84.929 E0.01450
G1 X113.611 Y91.014 E0.21677
G1 X113.326 Y91.014 E0.01015
G1 X113.326 Y91.521 E0.01806
G1 X113.204 Y91.521 E0.00435
G1 X113.204 Y85.436 E0.21677
G1 X112.796 Y85.436 E0.01450
G1 X112.796 Y91.521 E0.21677
G1 X112.389 Y91.521 E0.01450
G1 X112.389 Y85.436 E0.21677
G1 X112.311 Y85.436 E0.00278
G1 X112.311 Y85.943 E0.01806
G1 X111.982 Y85.943 E0.01173
G1 X111.982 Y92.028 E0.21677
G1 X111.575 Y92.028 E0.01450
G1 X111.575 Y85.943 E0.21677
G1 X111.297 Y85.943 E0.00990
G1 X111.297 Y86.450 E0.01806
G1 X111.168 Y86.450 E0.00460
G1 X111.168 Y92.535 E0.21677
G1 X110.761 Y92.535 E0.01450
G1 X110.761 Y86.957 E0.19871
G1 X110.354 Y86.957 E0.01450
G1 X110.354 Y92.535 E0.19871
G1 X110.283 Y92.535 E0.00252
G1 X110.283 Y93.042 E0.01806
G1 X109.947 Y93.042 E0.01198
G1 X109.947 Y86.957 E0.21677
G1 X109.776 Y86.957 E0.00609
G1 X109.776 Y87.465 E0.01806
G1 X109.540 Y87.465 E0.00842
G1 X109.540 Y93.550 E0.21677
G1 X109.133 Y93.550 E0.01450
G1 X109.133 Y87.465 E0.21677
G1 X108.762 Y87.465 E0.01321
G1 X108.762 Y87.972 E0.01806
G1 X108.726 Y87.972 E0.00129
