; generated by PrusaSlicer 2.3.3 on 2022-01-25 at 22:20:03 UTC


;
;

;
;
; 

; external perimeters extrusion width = 0.45mm
; perimeters extrusion width = 0.45mm
; infill extrusion width = 0.45mm
; solid infill extrusion width = 0.45mm
; top infill extrusion width = 0.40mm
; support material extrusion width = 0.35mm
; first layer extrusion width = 0.42mm

M73 P0 R25
M201 X1250 Y1250 Z400 E5000 ; sets maximum accelerations, mm/sec^2
M203 X180 Y180 Z12 E80 ; sets maximum feedrates, mm/sec
M204 P1250 R1250 T1250 ; sets acceleration (P, T) and retract acceleration (R), mm/sec^2
M205 X8.00 Y8.00 Z2.00 E10.00 ; sets the jerk limits, mm/sec
M205 S0 T0 ; sets the minimum extruding and travel feed rate, mm/sec
M107
;TYPE:Custom
G90 ; use absolute coordinates
M83 ; extruder relative mode
M104 S170 ; set extruder temp for bed leveling
M140 S60 ; set bed temp
M109 R170 ; wait for bed leveling temp
M190 S60 ; wait for bed temp
G28 ; home all without mesh bed level
G29 ; mesh bed leveling 
M104 S215 ; set extruder temp
G92 E0.0
G1 Y-2.0 X179 F2400
G1 Z3 F720
M109 S215 ; wait for extruder temp

; intro line
G1 X170 F1000
G1 Z0.2 F720
G1 X110.0 E8.0 F900
G1 X40.0 E10.0 F700
G92 E0.0

M221 S95 ; set flow
G21 ; set units to millimeters
G90 ; use absolute coordinates
M83 ; use relative distances for extrusion
M900 K0.2 ; Filament gcode LA 1.5
; ; Filament gcode LA 1.0
;LAYER_CHANGE
;Z:0.2
;HEIGHT:0.2
;BEFORE_LAYER_CHANGE
G92 E0.0
;0.2


M73 P1 R25
G1 E-3.20000 F4200.000
G1 Z0.200 F9000.000
;AFTER_LAYER_CHANGE
;0.2
G1 Z0.400
G1 X47.504 Y88.605
G1 Z0.200
G1 E3.20000 F2400.000
M204 S800
;TYPE:Skirt
;WIDTH:0.42
G1 F1200.000
G1 X48.194 Y87.797 E0.03332
G1 X81.334 Y60.117 E1.35386
G1 X82.111 Y59.774 E0.02662
G1 X82.958 Y59.635 E0.02693
G1 X96.926 Y59.633 E0.43796
G1 X98.064 Y59.831 E0.03620
G1 X99.059 Y60.394 E0.03585
G1 X131.852 Y87.836 E1.34071
G1 X132.446 Y88.525 E0.02853
G1 X132.841 Y89.369 E0.02922
G1 X132.990 Y90.262 E0.02838
G1 X132.897 Y91.160 E0.02831
G1 X132.550 Y92.036 E0.02953
G1 X125.669 Y103.953 E0.43148
G1 X124.928 Y104.838 E0.03619
G1 X124.443 Y105.179 E0.01858
G1 X98.911 Y119.921 E0.92441
G1 X98.157 Y120.238 E0.02564
G1 X97.319 Y120.366 E0.02657
G1 X82.753 Y120.367 E0.45673
G1 X81.959 Y120.269 E0.02508
G1 X81.083 Y119.917 E0.02961
G1 X55.556 Y105.179 E0.92418
G1 X55.005 Y104.779 E0.02136
G1 X54.341 Y103.970 E0.03281
G1 X47.389 Y91.925 E0.43606
G1 X47.159 Y91.364 E0.01901
G1 X47.030 Y90.746 E0.01978
G1 X47.015 Y90.145 E0.01885
G1 X47.106 Y89.559 E0.01862
G1 X47.481 Y88.661 E0.03051
M204 S1250
; printing object bracket_flat_corner.stl id:0 copy 0
G1 E-2.24000 F4200.000
;WIPE_START
G1 F7200.000
G1 X48.194 Y87.797 E-0.62059
G1 X48.597 Y87.460 E-0.29141
;WIPE_END
G1 E-0.04800 F4200.000
G1 Z0.400 F9000.000
G1 X87.697 Y95.078
G1 Z0.200
G1 E3.20000 F2400.000
M204 S800
;TYPE:Perimeter
G1 F1200.000
G1 X87.838 Y94.595 E0.01577
G1 X88.080 Y94.153 E0.01578
G1 X88.350 Y93.831 E0.01319
G1 X88.737 Y93.520 E0.01557
G1 X89.105 Y93.329 E0.01299
G1 X89.499 Y93.205 E0.01297
G1 X89.983 Y93.151 E0.01527
G1 X90.412 Y93.187 E0.01349
G1 X90.889 Y93.326 E0.01560
G1 X91.263 Y93.520 E0.01319
G1 X91.650 Y93.831 E0.01557
G1 X91.920 Y94.153 E0.01319
G1 X92.162 Y94.595 E0.01578
G1 X92.303 Y95.078 E0.01577
G1 X92.340 Y95.497 E0.01319
G1 X92.286 Y95.991 E0.01557
G1 X92.161 Y96.386 E0.01299
G1 X91.970 Y96.753 E0.01299
G1 X91.659 Y97.140 E0.01557
G1 X91.337 Y97.411 E0.01320
G1 X90.896 Y97.653 E0.01578
G1 X90.413 Y97.794 E0.01577
G1 X90.000 Y97.830 E0.01299
G1 X89.587 Y97.794 E0.01299
G1 X89.104 Y97.653 E0.01577
G1 X88.663 Y97.411 E0.01578
G1 X88.341 Y97.140 E0.01320
G1 X88.030 Y96.753 E0.01557
G1 X87.839 Y96.386 E0.01299
G1 X87.714 Y95.991 E0.01299
G1 X87.660 Y95.497 E0.01557
G1 X87.692 Y95.137 E0.01131
M204 S1250
G1 X88.067 Y95.170 F9000.000
M204 S800
;TYPE:External perimeter
G1 F1200.000
G1 X88.188 Y94.740 E0.01402
G1 X88.392 Y94.367 E0.01332
G1 X88.615 Y94.102 E0.01086
G1 X88.944 Y93.838 E0.01324
G1 X89.250 Y93.679 E0.01079
G1 X89.578 Y93.575 E0.01078
G1 X89.988 Y93.530 E0.01296
G1 X90.343 Y93.559 E0.01115
G1 X90.748 Y93.678 E0.01325
G1 X91.056 Y93.838 E0.01086
G1 X91.385 Y94.102 E0.01324
G1 X91.608 Y94.367 E0.01086
G1 X91.812 Y94.740 E0.01332
G1 X91.931 Y95.148 E0.01332
G1 X91.961 Y95.493 E0.01086
G1 X91.915 Y95.913 E0.01324
G1 X91.812 Y96.241 E0.01079
G1 X91.653 Y96.546 E0.01079
G1 X91.388 Y96.875 E0.01324
G1 X91.123 Y97.098 E0.01087
G1 X90.750 Y97.302 E0.01332
G1 X90.343 Y97.421 E0.01331
G1 X90.000 Y97.451 E0.01079
G1 X89.657 Y97.421 E0.01079
G1 X89.250 Y97.302 E0.01331
G1 X88.877 Y97.098 E0.01332
G1 X88.612 Y96.875 E0.01087
G1 X88.347 Y96.546 E0.01324
G1 X88.188 Y96.241 E0.01079
G1 X88.085 Y95.913 E0.01079
G1 X88.039 Y95.493 E0.01324
G1 X88.062 Y95.230 E0.00826
M204 S1250
G1 X87.761 Y94.913 F9000.000
G1 E-2.24000 F4200.000
;WIPE_START
G1 F7200.000
G1 X88.188 Y94.740 E-0.28052
G1 X88.392 Y94.367 E-0.23540
G1 X88.615 Y94.102 E-0.19197
G1 X88.902 Y93.872 E-0.20412
;WIPE_END
G1 E-0.04800 F4200.000
G1 Z0.400 F9000.000
G1 X89.499 Y108.205
G1 Z0.200
G1 E3.20000 F2400.000
M204 S800
;TYPE:Perimeter
G1 F1200.000
G1 X89.983 Y108.151 E0.01527
M73 P2 R25
G1 X90.412 Y108.187 E0.01349
G1 X90.889 Y108.326 E0.01560
G1 X91.263 Y108.520 E0.01319
G1 X91.650 Y108.831 E0.01557
G1 X91.920 Y109.153 E0.01319
G1 X92.162 Y109.594 E0.01576
G1 X92.301 Y110.068 E0.01547
G1 X92.340 Y110.496 E0.01349
G1 X92.286 Y110.991 E0.01560
G1 X92.161 Y111.386 E0.01299
G1 X91.970 Y111.753 E0.01299
G1 X91.659 Y112.140 E0.01557
G1 X91.337 Y112.411 E0.01320
G1 X90.896 Y112.653 E0.01578
G1 X90.413 Y112.794 E0.01577
G1 X90.000 Y112.830 E0.01299
G1 X89.587 Y112.794 E0.01299
G1 X89.104 Y112.653 E0.01577
G1 X88.663 Y112.411 E0.01578
G1 X88.341 Y112.140 E0.01320
G1 X88.030 Y111.753 E0.01557
G1 X87.839 Y111.386 E0.01299
G1 X87.714 Y110.991 E0.01299
G1 X87.660 Y110.497 E0.01557
G1 X87.697 Y110.078 E0.01319
G1 X87.838 Y109.595 E0.01577
G1 X88.080 Y109.153 E0.01578
G1 X88.350 Y108.831 E0.01319
G1 X88.737 Y108.520 E0.01557
G1 X89.105 Y108.329 E0.01299
G1 X89.442 Y108.223 E0.01108
M204 S1250
G1 X89.555 Y108.582 F9000.000
M204 S800
;TYPE:External perimeter
G1 F1200.000
G1 X89.988 Y108.530 E0.01367
G1 X90.343 Y108.559 E0.01115
G1 X90.748 Y108.678 E0.01325
G1 X91.056 Y108.838 E0.01086
G1 X91.385 Y109.102 E0.01324
G1 X91.608 Y109.367 E0.01086
G1 X91.812 Y109.740 E0.01331
G1 X91.929 Y110.138 E0.01303
G1 X91.961 Y110.492 E0.01115
G1 X91.915 Y110.913 E0.01325
G1 X91.812 Y111.241 E0.01079
G1 X91.653 Y111.546 E0.01079
G1 X91.388 Y111.875 E0.01324
G1 X91.123 Y112.098 E0.01087
G1 X90.750 Y112.302 E0.01332
G1 X90.343 Y112.421 E0.01331
G1 X90.000 Y112.451 E0.01079
G1 X89.657 Y112.421 E0.01079
G1 X89.250 Y112.302 E0.01331
G1 X88.877 Y112.098 E0.01332
G1 X88.612 Y111.875 E0.01087
G1 X88.347 Y111.546 E0.01324
G1 X88.188 Y111.241 E0.01079
G1 X88.085 Y110.913 E0.01079
G1 X88.039 Y110.493 E0.01324
G1 X88.069 Y110.148 E0.01086
G1 X88.188 Y109.740 E0.01332
G1 X88.392 Y109.367 E0.01332
G1 X88.615 Y109.102 E0.01086
G1 X88.944 Y108.838 E0.01324
G1 X89.250 Y108.679 E0.01079
G1 X89.498 Y108.600 E0.00817
M204 S1250
G1 X89.678 Y108.202 F9000.000
G1 E-2.24000 F4200.000
;WIPE_START
G1 F7200.000
G1 X89.988 Y108.530 E-0.27437
G1 X90.343 Y108.559 E-0.19704
G1 X90.748 Y108.678 E-0.23423
G1 X91.056 Y108.838 E-0.19203
G1 X91.076 Y108.854 E-0.01433
;WIPE_END
G1 E-0.04800 F4200.000
G1 Z0.400 F9000.000
G1 X118.574 Y93.641
G1 Z0.200
G1 E3.20000 F2400.000
M204 S800
;TYPE:Perimeter
G1 F1200.000
G1 X118.450 Y93.245 E0.01299
G1 X118.396 Y92.752 E0.01557
G1 X118.432 Y92.332 E0.01319
G1 X118.573 Y91.849 E0.01578
G1 X118.815 Y91.408 E0.01578
G1 X119.081 Y91.091 E0.01298
G1 X119.399 Y90.825 E0.01298
G1 X119.834 Y90.586 E0.01558
G1 X120.235 Y90.459 E0.01317
G1 X120.719 Y90.406 E0.01527
G1 X121.147 Y90.442 E0.01348
G1 X121.625 Y90.581 E0.01560
G1 X121.998 Y90.775 E0.01319
G1 X122.386 Y91.086 E0.01557
G1 X122.656 Y91.408 E0.01320
G1 X122.898 Y91.849 E0.01578
G1 X123.039 Y92.332 E0.01577
G1 X123.076 Y92.752 E0.01319
G1 X123.021 Y93.245 E0.01557
G1 X122.895 Y93.647 E0.01320
G1 X122.656 Y94.082 E0.01557
G1 X122.390 Y94.399 E0.01300
G1 X122.072 Y94.666 E0.01299
G1 X121.637 Y94.905 E0.01557
G1 X121.236 Y95.031 E0.01319
G1 X120.742 Y95.085 E0.01557
G1 X120.323 Y95.048 E0.01319
G1 X119.840 Y94.908 E0.01577
G1 X119.399 Y94.666 E0.01578
G1 X119.076 Y94.395 E0.01319
G1 X118.766 Y94.008 E0.01557
G1 X118.602 Y93.694 E0.01110
M204 S1250
G1 X119.083 Y93.801 F9000.000
M204 S800
;TYPE:External perimeter
G1 F1200.000
G1 X118.924 Y93.496 E0.01079
G1 X118.820 Y93.167 E0.01079
G1 X118.775 Y92.748 E0.01325
G1 X118.805 Y92.402 E0.01086
G1 X118.924 Y91.995 E0.01332
G1 X119.128 Y91.622 E0.01332
G1 X119.349 Y91.359 E0.01079
G1 X119.613 Y91.137 E0.01079
G1 X119.983 Y90.934 E0.01325
G1 X120.313 Y90.830 E0.01085
G1 X120.724 Y90.784 E0.01296
G1 X121.078 Y90.814 E0.01114
G1 X121.484 Y90.933 E0.01326
G1 X121.791 Y91.092 E0.01086
G1 X122.121 Y91.357 E0.01324
G1 X122.343 Y91.622 E0.01087
G1 X122.548 Y91.995 E0.01331
G1 X122.666 Y92.402 E0.01332
G1 X122.697 Y92.747 E0.01086
G1 X122.651 Y93.167 E0.01324
G1 X122.546 Y93.498 E0.01087
G1 X122.343 Y93.868 E0.01324
G1 X122.122 Y94.132 E0.01080
G1 X121.858 Y94.353 E0.01079
G1 X121.488 Y94.556 E0.01324
G1 X121.158 Y94.660 E0.01086
G1 X120.738 Y94.706 E0.01324
G1 X120.393 Y94.676 E0.01086
G1 X119.985 Y94.557 E0.01331
G1 X119.613 Y94.353 E0.01332
G1 X119.347 Y94.130 E0.01086
G1 X119.120 Y93.848 E0.01136
M204 S1250
G1 X118.739 Y93.819 F9000.000
G1 E-2.24000 F4200.000
;WIPE_START
G1 F7200.000
G1 X118.924 Y93.496 E-0.22335
G1 X118.820 Y93.167 E-0.19076
G1 X118.775 Y92.748 E-0.23411
G1 X118.805 Y92.402 E-0.19201
G1 X118.841 Y92.278 E-0.07177
;WIPE_END
G1 E-0.04800 F4200.000
G1 Z0.400 F9000.000
G1 X109.666 Y86.582
G1 Z0.200
G1 E3.20000 F2400.000
M204 S800
;TYPE:Perimeter
G1 F1200.000
G1 X109.399 Y86.899 E0.01299
G1 X109.082 Y87.166 E0.01299
G1 X108.647 Y87.405 E0.01557
G1 X108.245 Y87.531 E0.01319
G1 X107.752 Y87.585 E0.01557
G1 X107.332 Y87.548 E0.01319
G1 X106.850 Y87.408 E0.01577
G1 X106.408 Y87.166 E0.01578
G1 X106.086 Y86.895 E0.01319
G1 X105.775 Y86.508 E0.01557
G1 X105.584 Y86.140 E0.01299
G1 X105.459 Y85.745 E0.01299
G1 X105.405 Y85.252 E0.01557
G1 X105.442 Y84.833 E0.01319
G1 X105.581 Y84.356 E0.01558
G1 X105.775 Y83.983 E0.01319
G1 X106.086 Y83.595 E0.01558
G1 X106.408 Y83.325 E0.01319
G1 X106.844 Y83.086 E0.01558
G1 X107.244 Y82.960 E0.01317
G1 X107.728 Y82.906 E0.01527
G1 X108.157 Y82.942 E0.01348
G1 X108.635 Y83.081 E0.01561
G1 X109.008 Y83.275 E0.01319
G1 X109.395 Y83.586 E0.01557
G1 X109.666 Y83.908 E0.01319
G1 X109.908 Y84.350 E0.01578
G1 X110.048 Y84.832 E0.01577
G1 X110.085 Y85.252 E0.01319
G1 X110.031 Y85.745 E0.01557
G1 X109.905 Y86.147 E0.01319
G1 X109.695 Y86.529 E0.01369
M204 S1250
G1 X109.364 Y86.348 F9000.000
M204 S800
;TYPE:External perimeter
G1 F1200.000
G1 X109.132 Y86.632 E0.01150
G1 X108.868 Y86.853 E0.01079
G1 X108.498 Y87.056 E0.01324
G1 X108.167 Y87.160 E0.01086
G1 X107.747 Y87.206 E0.01324
G1 X107.402 Y87.176 E0.01086
G1 X106.995 Y87.057 E0.01331
G1 X106.622 Y86.853 E0.01332
G1 X106.357 Y86.630 E0.01086
G1 X106.092 Y86.301 E0.01325
G1 X105.934 Y85.996 E0.01079
G1 X105.830 Y85.667 E0.01079
G1 X105.784 Y85.248 E0.01325
G1 X105.814 Y84.903 E0.01086
G1 X105.933 Y84.497 E0.01325
G1 X106.092 Y84.190 E0.01086
G1 X106.357 Y83.860 E0.01325
G1 X106.622 Y83.637 E0.01086
G1 X106.993 Y83.434 E0.01325
G1 X107.323 Y83.330 E0.01085
G1 X107.733 Y83.284 E0.01296
G1 X108.088 Y83.314 E0.01114
G1 X108.494 Y83.433 E0.01326
G1 X108.801 Y83.593 E0.01086
G1 X109.130 Y83.857 E0.01324
G1 X109.353 Y84.122 E0.01086
G1 X109.557 Y84.495 E0.01332
G1 X109.676 Y84.902 E0.01331
G1 X109.706 Y85.247 E0.01086
G1 X109.660 Y85.667 E0.01324
G1 X109.556 Y85.998 E0.01086
G1 X109.393 Y86.295 E0.01064
M204 S1250
G1 X109.524 Y86.678 F9000.000
G1 E-2.24000 F4200.000
;WIPE_START
G1 F7200.000
G1 X109.132 Y86.632 E-0.23598
G1 X108.868 Y86.853 E-0.19077
G1 X108.498 Y87.056 E-0.23402
G1 X108.167 Y87.160 E-0.19202
G1 X108.061 Y87.172 E-0.05922
;WIPE_END
G1 E-0.04800 F4200.000
G1 Z0.400 F9000.000
G1 X93.451 Y77.091
G1 Z0.200
G1 E3.20000 F2400.000
M204 S800
;TYPE:Perimeter
G1 F1200.000
G1 X93.200 Y77.463 E0.01409
G1 X92.856 Y77.855 E0.01635
G1 X92.475 Y78.190 E0.01590
G1 X92.170 Y78.405 E0.01169
G1 X91.864 Y78.581 E0.01107
G1 X91.545 Y78.730 E0.01104
G1 X91.208 Y78.853 E0.01125
G1 X90.708 Y78.976 E0.01616
G1 X90.352 Y79.022 E0.01125
G1 X90.000 Y79.038 E0.01104
G1 X89.648 Y79.022 E0.01104
G1 X89.299 Y78.976 E0.01104
G1 X88.949 Y78.899 E0.01125
G1 X88.461 Y78.733 E0.01616
G1 X88.136 Y78.581 E0.01125
G1 X87.831 Y78.405 E0.01104
G1 X87.537 Y78.200 E0.01125
G1 X87.144 Y77.856 E0.01636
G1 X86.800 Y77.463 E0.01636
G1 X86.595 Y77.169 E0.01124
G1 X86.419 Y76.864 E0.01104
G1 X86.270 Y76.545 E0.01104
G1 X86.147 Y76.208 E0.01125
G1 X86.024 Y75.708 E0.01616
G1 X85.978 Y75.352 E0.01125
G1 X85.962 Y75.000 E0.01104
G1 X85.978 Y74.648 E0.01104
G1 X86.024 Y74.299 E0.01104
G1 X86.101 Y73.949 E0.01125
G1 X86.267 Y73.461 E0.01616
G1 X86.419 Y73.136 E0.01125
G1 X86.595 Y72.831 E0.01104
G1 X86.800 Y72.537 E0.01125
G1 X87.140 Y72.149 E0.01616
G1 X87.405 Y71.907 E0.01125
G1 X87.689 Y71.689 E0.01125
G1 X88.130 Y71.421 E0.01616
G1 X88.455 Y71.270 E0.01125
G1 X88.786 Y71.149 E0.01104
G1 X89.126 Y71.058 E0.01104
G1 X89.479 Y70.996 E0.01123
G1 X89.979 Y70.962 E0.01570
G1 X90.351 Y70.978 E0.01169
G1 X90.701 Y71.024 E0.01107
G1 X91.051 Y71.101 E0.01125
G1 X91.539 Y71.267 E0.01616
G1 X91.870 Y71.421 E0.01145
G1 X92.311 Y71.689 E0.01616
G1 X92.595 Y71.907 E0.01125
G1 X92.860 Y72.149 E0.01123
G1 X93.190 Y72.525 E0.01570
G1 X93.405 Y72.830 E0.01169
G1 X93.581 Y73.136 E0.01107
G1 X93.730 Y73.455 E0.01104
G1 X93.853 Y73.792 E0.01125
G1 X93.976 Y74.292 E0.01616
G1 X94.022 Y74.648 E0.01125
G1 X94.038 Y75.000 E0.01104
G1 X94.022 Y75.352 E0.01104
G1 X93.976 Y75.701 E0.01104
G1 X93.899 Y76.051 E0.01125
G1 X93.733 Y76.539 E0.01616
G1 X93.481 Y77.039 E0.01754
M204 S1250
G1 X93.154 Y76.850 F9000.000
M204 S800
;TYPE:External perimeter
G1 F1200.000
G1 X92.903 Y77.230 E0.01429
G1 X92.588 Y77.588 E0.01494
G1 X92.241 Y77.894 E0.01450
G1 X91.967 Y78.087 E0.01052
G1 X91.690 Y78.247 E0.01002
G1 X91.401 Y78.382 E0.01001
G1 X91.099 Y78.492 E0.01008
G1 X90.638 Y78.604 E0.01487
G1 X90.319 Y78.646 E0.01008
G1 X90.000 Y78.660 E0.01001
G1 X89.681 Y78.646 E0.01001
G1 X89.364 Y78.605 E0.01001
G1 X89.050 Y78.535 E0.01008
G1 X88.601 Y78.383 E0.01487
G1 X88.310 Y78.247 E0.01008
G1 X88.033 Y78.087 E0.01001
G1 X87.770 Y77.903 E0.01008
G1 X87.412 Y77.588 E0.01494
G1 X87.097 Y77.230 E0.01494
G1 X86.913 Y76.967 E0.01008
G1 X86.753 Y76.690 E0.01001
G1 X86.618 Y76.401 E0.01001
G1 X86.508 Y76.099 E0.01008
G1 X86.396 Y75.638 E0.01487
G1 X86.354 Y75.319 E0.01008
G1 X86.340 Y75.000 E0.01001
G1 X86.354 Y74.681 E0.01001
G1 X86.395 Y74.364 E0.01001
G1 X86.465 Y74.050 E0.01008
G1 X86.617 Y73.601 E0.01487
G1 X86.753 Y73.310 E0.01008
G1 X86.913 Y73.033 E0.01001
G1 X87.097 Y72.770 E0.01008
G1 X87.410 Y72.413 E0.01487
G1 X87.647 Y72.196 E0.01008
G1 X87.902 Y72.000 E0.01008
G1 X88.308 Y71.754 E0.01487
G1 X88.599 Y71.618 E0.01008
G1 X88.899 Y71.509 E0.01001
G1 X89.208 Y71.427 E0.01001
G1 X89.524 Y71.371 E0.01008
G1 X89.983 Y71.340 E0.01443
G1 X90.319 Y71.354 E0.01052
G1 X90.636 Y71.395 E0.01002
G1 X90.950 Y71.465 E0.01008
G1 X91.399 Y71.617 E0.01487
G1 X91.692 Y71.754 E0.01016
G1 X92.098 Y72.000 E0.01487
G1 X92.353 Y72.196 E0.01008
G1 X92.590 Y72.413 E0.01008
G1 X92.894 Y72.759 E0.01443
G1 X93.087 Y73.033 E0.01052
G1 X93.247 Y73.310 E0.01002
G1 X93.382 Y73.599 E0.01001
G1 X93.492 Y73.901 E0.01008
G1 X93.604 Y74.362 E0.01487
G1 X93.646 Y74.681 E0.01008
G1 X93.660 Y75.000 E0.01001
G1 X93.646 Y75.319 E0.01001
G1 X93.605 Y75.636 E0.01001
G1 X93.535 Y75.950 E0.01008
G1 X93.383 Y76.399 E0.01487
G1 X93.184 Y76.798 E0.01399
M204 S1250
G1 X93.354 Y77.197 F9000.000
G1 E-2.24000 F4200.000
;WIPE_START
G1 F7200.000
G1 X92.903 Y77.230 E-0.28572
G1 X92.588 Y77.588 E-0.26399
G1 X92.241 Y77.894 E-0.25626
G1 X92.085 Y78.004 E-0.10603
;WIPE_END
G1 E-0.04800 F4200.000
G1 Z0.400 F9000.000
G1 X74.419 Y84.356
G1 Z0.200
G1 E3.20000 F2400.000
M204 S800
