; generated by PrusaSlicer 2.3.3 on 2022-01-25 at 22:22:14 UTC


;
;

;
;
; 

; external perimeters extrusion width = 0.45mm
; perimeters extrusion width = 0.45mm
; infill extrusion width = 0.45mm
; solid infill extrusion width = 0.45mm
; top infill extrusion width = 0.40mm
; support material extrusion width = 0.35mm
; first layer extrusion width = 0.42mm

M73 P0 R18
M201 X1250 Y1250 Z400 E5000 ; sets maximum accelerations, mm/sec^2
M203 X180 Y180 Z12 E80 ; sets maximum feedrates, mm/sec
M204 P1250 R1250 T1250 ; sets acceleration (P, T) and retract acceleration (R), mm/sec^2
M205 X8.00 Y8.00 Z2.00 E10.00 ; sets the jerk limits, mm/sec
M205 S0 T0 ; sets the minimum extruding and travel feed rate, mm/sec
M107
;TYPE:Custom
G90 ; use absolute coordinates
M83 ; extruder relative mode
M104 S170 ; set extruder temp for bed leveling
M140 S60 ; set bed temp
M109 R170 ; wait for bed leveling temp
M190 S60 ; wait for bed temp
G28 ; home all without mesh bed level
G29 ; mesh bed leveling 
M104 S215 ; set extruder temp
G92 E0.0
G1 Y-2.0 X179 F2400
M73 P0 R17
G1 Z3 F720
M109 S215 ; wait for extruder temp

; intro line
G1 X170 F1000
G1 Z0.2 F720
G1 X110.0 E8.0 F900
G1 X40.0 E10.0 F700
G92 E0.0

M221 S95 ; set flow
G21 ; set units to millimeters
G90 ; use absolute coordinates
M83 ; use relative distances for extrusion
M900 K0.2 ; Filament gcode LA 1.5
; ; Filament gcode LA 1.0
;LAYER_CHANGE
;Z:0.2
;HEIGHT:0.2
;BEFORE_LAYER_CHANGE
G92 E0.0
;0.2


M73 P1 R17
G1 E-3.20000 F4200.000
G1 Z0.200 F9000.000
;AFTER_LAYER_CHANGE
;0.2
G1 Z0.400
G1 X70.872 Y86.491
G1 Z0.200
G1 E3.20000 F2400.000
M204 S800
;TYPE:Skirt
;WIDTH:0.42
G1 F1200.000
G1 X71.345 Y85.529 E0.03361
G1 X71.883 Y84.903 E0.02587
G1 X72.528 Y84.420 E0.02528
G1 X97.191 Y70.181 E0.89293
G1 X98.087 Y69.811 E0.03040
G1 X99.060 Y69.684 E0.03076
G1 X99.916 Y69.783 E0.02701
G1 X100.760 Y70.092 E0.02820
G1 X101.475 Y70.566 E0.02687
G1 X102.080 Y71.212 E0.02777
G1 X108.825 Y82.848 E0.42169
G1 X109.207 Y83.818 E0.03269
G1 X109.309 Y84.830 E0.03191
G1 X109.125 Y85.866 E0.03298
G1 X108.673 Y86.790 E0.03225
G1 X108.233 Y87.329 E0.02183
G1 X107.732 Y87.756 E0.02065
G1 X76.400 Y109.766 E1.20055
M73 P2 R17
G1 X75.881 Y110.018 E0.01809
G1 X75.320 Y110.156 E0.01809
G1 X73.406 Y110.182 E0.06004
G1 X72.615 Y110.055 E0.02511
G1 X71.895 Y109.706 E0.02511
G1 X71.401 Y109.276 E0.02052
G1 X71.022 Y108.743 E0.02052
G1 X70.782 Y108.138 E0.02039
G1 X70.689 Y107.490 E0.02052
G1 X70.691 Y87.521 E0.62613
G1 X70.861 Y86.550 E0.03090
M204 S1250
G1 X71.229 Y86.615 F9000.000
M204 S800
G1 F1200.000
G1 X71.664 Y85.730 E0.03089
G1 X72.148 Y85.172 E0.02316
G1 X72.726 Y84.741 E0.02260
G1 X97.379 Y70.508 E0.89257
G1 X98.186 Y70.175 E0.02738
G1 X99.060 Y70.061 E0.02764
G1 X99.876 Y70.162 E0.02578
G1 X100.605 Y70.436 E0.02443
G1 X101.275 Y70.891 E0.02539
G1 X101.798 Y71.465 E0.02435
G1 X108.495 Y83.031 E0.41903
G1 X108.841 Y83.909 E0.02958
G1 X108.932 Y84.818 E0.02865
G1 X108.764 Y85.755 E0.02986
G1 X108.354 Y86.589 E0.02913
G1 X107.960 Y87.069 E0.01949
G1 X107.515 Y87.448 E0.01833
G1 X76.208 Y109.441 E1.19960
G1 X75.750 Y109.664 E0.01597
G1 X75.251 Y109.785 E0.01609
G1 X73.412 Y109.805 E0.05766
G1 X72.723 Y109.694 E0.02190
G1 X72.099 Y109.389 E0.02178
G1 X71.676 Y109.018 E0.01763
G1 X71.350 Y108.555 E0.01775
G1 X71.143 Y108.028 E0.01775
G1 X71.066 Y107.471 E0.01763
G1 X71.068 Y87.539 E0.62498
G1 X71.219 Y86.674 E0.02753
M204 S1250
; printing object bracket_vert_left.stl id:0 copy 0
G1 E-2.24000 F4200.000
;WIPE_START
G1 F7200.000
G1 X71.664 Y85.730 E-0.57804
G1 X72.058 Y85.275 E-0.33396
;WIPE_END
G1 E-0.04800 F4200.000
G1 Z0.400 F9000.000
G1 X81.353 Y89.306
G1 Z0.200
G1 E3.20000 F2400.000
M204 S800
;TYPE:Perimeter
G1 F1200.000
G1 X81.482 Y88.897 E0.01346
G1 X81.726 Y88.452 E0.01591
G1 X82.002 Y88.122 E0.01347
G1 X82.398 Y87.805 E0.01591
G1 X82.774 Y87.610 E0.01326
G1 X83.176 Y87.482 E0.01324
G1 X83.671 Y87.427 E0.01561
G1 X84.108 Y87.464 E0.01376
G1 X84.597 Y87.607 E0.01595
G1 X84.977 Y87.805 E0.01347
G1 X85.378 Y88.127 E0.01612
G1 X85.700 Y88.527 E0.01612
G1 X85.895 Y88.903 E0.01326
G1 X86.023 Y89.306 E0.01326
G1 X86.079 Y89.817 E0.01612
G1 X86.023 Y90.328 E0.01612
G1 X85.895 Y90.731 E0.01326
G1 X85.700 Y91.107 E0.01326
G1 X85.378 Y91.507 E0.01612
G1 X84.977 Y91.829 E0.01612
G1 X84.602 Y92.025 E0.01326
G1 X84.199 Y92.152 E0.01326
G1 X83.688 Y92.208 E0.01612
G1 X83.177 Y92.152 E0.01612
G1 X82.774 Y92.025 E0.01326
G1 X82.398 Y91.829 E0.01326
G1 X82.002 Y91.512 E0.01591
G1 X81.726 Y91.182 E0.01347
G1 X81.482 Y90.737 E0.01591
G1 X81.353 Y90.328 E0.01346
G1 X81.297 Y89.817 E0.01612
G1 X81.347 Y89.366 E0.01424
M204 S1250
G1 X81.677 Y89.817 F9000.000
M204 S800
;TYPE:External perimeter
G1 F1200.000
G1 X81.724 Y89.384 E0.01366
G1 X81.831 Y89.045 E0.01113
G1 X82.039 Y88.665 E0.01358
G1 X82.267 Y88.393 E0.01114
G1 X82.605 Y88.122 E0.01358
G1 X82.918 Y87.959 E0.01106
G1 X83.255 Y87.853 E0.01106
G1 X83.676 Y87.806 E0.01330
G1 X84.039 Y87.837 E0.01142
G1 X84.455 Y87.958 E0.01360
G1 X84.770 Y88.122 E0.01114
G1 X85.110 Y88.395 E0.01366
G1 X85.383 Y88.734 E0.01366
G1 X85.546 Y89.048 E0.01106
G1 X85.652 Y89.384 E0.01106
G1 X85.699 Y89.817 E0.01366
G1 X85.652 Y90.250 E0.01366
G1 X85.546 Y90.587 E0.01106
G1 X85.383 Y90.899 E0.01106
G1 X85.110 Y91.239 E0.01366
G1 X84.770 Y91.512 E0.01366
G1 X84.457 Y91.675 E0.01106
G1 X84.121 Y91.781 E0.01106
G1 X83.688 Y91.828 E0.01366
G1 X83.255 Y91.781 E0.01366
G1 X82.918 Y91.675 E0.01106
G1 X82.605 Y91.512 E0.01106
G1 X82.267 Y91.241 E0.01359
G1 X82.039 Y90.969 E0.01114
G1 X81.831 Y90.589 E0.01358
G1 X81.724 Y90.250 E0.01113
G1 X81.683 Y89.877 E0.01178
M204 S1250
G1 X81.332 Y89.615 F9000.000
G1 E-2.24000 F4200.000
;WIPE_START
G1 F7200.000
G1 X81.724 Y89.384 E-0.27394
G1 X81.831 Y89.045 E-0.19680
G1 X82.039 Y88.665 E-0.24008
G1 X82.267 Y88.393 E-0.19688
G1 X82.274 Y88.388 E-0.00430
;WIPE_END
G1 E-0.04800 F4200.000
G1 Z0.400 F9000.000
G1 X94.471 Y83.231
G1 Z0.200
G1 E3.20000 F2400.000
M204 S800
;TYPE:Perimeter
G1 F1200.000
G1 X94.344 Y82.828 E0.01326
G1 X94.288 Y82.317 E0.01612
G1 X94.344 Y81.806 E0.01612
G1 X94.471 Y81.403 E0.01326
G1 X94.666 Y81.027 E0.01326
G1 X94.984 Y80.632 E0.01592
G1 X95.313 Y80.356 E0.01346
G1 X95.758 Y80.111 E0.01591
G1 X96.167 Y79.982 E0.01345
G1 X96.661 Y79.927 E0.01561
G1 X97.099 Y79.964 E0.01376
G1 X97.587 Y80.107 E0.01595
G1 X97.968 Y80.305 E0.01347
G1 X98.369 Y80.627 E0.01611
G1 X98.690 Y81.027 E0.01612
G1 X98.889 Y81.408 E0.01347
G1 X99.031 Y81.896 E0.01591
G1 X99.068 Y82.317 E0.01326
G1 X99.031 Y82.738 E0.01326
G1 X98.889 Y83.226 E0.01591
G1 X98.690 Y83.607 E0.01347
G1 X98.373 Y84.002 E0.01591
G1 X98.044 Y84.278 E0.01347
G1 X97.599 Y84.523 E0.01591
M73 P3 R17
G1 X97.189 Y84.652 E0.01346
G1 X96.678 Y84.708 E0.01612
G1 X96.167 Y84.652 E0.01612
G1 X95.758 Y84.523 E0.01346
G1 X95.313 Y84.279 E0.01591
G1 X94.984 Y84.002 E0.01347
G1 X94.666 Y83.607 E0.01592
G1 X94.498 Y83.285 E0.01138
M204 S1250
G1 X94.983 Y83.400 F9000.000
M204 S800
;TYPE:External perimeter
G1 F1200.000
G1 X94.821 Y83.086 E0.01106
G1 X94.714 Y82.750 E0.01106
G1 X94.667 Y82.317 E0.01366
G1 X94.714 Y81.884 E0.01366
G1 X94.821 Y81.548 E0.01106
G1 X94.983 Y81.234 E0.01106
G1 X95.255 Y80.897 E0.01359
G1 X95.527 Y80.668 E0.01113
G1 X95.907 Y80.460 E0.01359
G1 X96.245 Y80.353 E0.01113
G1 X96.667 Y80.306 E0.01330
G1 X97.029 Y80.337 E0.01142
G1 X97.446 Y80.458 E0.01360
G1 X97.761 Y80.622 E0.01114
G1 X98.100 Y80.895 E0.01365
G1 X98.373 Y81.234 E0.01366
G1 X98.537 Y81.550 E0.01114
G1 X98.658 Y81.965 E0.01358
G1 X98.689 Y82.317 E0.01106
G1 X98.658 Y82.669 E0.01106
G1 X98.537 Y83.084 E0.01358
G1 X98.373 Y83.400 E0.01114
G1 X98.102 Y83.737 E0.01359
G1 X97.830 Y83.966 E0.01114
G1 X97.450 Y84.174 E0.01358
G1 X97.111 Y84.281 E0.01113
G1 X96.678 Y84.328 E0.01366
G1 X96.245 Y84.281 E0.01366
G1 X95.907 Y84.174 E0.01114
G1 X95.527 Y83.966 E0.01359
G1 X95.255 Y83.737 E0.01114
G1 X95.021 Y83.446 E0.01171
M204 S1250
G1 X94.631 Y83.418 F9000.000
G1 E-2.24000 F4200.000
;WIPE_START
G1 F7200.000
G1 X94.821 Y83.086 E-0.22825
G1 X94.714 Y82.750 E-0.19551
G1 X94.667 Y82.317 E-0.24139
G1 X94.714 Y81.884 E-0.24139
G1 X94.717 Y81.875 E-0.00547
;WIPE_END
G1 E-0.04800 F4200.000
G1 Z0.400 F9000.000
G1 X105.753 Y84.762
G1 Z0.200
G1 E3.20000 F2400.000
M204 S800
;TYPE:Perimeter
G1 F1200.000
G1 X105.719 Y84.828 E0.00231
G1 X105.635 Y84.897 E0.00341
G1 X74.965 Y102.606 E1.11042
G1 X74.677 Y102.837 E0.01162
G1 X74.432 Y103.142 E0.01222
G1 X74.260 Y103.491 E0.01222
G1 X74.230 Y103.615 E0.00399
G1 X74.230 Y87.696 E0.49913
G1 X74.245 Y87.593 E0.00325
G1 X74.290 Y87.508 E0.00303
G1 X74.360 Y87.451 E0.00283
G1 X98.916 Y73.274 E0.88904
G1 X99.079 Y73.231 E0.00530
G1 X99.161 Y73.258 E0.00270
G1 X99.246 Y73.341 E0.00372
G1 X105.722 Y84.556 E0.40606
G1 X105.763 Y84.703 E0.00480
M204 S1250
G1 X106.145 Y84.713 F9000.000
M204 S800
;TYPE:External perimeter
G1 F1200.000
G1 X106.114 Y84.884 E0.00545
G1 X106.033 Y85.043 E0.00560
G1 X105.953 Y85.132 E0.00376
G1 X105.841 Y85.214 E0.00434
G1 X75.179 Y102.918 E1.11013
G1 X74.945 Y103.106 E0.00942
G1 X74.752 Y103.345 E0.00963
G1 X74.617 Y103.621 E0.00963
G1 X74.543 Y103.921 E0.00970
G1 X74.533 Y106.588 E0.08360
G1 X73.853 Y106.588 E0.02134
G1 X73.853 Y87.667 E0.59323
G1 X73.882 Y87.475 E0.00611
G1 X73.980 Y87.286 E0.00668
G1 X74.158 Y87.132 E0.00734
G1 X98.749 Y72.935 E0.89032
M73 P4 R17
G1 X98.903 Y72.871 E0.00525
G1 X99.088 Y72.850 E0.00582
G1 X99.207 Y72.869 E0.00380
G1 X99.351 Y72.928 E0.00488
G1 X99.475 Y73.023 E0.00489
G1 X99.558 Y73.127 E0.00417
G1 X106.061 Y84.388 E0.40771
G1 X106.124 Y84.538 E0.00510
G1 X106.138 Y84.653 E0.00365
M204 S1250
G1 X105.991 Y84.795 F9000.000
G1 X105.458 Y84.664
M204 S800
;TYPE:Solid infill
G1 F1200.000
G1 X105.188 Y84.401 E0.01182
G1 X105.263 Y84.326 E0.00331
M204 S1250
G1 X105.068 Y83.988 F9000.000
M204 S800
G1 F1200.000
G1 X104.655 Y84.401 E0.01830
G1 X104.922 Y84.667 E0.01182
G1 X104.655 Y84.934 E0.01182
G1 X104.388 Y84.667 E0.01182
G1 X103.855 Y85.201 E0.02365
G1 X104.107 Y85.453 E0.01118
M204 S1250
G1 X104.176 Y85.413 F9000.000
M204 S800
G1 F1200.000
G1 X104.388 Y85.201 E0.00943
G1 X104.445 Y85.258 E0.00253
M204 S1250
G1 X103.769 Y85.648 F9000.000
M204 S800
G1 F1200.000
G1 X103.589 Y85.467 E0.00801
G1 X103.322 Y85.734 E0.01182
G1 X102.789 Y85.201 E0.02365
G1 X103.055 Y84.934 E0.01182
G1 X103.322 Y85.201 E0.01182
G1 X103.855 Y84.667 E0.02365
G1 X103.589 Y84.401 E0.01182
G1 X103.322 Y84.667 E0.01182
G1 X103.055 Y84.401 E0.01182
G1 X103.322 Y84.134 E0.01182
G1 X103.055 Y83.867 E0.01182
G1 X102.522 Y84.401 E0.02365
G1 X102.789 Y84.667 E0.01182
G1 X102.522 Y84.934 E0.01182
G1 X101.989 Y84.401 E0.02365
G1 X102.255 Y84.134 E0.01182
G1 X101.989 Y83.867 E0.01182
G1 X101.722 Y84.134 E0.01182
G1 X101.189 Y83.601 E0.02365
G1 X101.456 Y83.334 E0.01182
G1 X101.722 Y83.601 E0.01182
G1 X101.989 Y83.334 E0.01182
G1 X101.722 Y83.067 E0.01182
G1 X101.989 Y82.801 E0.01182
G1 X102.522 Y83.334 E0.02365
G1 X102.255 Y83.601 E0.01182
G1 X102.522 Y83.867 E0.01182
G1 X103.322 Y83.067 E0.03547
G1 X103.055 Y82.801 E0.01182
G1 X102.789 Y83.067 E0.01182
G1 X102.255 Y82.534 E0.02365
G1 X102.522 Y82.268 E0.01182
G1 X102.789 Y82.534 E0.01182
G1 X103.055 Y82.268 E0.01182
G1 X102.789 Y82.001 E0.01182
G1 X103.055 Y81.734 E0.01182
G1 X103.589 Y82.268 E0.02365
G1 X103.322 Y82.534 E0.01182
G1 X103.589 Y82.801 E0.01182
G1 X103.855 Y82.534 E0.01182
G1 X104.388 Y83.067 E0.02365
G1 X104.122 Y83.334 E0.01182
G1 X103.855 Y83.067 E0.01182
G1 X103.322 Y83.601 E0.02365
G1 X103.589 Y83.867 E0.01182
G1 X103.855 Y83.601 E0.01182
G1 X104.122 Y83.867 E0.01182
G1 X103.855 Y84.134 E0.01182
G1 X104.122 Y84.401 E0.01182
G1 X104.655 Y83.867 E0.02365
G1 X104.388 Y83.601 E0.01182
G1 X104.655 Y83.334 E0.01182
G1 X104.738 Y83.417 E0.00369
M204 S1250
G1 X104.010 Y82.155 F9000.000
M204 S800
G1 F1200.000
G1 X103.589 Y81.734 E0.01867
G1 X103.701 Y81.622 E0.00500
M204 S1250
G1 X103.506 Y81.283 F9000.000
M204 S800
G1 F1200.000
G1 X103.322 Y81.468 E0.00817
G1 X103.055 Y81.201 E0.01182
G1 X103.311 Y80.945 E0.01133
M204 S1250
G1 X103.281 Y80.893 F9000.000
M204 S800
G1 F1200.000
G1 X103.055 Y80.668 E0.01000
G1 X102.789 Y80.934 E0.01182
G1 X102.255 Y80.401 E0.02365
G1 X102.522 Y80.135 E0.01182
G1 X102.789 Y80.401 E0.01182
G1 X102.921 Y80.269 E0.00585
M204 S1250
G1 E-2.24000 F4200.000
;WIPE_START
G1 F7200.000
G1 X102.789 Y80.401 E-0.10333
G1 X102.522 Y80.135 E-0.20896
G1 X102.255 Y80.401 E-0.20896
G1 X102.754 Y80.900 E-0.39074
;WIPE_END
G1 E-0.04800 F4200.000
G1 Z0.400 F9000.000
G1 X101.944 Y78.579
G1 Z0.200
G1 E3.20000 F2400.000
M204 S800
G1 F1200.000
G1 X101.722 Y78.801 E0.00986
G1 X101.989 Y79.068 E0.01182
G1 X102.140 Y78.917 E0.00669
M204 S1250
G1 X102.530 Y79.593 F9000.000
M204 S800
G1 F1200.000
G1 X102.255 Y79.335 E0.01183
G1 X101.989 Y79.601 E0.01182
G1 X102.255 Y79.868 E0.01182
G1 X101.989 Y80.135 E0.01182
G1 X101.456 Y79.601 E0.02365
G1 X101.722 Y79.335 E0.01182
G1 X101.456 Y79.068 E0.01182
G1 X100.922 Y79.601 E0.02365
G1 X101.189 Y79.868 E0.01182
G1 X100.922 Y80.135 E0.01182
G1 X100.656 Y79.868 E0.01182
G1 X100.122 Y80.401 E0.02365
G1 X100.389 Y80.668 E0.01182
G1 X100.656 Y80.401 E0.01182
G1 X100.922 Y80.668 E0.01182
G1 X100.656 Y80.934 E0.01182
G1 X100.922 Y81.201 E0.01182
G1 X101.456 Y80.668 E0.02365
G1 X101.189 Y80.401 E0.01182
G1 X101.456 Y80.135 E0.01182
G1 X101.989 Y80.668 E0.02365
G1 X101.722 Y80.934 E0.01182
G1 X101.989 Y81.201 E0.01182
G1 X102.255 Y80.934 E0.01182
G1 X102.789 Y81.468 E0.02365
G1 X102.522 Y81.734 E0.01182
G1 X102.255 Y81.468 E0.01182
G1 X101.989 Y81.734 E0.01182
G1 X102.255 Y82.001 E0.01182
G1 X101.989 Y82.268 E0.01182
G1 X101.456 Y81.734 E0.02365
G1 X101.722 Y81.468 E0.01182
G1 X101.456 Y81.201 E0.01182
G1 X100.656 Y82.001 E0.03547
G1 X100.922 Y82.268 E0.01182
G1 X101.189 Y82.001 E0.01182
G1 X101.722 Y82.534 E0.02365
G1 X101.456 Y82.801 E0.01182
G1 X101.189 Y82.534 E0.01182
G1 X100.922 Y82.801 E0.01182
G1 X101.189 Y83.067 E0.01182
G1 X100.922 Y83.334 E0.01182
G1 X100.389 Y82.801 E0.02365
G1 X100.656 Y82.534 E0.01182
G1 X100.389 Y82.268 E0.01182
G1 X100.122 Y82.534 E0.01182
G1 X99.589 Y82.001 E0.02365
G1 X99.856 Y81.734 E0.01182
G1 X100.122 Y82.001 E0.01182
G1 X100.656 Y81.468 E0.02365
G1 X100.389 Y81.201 E0.01182
G1 X100.122 Y81.468 E0.01182
G1 X99.856 Y81.201 E0.01182
G1 X100.122 Y80.934 E0.01182
G1 X99.856 Y80.668 E0.01182
G1 X99.322 Y81.201 E0.02365
G1 X99.589 Y81.468 E0.01182
G1 X99.322 Y81.734 E0.01182
G1 X99.260 Y81.672 E0.00276
M204 S1250
G1 X99.350 Y82.295 F9000.000
M204 S800
G1 F1200.000
G1 X99.589 Y82.534 E0.01062
G1 X99.322 Y82.801 E0.01182
G1 X99.310 Y82.789 E0.00054
M204 S1250
G1 X98.819 Y83.898 F9000.000
M204 S800
G1 F1200.000
G1 X99.056 Y84.134 E0.01048
G1 X98.789 Y84.401 E0.01182
G1 X98.582 Y84.193 E0.00919
M204 S1250
G1 X98.070 Y84.587 F9000.000
M204 S800
G1 F1200.000
G1 X97.989 Y84.667 E0.00357
G1 X98.256 Y84.934 E0.01182
G1 X98.523 Y84.667 E0.01182
G1 X98.789 Y84.934 E0.01182
G1 X98.523 Y85.201 E0.01182
G1 X98.789 Y85.467 E0.01182
G1 X99.322 Y84.934 E0.02365
G1 X99.056 Y84.667 E0.01182
G1 X99.322 Y84.401 E0.01182
G1 X99.589 Y84.667 E0.01182
G1 X100.122 Y84.134 E0.02365
G1 X99.856 Y83.867 E0.01182
G1 X99.589 Y84.134 E0.01182
G1 X99.056 Y83.601 E0.02365
G1 X99.322 Y83.334 E0.01182
G1 X99.589 Y83.601 E0.01182
G1 X99.856 Y83.334 E0.01182
G1 X99.589 Y83.067 E0.01182
G1 X99.856 Y82.801 E0.01182
G1 X100.389 Y83.334 E0.02365
G1 X100.122 Y83.601 E0.01182
G1 X100.389 Y83.867 E0.01182
G1 X100.656 Y83.601 E0.01182
G1 X101.189 Y84.134 E0.02365
G1 X100.922 Y84.401 E0.01182
G1 X100.656 Y84.134 E0.01182
G1 X100.122 Y84.667 E0.02365
G1 X100.389 Y84.934 E0.01182
G1 X100.656 Y84.667 E0.01182
G1 X100.922 Y84.934 E0.01182
G1 X100.656 Y85.201 E0.01182
G1 X100.922 Y85.467 E0.01182
G1 X101.456 Y84.934 E0.02365
G1 X101.189 Y84.667 E0.01182
G1 X101.456 Y84.401 E0.01182
G1 X101.989 Y84.934 E0.02365
G1 X101.722 Y85.201 E0.01182
G1 X101.989 Y85.467 E0.01182
G1 X102.255 Y85.201 E0.01182
G1 X102.789 Y85.734 E0.02365
G1 X102.522 Y86.000 E0.01182
G1 X102.255 Y85.734 E0.01182
G1 X101.989 Y86.000 E0.01182
G1 X102.255 Y86.267 E0.01182
G1 X101.989 Y86.534 E0.01182
G1 X101.456 Y86.000 E0.02365
