; generated by PrusaSlicer 2.3.3 on 2022-01-25 at 22:26:36 UTC


;
;

;
;
; 

; external perimeters extrusion width = 0.45mm
; perimeters extrusion width = 0.45mm
; infill extrusion width = 0.45mm
; solid infill extrusion width = 0.45mm
; top infill extrusion width = 0.40mm
; support material extrusion width = 0.35mm
; first layer extrusion width = 0.42mm

M73 P0 R22
M201 X1250 Y1250 Z400 E5000 ; sets maximum accelerations, mm/sec^2
M203 X180 Y180 Z12 E80 ; sets maximum feedrates, mm/sec
M204 P1250 R1250 T1250 ; sets acceleration (P, T) and retract acceleration (R), mm/sec^2
M205 X8.00 Y8.00 Z2.00 E10.00 ; sets the jerk limits, mm/sec
M205 S0 T0 ; sets the minimum extruding and travel feed rate, mm/sec
M107
;TYPE:Custom
G90 ; use absolute coordinates
M83 ; extruder relative mode
M104 S170 ; set extruder temp for bed leveling
M140 S60 ; set bed temp
M109 R170 ; wait for bed leveling temp
M190 S60 ; wait for bed temp
G28 ; home all without mesh bed level
G29 ; mesh bed leveling 
M104 S215 ; set extruder temp
G92 E0.0
G1 Y-2.0 X179 F2400
G1 Z3 F720
M109 S215 ; wait for extruder temp

; intro line
G1 X170 F1000
G1 Z0.2 F720
G1 X110.0 E8.0 F900
G1 X40.0 E10.0 F700
G92 E0.0

M221 S95 ; set flow
G21 ; set units to millimeters
G90 ; use absolute coordinates
M83 ; use relative distances for extrusion
M900 K0.2 ; Filament gcode LA 1.5
; ; Filament gcode LA 1.0
;LAYER_CHANGE
;Z:0.2
;HEIGHT:0.2
;BEFORE_LAYER_CHANGE
G92 E0.0
;0.2


M73 P1 R22
G1 E-3.20000 F4200.000
G1 Z0.200 F9000.000
;AFTER_LAYER_CHANGE
;0.2
G1 Z0.400
G1 X53.101 Y74.833
G1 Z0.200
G1 E3.20000 F2400.000
M204 S800
;TYPE:Skirt
;WIDTH:0.42
G1 F1200.000
G1 X53.828 Y74.433 E0.02602
G1 X54.872 Y74.231 E0.03334
G1 X124.577 Y74.201 E2.18554
G1 X125.415 Y74.355 E0.02673
G1 X126.142 Y74.793 E0.02661
G1 X130.152 Y78.797 E0.17767
G1 X130.619 Y79.515 E0.02684
G1 X130.803 Y80.427 E0.02919
G1 X130.629 Y86.230 E0.18201
G1 X130.486 Y86.913 E0.02190
G1 X130.153 Y87.522 E0.02178
G1 X125.962 Y91.745 E0.18653
G1 X125.123 Y92.372 E0.03284
G1 X116.024 Y97.644 E0.32971
G1 X107.064 Y102.668 E0.32208
G1 X104.129 Y104.249 E0.10454
G1 X101.349 Y105.590 E0.09676
G1 X100.749 Y105.769 E0.01965
G1 X79.794 Y105.799 E0.65702
G1 X78.963 Y105.645 E0.02649
G1 X73.158 Y102.890 E0.20148
G1 X54.770 Y92.341 E0.66467
G1 X49.814 Y87.454 E0.21823
G1 X49.433 Y86.887 E0.02142
G1 X49.227 Y86.232 E0.02154
G1 X49.372 Y79.768 E0.20273
G1 X49.455 Y79.288 E0.01526
G1 X49.774 Y78.339 E0.03139
G1 X50.200 Y77.716 E0.02367
G1 X53.058 Y74.875 E0.12635
M204 S1250
; printing object bracket_side_120.stl id:0 copy 0
G1 E-2.24000 F4200.000
;WIPE_START
G1 F7200.000
G1 X53.828 Y74.433 E-0.49195
G1 X54.572 Y74.289 E-0.42005
;WIPE_END
G1 E-0.04800 F4200.000
G1 Z0.400 F9000.000
G1 X128.426 Y80.431
M73 P2 R22
G1 Z0.200
G1 E3.20000 F2400.000
M204 S800
;TYPE:Support material
G1 F1200.000
G1 X124.573 Y76.578 E0.17085
G1 X123.811 Y76.578 E0.02389
G1 X128.256 Y81.024 E0.19711
G1 X128.256 Y81.785 E0.02389
G1 X123.049 Y76.578 E0.23089
G1 X122.287 Y76.578 E0.02389
G1 X128.256 Y82.547 E0.26467
G1 X128.256 Y83.309 E0.02389
G1 X121.525 Y76.578 E0.29845
G1 X120.764 Y76.578 E0.02389
G1 X128.256 Y84.071 E0.33223
G1 X128.256 Y84.833 E0.02389
G1 X120.027 Y76.603 E0.36490
G1 X119.646 Y76.984 E0.01689
G1 X128.256 Y85.595 E0.38179
G1 X128.256 Y86.090 E0.01553
G1 X128.123 Y86.223 E0.00591
G1 X119.265 Y77.365 E0.39277
G1 X118.884 Y77.746 E0.01689
G1 X127.742 Y86.604 E0.39277
G1 X127.361 Y86.985 E0.01689
G1 X118.262 Y77.885 E0.40348
G1 X117.500 Y77.885 E0.02389
G1 X126.980 Y87.366 E0.42037
G1 X126.599 Y87.747 E0.01689
G1 X117.088 Y78.235 E0.42175
G1 X116.707 Y78.616 E0.01689
G1 X126.218 Y88.128 E0.42175
M73 P2 R21
G1 X125.837 Y88.508 E0.01689
G1 X116.326 Y78.997 E0.42175
G1 X116.131 Y79.193 E0.00867
G1 X115.760 Y79.193 E0.01163
G1 X125.456 Y88.889 E0.42998
G1 X125.076 Y89.270 E0.01689
G1 X114.998 Y79.193 E0.44687
G1 X114.823 Y79.193 E0.00547
G1 X114.530 Y79.486 E0.01302
G1 X124.695 Y89.651 E0.45073
G1 X124.314 Y90.032 E0.01689
G1 X114.149 Y79.867 E0.45073
G1 X113.768 Y80.248 E0.01689
G1 X123.871 Y90.351 E0.44797
G1 X123.109 Y90.351 E0.02389
G1 X113.258 Y80.500 E0.43682
M73 P3 R21
G1 X112.496 Y80.500 E0.02389
G1 X122.517 Y90.521 E0.44438
G1 X122.137 Y90.902 E0.01689
G1 X111.972 Y80.737 E0.45073
G1 X111.591 Y81.118 E0.01689
G1 X121.756 Y91.283 E0.45073
G1 X121.381 Y91.658 E0.01662
G1 X111.210 Y81.499 E0.45073
G1 X110.829 Y81.880 E0.01689
G1 X120.607 Y91.658 E0.43357
G1 X120.074 Y91.658 E0.01671
G1 X119.959 Y91.772 E0.00507
G1 X110.448 Y82.261 E0.42175
G1 X110.067 Y82.642 E0.01689
G1 X119.579 Y92.153 E0.42175
G1 X119.198 Y92.534 E0.01689
G1 X109.686 Y83.023 E0.42175
G1 X109.595 Y83.114 E0.00404
G1 X109.015 Y83.114 E0.01818
G1 X118.817 Y92.915 E0.43460
G1 X118.767 Y92.965 E0.00222
G1 X118.105 Y92.965 E0.02075
G1 X108.271 Y83.131 E0.43606
G1 X107.890 Y83.512 E0.01689
G1 X117.401 Y93.023 E0.42175
G1 X117.020 Y93.404 E0.01689
G1 X107.509 Y83.893 E0.42175
G1 X107.128 Y84.274 E0.01689
G1 X116.640 Y93.785 E0.42175
G1 X116.259 Y94.166 E0.01689
G1 X106.513 Y84.421 E0.43212
G1 X105.752 Y84.421 E0.02389
G1 X115.878 Y94.547 E0.44901
G1 X115.497 Y94.928 E0.01689
G1 X105.332 Y84.763 E0.45073
G1 X104.951 Y85.144 E0.01689
G1 X115.116 Y95.309 E0.45073
G1 X114.845 Y95.579 E0.01199
G1 X114.624 Y95.579 E0.00693
G1 X104.570 Y85.525 E0.44583
M73 P4 R21
G1 X104.367 Y85.728 E0.00901
G1 X104.011 Y85.728 E0.01114
G1 X113.863 Y95.579 E0.43682
G1 X113.538 Y95.579 E0.01017
G1 X113.320 Y95.798 E0.00970
G1 X103.250 Y85.728 E0.44652
G1 X103.060 Y85.728 E0.00595
G1 X102.774 Y86.014 E0.01268
G1 X112.939 Y96.179 E0.45073
G1 X112.558 Y96.560 E0.01689
G1 X102.393 Y86.395 E0.45073
G1 X102.012 Y86.776 E0.01689
G1 X112.122 Y96.886 E0.44832
G1 X111.361 Y96.886 E0.02389
G1 X101.631 Y87.157 E0.43143
G1 X101.250 Y87.537 E0.01689
G1 X110.762 Y97.049 E0.42175
G1 X110.381 Y97.430 E0.01689
G1 X100.869 Y87.918 E0.42175
G1 X100.488 Y88.299 E0.01689
G1 X110.000 Y97.811 E0.42175
G1 X109.619 Y98.192 E0.01689
G1 X99.769 Y88.342 E0.43675
G1 X99.139 Y88.342 E0.01978
G1 X99.073 Y88.408 E0.00291
G1 X108.859 Y98.193 E0.43391
G1 X108.310 Y98.193 E0.01720
G1 X108.203 Y98.300 E0.00473
G1 X98.692 Y88.788 E0.42175
G1 X98.311 Y89.169 E0.01689
G1 X107.823 Y98.681 E0.42175
G1 X107.442 Y99.062 E0.01689
G1 X97.930 Y89.550 E0.42175
G1 X97.831 Y89.649 E0.00438
G1 X97.267 Y89.649 E0.01769
G1 X107.061 Y99.443 E0.43426
G1 X106.680 Y99.824 E0.01689
G1 X96.515 Y89.659 E0.45073
G1 X96.134 Y90.039 E0.01689
G1 X106.299 Y100.204 E0.45073
G1 X105.918 Y100.585 E0.01689
G1 X95.753 Y90.420 E0.45073
M73 P5 R21
G1 X95.372 Y90.801 E0.01689
G1 X105.378 Y100.807 E0.44369
G1 X104.616 Y100.807 E0.02389
G1 X94.765 Y90.956 E0.43682
G1 X94.003 Y90.956 E0.02389
G1 X104.122 Y101.075 E0.44866
G1 X103.741 Y101.455 E0.01689
G1 X93.242 Y90.956 E0.46555
G1 X92.480 Y90.956 E0.02389
G1 X103.360 Y101.836 E0.48244
G1 X103.082 Y102.115 E0.01233
G1 X102.876 Y102.115 E0.00644
G1 X91.718 Y90.956 E0.49478
G1 X90.956 Y90.956 E0.02389
G1 X102.114 Y102.115 E0.49478
G1 X101.775 Y102.115 E0.01065
G1 X101.564 Y102.326 E0.00936
G1 X90.194 Y90.956 E0.50413
G1 X89.433 Y90.956 E0.02389
G1 X101.183 Y102.706 E0.52102
G1 X100.802 Y103.087 E0.01689
G1 X88.671 Y90.956 E0.53791
G1 X87.909 Y90.956 E0.02389
G1 X100.374 Y103.422 E0.55274
G1 X99.612 Y103.422 E0.02389
G1 X87.147 Y90.956 E0.55274
G1 X86.385 Y90.956 E0.02389
G1 X98.851 Y103.422 E0.55274
G1 X98.089 Y103.422 E0.02389
G1 X85.624 Y90.956 E0.55274
G1 X84.862 Y90.956 E0.02389
G1 X97.327 Y103.422 E0.55274
M73 P6 R21
G1 X96.565 Y103.422 E0.02389
G1 X82.793 Y89.649 E0.61069
G1 X82.169 Y89.649 E0.01957
G1 X80.861 Y88.342 E0.05796
G1 X80.724 Y88.342 E0.00431
G1 X95.803 Y103.422 E0.66865
G1 X95.042 Y103.422 E0.02389
G1 X79.962 Y88.342 E0.66865
G1 X79.554 Y88.342 E0.01278
G1 X76.940 Y85.728 E0.11592
G1 X76.586 Y85.728 E0.01110
G1 X94.280 Y103.422 E0.78457
G1 X93.518 Y103.422 E0.02389
G1 X75.824 Y85.728 E0.78457
G1 X75.633 Y85.728 E0.00600
G1 X74.326 Y84.421 E0.05796
G1 X73.755 Y84.421 E0.01789
G1 X92.756 Y103.422 E0.84253
G1 X91.994 Y103.422 E0.02389
G1 X71.687 Y83.114 E0.90048
G1 X70.925 Y83.114 E0.02389
G1 X91.233 Y103.422 E0.90048
G1 X90.471 Y103.422 E0.02389
G1 X67.549 Y80.500 E1.01640
G1 X66.787 Y80.500 E0.02389
G1 X89.709 Y103.422 E1.01640
M73 P7 R21
G1 X88.947 Y103.422 E0.02389
G1 X64.718 Y79.193 E1.07436
M73 P7 R20
G1 X63.956 Y79.193 E0.02389
G1 X88.185 Y103.422 E1.07436
G1 X87.423 Y103.422 E0.02389
G1 X61.887 Y77.885 E1.13232
G1 X61.255 Y77.885 E0.01982
G1 X59.948 Y76.578 E0.05796
G1 X59.818 Y76.578 E0.00407
G1 X86.662 Y103.422 E1.19027
G1 X85.900 Y103.422 E0.02389
G1 X59.057 Y76.578 E1.19027
G1 X58.295 Y76.578 E0.02389
G1 X85.138 Y103.422 E1.19027
G1 X84.376 Y103.422 E0.02389
G1 X57.533 Y76.578 E1.19027
M73 P8 R20
G1 X56.771 Y76.578 E0.02389
G1 X83.614 Y103.422 E1.19027
G1 X82.853 Y103.422 E0.02389
G1 X56.009 Y76.578 E1.19027
G1 X55.248 Y76.578 E0.02389
G1 X82.091 Y103.422 E1.19027
G1 X81.329 Y103.422 E0.02389
G1 X54.592 Y76.684 E1.18557
G1 X54.211 Y77.065 E0.01689
G1 X80.567 Y103.422 E1.16868
G1 X79.805 Y103.422 E0.02389
G1 X53.830 Y77.446 E1.15179
G1 X53.449 Y77.827 E0.01689
G1 X77.736 Y102.115 E1.07694
M73 P9 R20
G1 X76.975 Y102.115 E0.02389
G1 X53.068 Y78.208 E1.06005
G1 X52.687 Y78.589 E0.01689
G1 X74.906 Y100.807 E0.98521
G1 X74.304 Y100.807 E0.01887
G1 X71.690 Y98.193 E0.11592
G1 X71.530 Y98.193 E0.00502
G1 X52.306 Y78.970 E0.85240
G1 X51.925 Y79.351 E0.01689
G1 X70.768 Y98.193 E0.83551
G1 X70.383 Y98.193 E0.01208
G1 X69.076 Y96.886 E0.05796
G1 X68.699 Y96.886 E0.01181
G1 X51.744 Y79.931 E0.75182
G1 X51.744 Y80.693 E0.02389
G1 X67.937 Y96.886 E0.71804
G1 X67.769 Y96.886 E0.00529
G1 X66.462 Y95.579 E0.05796
G1 X65.868 Y95.579 E0.01860
G1 X51.744 Y81.455 E0.62631
G1 X51.744 Y82.216 E0.02389
G1 X62.492 Y92.965 E0.47661
G1 X61.731 Y92.965 E0.02389
G1 X51.744 Y82.978 E0.44283
G1 X51.744 Y83.740 E0.02389
G1 X59.662 Y91.658 E0.35109
M73 P10 R20
G1 X58.900 Y91.658 E0.02389
G1 X51.744 Y84.502 E0.31731
G1 X51.744 Y85.264 E0.02389
G1 X56.831 Y90.351 E0.22557
G1 X56.069 Y90.351 E0.02389
G1 X51.574 Y85.856 E0.19932
M204 S1250
; stop printing object bracket_side_120.stl id:0 copy 0
M106 S84.15
;LAYER_CHANGE
;Z:0.5
;HEIGHT:0.3
;BEFORE_LAYER_CHANGE
G92 E0.0
;0.5


G1 E-2.24000 F4200.000
;WIPE_START
G1 F7200.000
G1 X52.738 Y87.019 E-0.91200
;WIPE_END
G1 E-0.04800 F4200.000
G1 Z0.400 F9000.000
G1 Z0.500
;AFTER_LAYER_CHANGE
;0.5
G1 Z0.700
G1 X51.079 Y88.701
G1 Z0.500
G1 E3.20000 F2400.000
;TYPE:Skirt
G1 X49.814 Y87.454 E0.07879
G1 X49.433 Y86.887 E0.03031
G1 X49.227 Y86.232 E0.03047
G1 X49.372 Y79.768 E0.28678
G1 X49.455 Y79.288 E0.02159
G1 X49.774 Y78.339 E0.04441
G1 X50.200 Y77.716 E0.03348
G1 X53.101 Y74.833 E0.18139
G1 X53.828 Y74.433 E0.03681
G1 X54.872 Y74.231 E0.04716
G1 X124.577 Y74.201 E3.09173
G1 X125.415 Y74.355 E0.03781
G1 X126.142 Y74.793 E0.03764
G1 X130.152 Y78.797 E0.25134
G1 X130.619 Y79.515 E0.03797
G1 X130.803 Y80.427 E0.04129
G1 X130.629 Y86.230 E0.25748
G1 X130.486 Y86.913 E0.03097
G1 X130.153 Y87.522 E0.03081
G1 X125.962 Y91.745 E0.26388
G1 X125.123 Y92.372 E0.04646
G1 X116.024 Y97.644 E0.46642
G1 X107.064 Y102.668 E0.45563
G1 X104.129 Y104.249 E0.14788
G1 X101.349 Y105.590 E0.13688
G1 X100.749 Y105.769 E0.02780
G1 X79.794 Y105.799 E0.92944
G1 X78.963 Y105.645 E0.03748
G1 X73.158 Y102.890 E0.28502
G1 X54.770 Y92.341 E0.94027
G1 X51.122 Y88.743 E0.22726
; printing object bracket_side_120.stl id:0 copy 0
G1 E-2.24000 F4200.000
;WIPE_START
G1 F7200.000
G1 X49.950 Y87.588 E-0.91200
;WIPE_END
G1 E-0.04800 F4200.000
G1 Z0.700 F9000.000
G1 X124.988 Y84.910
G1 Z0.500
G1 E3.20000 F2400.000
;TYPE:Support material interface
;WIDTH:0.35
G1 F1920.000
G1 X124.988 Y80.850 E0.14461
G1 X124.481 Y80.850 E0.01806
G1 X124.481 Y84.772 E0.13969
G1 X123.984 Y84.772 E0.01772
G1 X123.974 Y86.079 E0.04656
G1 X123.974 Y79.543 E0.23282
G1 X123.467 Y79.543 E0.01806
G1 X123.467 Y86.079 E0.23282
G1 X122.960 Y86.079 E0.01806
G1 X122.960 Y79.543 E0.23282
G1 X122.453 Y79.543 E0.01806
G1 X122.453 Y87.386 E0.27938
G1 X121.946 Y87.386 E0.01806
G1 X121.946 Y79.543 E0.27938
G1 X121.439 Y79.543 E0.01806
G1 X121.439 Y87.386 E0.27938
G1 X120.932 Y87.386 E0.01806
G1 X120.932 Y80.850 E0.23282
G1 X120.425 Y80.850 E0.01806
G1 X120.425 Y87.386 E0.23282
G1 X120.063 Y87.386 E0.01289
G1 X120.063 Y88.693 E0.04656
G1 X119.918 Y88.693 E0.00517
G1 X119.918 Y80.850 E0.27938
G1 X119.411 Y80.850 E0.01806
G1 X119.411 Y88.693 E0.27938
G1 X118.904 Y88.693 E0.01806
G1 X118.904 Y80.850 E0.27938
G1 X118.756 Y80.850 E0.00527
G1 X118.756 Y82.157 E0.04656
G1 X118.396 Y82.157 E0.01280
G1 X118.396 Y88.693 E0.23282
G1 X117.889 Y88.693 E0.01806
G1 X117.889 Y82.157 E0.23282
G1 X117.382 Y82.157 E0.01806
G1 X117.382 Y90.000 E0.27938
G1 X116.875 Y90.000 E0.01806
G1 X116.875 Y82.157 E0.27938
G1 X116.368 Y82.157 E0.01806
G1 X116.368 Y90.000 E0.27938
G1 X115.861 Y90.000 E0.01806
G1 X115.861 Y83.465 E0.23282
G1 X115.354 Y83.465 E0.01806
G1 X115.354 Y90.000 E0.23282
G1 X114.847 Y90.000 E0.01806
G1 X114.847 Y83.465 E0.23282
G1 X114.340 Y83.465 E0.01806
G1 X114.340 Y91.307 E0.27938
M73 P11 R20
G1 X113.833 Y91.307 E0.01806
G1 X113.833 Y83.465 E0.27938
G1 X113.527 Y83.465 E0.01088
G1 X113.527 Y84.772 E0.04656
G1 X113.326 Y84.772 E0.00719
G1 X113.326 Y92.614 E0.27938
G1 X112.819 Y92.614 E0.01806
G1 X112.819 Y84.772 E0.27938
G1 X112.311 Y84.772 E0.01806
G1 X112.311 Y92.614 E0.27938
G1 X111.804 Y92.614 E0.01806
G1 X111.804 Y86.079 E0.23282
G1 X111.297 Y86.079 E0.01806
G1 X111.297 Y92.614 E0.23282
G1 X110.913 Y92.614 E0.01368
G1 X110.913 Y93.921 E0.04656
G1 X110.790 Y93.921 E0.00438
G1 X110.790 Y86.079 E0.27938
G1 X110.283 Y86.079 E0.01806
G1 X110.283 Y93.921 E0.27938
G1 X109.776 Y93.921 E0.01806
G1 X109.776 Y86.079 E0.27938
G1 X109.606 Y86.079 E0.00605
G1 X109.606 Y87.386 E0.04656
G1 X109.269 Y87.386 E0.01201
G1 X109.269 Y93.921 E0.23282
G1 X108.762 Y93.921 E0.01806
G1 X108.762 Y87.386 E0.23282
G1 X108.255 Y87.386 E0.01806
G1 X108.255 Y95.228 E0.27938
G1 X107.748 Y95.228 E0.01806
G1 X107.748 Y87.386 E0.27938
G1 X107.241 Y87.386 E0.01806
G1 X107.241 Y95.228 E0.27938
G1 X106.734 Y95.228 E0.01806
G1 X106.734 Y88.693 E0.23282
G1 X106.227 Y88.693 E0.01806
G1 X106.227 Y95.228 E0.23282
G1 X105.719 Y95.228 E0.01806
G1 X105.719 Y88.693 E0.23282
G1 X105.212 Y88.693 E0.01806
G1 X105.212 Y96.535 E0.27938
G1 X104.705 Y96.535 E0.01806
G1 X104.705 Y88.693 E0.27938
G1 X104.378 Y88.693 E0.01167
G1 X104.378 Y90.000 E0.04656
G1 X104.198 Y90.000 E0.00640
G1 X104.198 Y97.842 E0.27938
G1 X103.691 Y97.842 E0.01806
G1 X103.691 Y90.000 E0.27938
G1 X103.184 Y90.000 E0.01806
G1 X103.184 Y97.842 E0.27938
G1 X102.677 Y97.842 E0.01806
G1 X102.677 Y91.307 E0.23282
G1 X102.170 Y91.307 E0.01806
G1 X102.170 Y97.842 E0.23282
G1 X101.764 Y97.842 E0.01447
G1 X101.764 Y99.150 E0.04656
G1 X101.663 Y99.150 E0.00359
G1 X101.663 Y91.307 E0.27938
G1 X101.156 Y91.307 E0.01806
G1 X101.156 Y99.150 E0.27938
G1 X100.649 Y99.150 E0.01806
G1 X100.649 Y91.307 E0.27938
G1 X100.457 Y91.307 E0.00684
G1 X100.457 Y92.614 E0.04656
G1 X100.142 Y92.614 E0.01122
G1 X100.142 Y99.150 E0.23282
G1 X99.635 Y99.150 E0.01806
G1 X99.635 Y92.614 E0.23282
G1 X99.127 Y92.614 E0.01806
G1 X99.127 Y100.457 E0.27938
G1 X98.620 Y100.457 E0.01806
G1 X98.620 Y92.614 E0.27938
M73 P11 R19
G1 X98.113 Y92.614 E0.01806
G1 X98.113 Y100.457 E0.27938
G1 X97.606 Y100.457 E0.01806
G1 X97.606 Y93.921 E0.23282
G1 X97.099 Y93.921 E0.01806
G1 X97.099 Y100.457 E0.23282
G1 X96.592 Y100.457 E0.01806
G1 X96.592 Y93.921 E0.23282
G1 X96.085 Y93.921 E0.01806
G1 X96.085 Y100.457 E0.23282
G1 X95.578 Y100.457 E0.01806
G1 X95.578 Y93.921 E0.23282
G1 X95.071 Y93.921 E0.01806
G1 X95.071 Y100.457 E0.23282
G1 X94.564 Y100.457 E0.01806
G1 X94.564 Y93.921 E0.23282
G1 X94.057 Y93.921 E0.01806
G1 X94.057 Y100.457 E0.23282
G1 X93.550 Y100.457 E0.01806
G1 X93.550 Y93.921 E0.23282
G1 X93.042 Y93.921 E0.01806
G1 X93.042 Y100.457 E0.23282
G1 X92.535 Y100.457 E0.01806
G1 X92.535 Y93.921 E0.23282
G1 X92.028 Y93.921 E0.01806
G1 X92.028 Y100.457 E0.23282
G1 X91.521 Y100.457 E0.01806
G1 X91.521 Y93.921 E0.23282
G1 X91.014 Y93.921 E0.01806
G1 X91.014 Y100.457 E0.23282
