; generated by PrusaSlicer 2.3.3 on 2022-01-25 at 22:07:18 UTC


;
;

;
;
; 

; external perimeters extrusion width = 0.45mm
; perimeters extrusion width = 0.45mm
; infill extrusion width = 0.45mm
; solid infill extrusion width = 0.45mm
; top infill extrusion width = 0.40mm
; support material extrusion width = 0.35mm
; first layer extrusion width = 0.42mm

M73 P0 R46
M201 X1250 Y1250 Z400 E5000 ; sets maximum accelerations, mm/sec^2
M203 X180 Y180 Z12 E80 ; sets maximum feedrates, mm/sec
M204 P1250 R1250 T1250 ; sets acceleration (P, T) and retract acceleration (R), mm/sec^2
M205 X8.00 Y8.00 Z2.00 E10.00 ; sets the jerk limits, mm/sec
M205 S0 T0 ; sets the minimum extruding and travel feed rate, mm/sec
M107
;TYPE:Custom
G90 ; use absolute coordinates
M83 ; extruder relative mode
M104 S170 ; set extruder temp for bed leveling
M140 S60 ; set bed temp
M109 R170 ; wait for bed leveling temp
M190 S60 ; wait for bed temp
G28 ; home all without mesh bed level
G29 ; mesh bed leveling 
M104 S215 ; set extruder temp
G92 E0.0
G1 Y-2.0 X179 F2400
G1 Z3 F720
M109 S215 ; wait for extruder temp

; intro line
G1 X170 F1000
G1 Z0.2 F720
G1 X110.0 E8.0 F900
G1 X40.0 E10.0 F700
G92 E0.0

M221 S95 ; set flow
G21 ; set units to millimeters
G90 ; use absolute coordinates
M83 ; use relative distances for extrusion
M900 K0.2 ; Filament gcode LA 1.5
; ; Filament gcode LA 1.0
;LAYER_CHANGE
;Z:0.2
;HEIGHT:0.2
;BEFORE_LAYER_CHANGE
G92 E0.0
;0.2


G1 E-3.20000 F4200.000
G1 Z0.200 F9000.000
;AFTER_LAYER_CHANGE
;0.2
G1 Z0.400
G1 X80.453 Y75.325
G1 Z0.200
G1 E3.20000 F2400.000
M204 S800
;TYPE:Skirt
;WIDTH:0.42
G1 F1200.000
G1 X81.191 Y74.764 E0.02906
G1 X82.055 Y74.397 E0.02943
G1 X82.945 Y74.258 E0.02823
G1 X96.927 Y74.255 E0.43840
G1 X97.891 Y74.383 E0.03050
G1 X98.794 Y74.755 E0.03062
G1 X99.570 Y75.348 E0.03061
G1 X100.162 Y76.112 E0.03033
G1 X107.261 Y88.444 E0.44614
G1 X107.517 Y89.218 E0.02557
G1 X107.599 Y90.055 E0.02636
G1 X107.485 Y90.917 E0.02727
G1 X107.195 Y91.695 E0.02603
G1 X100.102 Y103.987 E0.44498
G1 X99.471 Y104.747 E0.03098
G1 X98.673 Y105.311 E0.03062
G1 X97.846 Y105.629 E0.02780
G1 X96.929 Y105.745 E0.02896
G1 X82.963 Y105.743 E0.43792
G1 X82.140 Y105.626 E0.02604
G1 X81.383 Y105.340 E0.02539
G1 X80.549 Y104.765 E0.03175
G1 X79.902 Y103.993 E0.03158
G1 X72.808 Y91.702 E0.44496
G1 X72.501 Y90.864 E0.02797
G1 X72.401 Y89.983 E0.02782
G1 X72.503 Y89.129 E0.02696
G1 X72.804 Y88.306 E0.02748
G1 X79.891 Y76.024 E0.44461
G1 X80.416 Y75.372 E0.02625
M204 S1250
G1 X80.708 Y75.606 F9000.000
M204 S800
G1 F1200.000
G1 X81.380 Y75.090 E0.02658
G1 X82.160 Y74.760 E0.02655
G1 X82.963 Y74.635 E0.02546
G1 X96.926 Y74.633 E0.43782
G1 X97.794 Y74.747 E0.02743
G1 X98.606 Y75.082 E0.02754
G1 X99.304 Y75.615 E0.02753
G1 X99.838 Y76.306 E0.02739
G1 X106.911 Y88.584 E0.44427
G1 X107.146 Y89.287 E0.02324
G1 X107.222 Y90.044 E0.02386
G1 X107.118 Y90.831 E0.02489
G1 X106.852 Y91.537 E0.02367
G1 X99.785 Y103.783 E0.44330
G1 X99.218 Y104.468 E0.02788
G1 X98.501 Y104.976 E0.02754
G1 X97.755 Y105.263 E0.02506
G1 X96.928 Y105.367 E0.02612
G1 X82.976 Y105.366 E0.43748
G1 X82.228 Y105.259 E0.02368
G1 X81.543 Y104.999 E0.02297
G1 X80.797 Y104.481 E0.02848
G1 X80.217 Y103.785 E0.02842
G1 X73.149 Y91.540 E0.44330
G1 X72.869 Y90.781 E0.02535
G1 X72.778 Y89.982 E0.02522
G1 X72.872 Y89.209 E0.02443
G1 X73.147 Y88.464 E0.02490
G1 X80.209 Y76.228 E0.44297
G1 X80.670 Y75.652 E0.02312
M204 S1250
; printing object bracket_node_center.stl id:0 copy 0
G1 E-2.24000 F4200.000
;WIPE_START
G1 F7200.000
G1 X81.380 Y75.090 E-0.50219
G1 X82.061 Y74.801 E-0.40981
;WIPE_END
G1 E-0.04800 F4200.000
G1 Z0.400 F9000.000
G1 X88.550 Y88.100
G1 Z0.200
G1 E3.20000 F2400.000
M204 S800
;TYPE:Perimeter
G1 F1200.000
G1 X88.984 Y87.837 E0.01591
G1 X89.388 Y87.690 E0.01346
G1 X89.889 Y87.613 E0.01591
G1 X90.318 Y87.631 E0.01346
G1 X90.818 Y87.754 E0.01612
G1 X91.279 Y87.981 E0.01612
G1 X91.619 Y88.242 E0.01346
G1 X91.954 Y88.624 E0.01591
G1 X92.165 Y88.990 E0.01327
G1 X92.310 Y89.388 E0.01326
G1 X92.387 Y89.889 E0.01591
G1 X92.369 Y90.318 E0.01346
M73 P1 R46
G1 X92.246 Y90.818 E0.01612
G1 X92.019 Y91.279 E0.01612
G1 X91.762 Y91.614 E0.01326
G1 X91.450 Y91.900 E0.01326
G1 X91.016 Y92.163 E0.01592
G1 X90.612 Y92.310 E0.01346
G1 X90.111 Y92.387 E0.01591
G1 X89.682 Y92.369 E0.01346
G1 X89.182 Y92.246 E0.01612
G1 X88.721 Y92.019 E0.01612
G1 X88.386 Y91.762 E0.01326
G1 X88.100 Y91.450 E0.01326
G1 X87.837 Y91.016 E0.01591
G1 X87.690 Y90.612 E0.01346
G1 X87.613 Y90.111 E0.01591
G1 X87.631 Y89.682 E0.01346
G1 X87.753 Y89.182 E0.01612
G1 X87.981 Y88.721 E0.01612
G1 X88.238 Y88.386 E0.01326
G1 X88.506 Y88.141 E0.01138
M204 S1250
G1 X88.761 Y88.419 F9000.000
M204 S800
;TYPE:External perimeter
G1 F1200.000
G1 X89.148 Y88.178 E0.01429
G1 X89.482 Y88.057 E0.01114
G1 X89.910 Y87.991 E0.01359
G1 X90.265 Y88.006 E0.01114
G1 X90.688 Y88.110 E0.01366
G1 X91.079 Y88.303 E0.01366
G1 X91.360 Y88.519 E0.01113
G1 X91.646 Y88.845 E0.01358
G1 X91.822 Y89.150 E0.01107
G1 X91.943 Y89.482 E0.01106
G1 X92.009 Y89.910 E0.01359
G1 X91.993 Y90.265 E0.01114
G1 X91.890 Y90.688 E0.01366
G1 X91.697 Y91.079 E0.01366
G1 X91.482 Y91.359 E0.01106
G1 X91.222 Y91.597 E0.01106
G1 X90.852 Y91.822 E0.01359
G1 X90.518 Y91.943 E0.01114
G1 X90.090 Y92.009 E0.01359
G1 X89.735 Y91.994 E0.01114
G1 X89.312 Y91.890 E0.01366
G1 X88.921 Y91.697 E0.01366
G1 X88.641 Y91.483 E0.01106
G1 X88.403 Y91.222 E0.01106
G1 X88.178 Y90.852 E0.01359
G1 X88.057 Y90.518 E0.01114
G1 X87.991 Y90.090 E0.01359
G1 X88.006 Y89.735 E0.01114
G1 X88.110 Y89.312 E0.01366
G1 X88.303 Y88.921 E0.01366
G1 X88.517 Y88.641 E0.01106
G1 X88.716 Y88.459 E0.00846
M204 S1250
G1 X88.711 Y88.022 F9000.000
G1 E-2.24000 F4200.000
;WIPE_START
G1 F7200.000
G1 X89.148 Y88.178 E-0.28529
G1 X89.482 Y88.057 E-0.19681
G1 X89.910 Y87.991 E-0.24011
G1 X90.252 Y88.006 E-0.18979
;WIPE_END
G1 E-0.04800 F4200.000
G1 Z0.400 F9000.000
G1 X82.973 Y77.830
G1 Z0.200
G1 E3.20000 F2400.000
M204 S800
;TYPE:Perimeter
G1 F1200.000
G1 X83.118 Y77.797 E0.00464
G1 X96.906 Y77.798 E0.43232
G1 X97.027 Y77.828 E0.00393
G1 X97.114 Y77.918 E0.00392
G1 X104.009 Y89.859 E0.43233
G1 X104.053 Y90.000 E0.00464
G1 X104.009 Y90.141 E0.00464
G1 X97.127 Y102.062 E0.43158
G1 X97.027 Y102.170 E0.00464
G1 X96.882 Y102.203 E0.00464
G1 X83.118 Y102.203 E0.43157
G1 X82.973 Y102.170 E0.00464
G1 X82.873 Y102.062 E0.00464
G1 X75.990 Y90.140 E0.43164
G1 X75.947 Y90.010 E0.00427
G1 X75.990 Y89.860 E0.00490
G1 X82.927 Y77.867 E0.43440
M204 S1250
G1 X82.661 Y77.594 F9000.000
M204 S800
;TYPE:External perimeter
G1 F1200.000
G1 X82.783 Y77.500 E0.00481
G1 X82.925 Y77.442 E0.00481
G1 X83.093 Y77.420 E0.00532
G1 X96.939 Y77.420 E0.43412
G1 X97.102 Y77.449 E0.00519
G1 X97.217 Y77.500 E0.00395
G1 X97.318 Y77.574 E0.00395
G1 X97.425 Y77.701 E0.00517
G1 X104.348 Y89.691 E0.43413
G1 X104.413 Y89.848 E0.00532
G1 X104.433 Y90.000 E0.00481
G1 X104.413 Y90.152 E0.00481
G1 X104.348 Y90.309 E0.00532
G1 X97.441 Y102.272 E0.43312
G1 X97.338 Y102.406 E0.00532
G1 X97.217 Y102.500 E0.00481
G1 X97.075 Y102.558 E0.00481
G1 X96.907 Y102.580 E0.00532
G1 X83.093 Y102.580 E0.43311
G1 X82.925 Y102.558 E0.00532
G1 X82.783 Y102.500 E0.00481
G1 X82.661 Y102.406 E0.00481
G1 X82.558 Y102.272 E0.00532
G1 X75.651 Y90.308 E0.43314
G1 X75.588 Y90.158 E0.00510
G1 X75.567 Y90.014 E0.00455
G1 X75.589 Y89.840 E0.00552
G1 X75.651 Y89.692 E0.00503
G1 X82.558 Y77.728 E0.43314
G1 X82.625 Y77.641 E0.00344
M204 S1250
G1 X82.810 Y77.633 F9000.000
G1 X83.362 Y78.079
M204 S800
;TYPE:Solid infill
G1 F1200.000
G1 X83.173 Y78.268 E0.00836
G1 X83.706 Y78.801 E0.02365
G1 X83.973 Y78.535 E0.01182
G1 X84.240 Y78.801 E0.01182
G1 X83.440 Y79.601 E0.03547
G1 X83.173 Y79.335 E0.01182
G1 X83.440 Y79.068 E0.01182
G1 X82.906 Y78.535 E0.02365
G1 X82.784 Y78.657 E0.00541
M204 S1250
G1 X82.678 Y78.840 F9000.000
M204 S800
G1 F1200.000
G1 X82.906 Y79.068 E0.01011
G1 X82.640 Y79.335 E0.01182
G1 X82.483 Y79.178 E0.00694
M204 S1250
G1 X82.288 Y79.516 F9000.000
M204 S800
G1 F1200.000
G1 X82.640 Y79.868 E0.01559
G1 X82.906 Y79.601 E0.01182
G1 X83.173 Y79.868 E0.01182
G1 X82.906 Y80.135 E0.01182
G1 X83.440 Y80.668 E0.02365
G1 X83.706 Y80.401 E0.01182
G1 X83.440 Y80.135 E0.01182
G1 X83.973 Y79.601 E0.02365
G1 X84.240 Y79.868 E0.01182
G1 X83.973 Y80.135 E0.01182
G1 X84.240 Y80.401 E0.01182
G1 X84.506 Y80.135 E0.01182
G1 X84.773 Y80.401 E0.01182
G1 X84.240 Y80.934 E0.02365
G1 X83.973 Y80.668 E0.01182
G1 X83.706 Y80.934 E0.01182
G1 X84.506 Y81.734 E0.03547
G1 X84.773 Y81.468 E0.01182
G1 X84.506 Y81.201 E0.01182
G1 X85.039 Y80.668 E0.02365
G1 X85.306 Y80.934 E0.01182
G1 X85.039 Y81.201 E0.01182
G1 X85.306 Y81.468 E0.01182
G1 X85.573 Y81.201 E0.01182
G1 X85.839 Y81.468 E0.01182
G1 X85.306 Y82.001 E0.02365
G1 X85.039 Y81.734 E0.01182
G1 X84.773 Y82.001 E0.01182
G1 X85.306 Y82.534 E0.02365
G1 X85.573 Y82.268 E0.01182
G1 X85.839 Y82.534 E0.01182
G1 X85.573 Y82.801 E0.01182
G1 X86.106 Y83.334 E0.02365
G1 X86.373 Y83.067 E0.01182
G1 X86.106 Y82.801 E0.01182
G1 X86.373 Y82.534 E0.01182
G1 X86.639 Y82.801 E0.01182
G1 X86.906 Y82.534 E0.01182
G1 X86.373 Y82.001 E0.02365
G1 X86.106 Y82.268 E0.01182
G1 X85.839 Y82.001 E0.01182
G1 X86.639 Y81.201 E0.03547
G1 X86.906 Y81.468 E0.01182
G1 X86.639 Y81.734 E0.01182
G1 X87.173 Y82.268 E0.02365
G1 X87.439 Y82.001 E0.01182
G1 X87.173 Y81.734 E0.01182
G1 X87.439 Y81.468 E0.01182
G1 X87.706 Y81.734 E0.01182
G1 X87.972 Y81.468 E0.01182
G1 X87.439 Y80.934 E0.02365
G1 X87.173 Y81.201 E0.01182
G1 X86.906 Y80.934 E0.01182
G1 X87.173 Y80.668 E0.01182
G1 X86.639 Y80.135 E0.02365
G1 X86.373 Y80.401 E0.01182
G1 X86.639 Y80.668 E0.01182
G1 X86.106 Y81.201 E0.02365
G1 X85.839 Y80.934 E0.01182
G1 X86.106 Y80.668 E0.01182
G1 X85.839 Y80.401 E0.01182
G1 X85.573 Y80.668 E0.01182
G1 X85.306 Y80.401 E0.01182
G1 X85.839 Y79.868 E0.02365
G1 X86.106 Y80.135 E0.01182
G1 X86.373 Y79.868 E0.01182
G1 X86.106 Y79.601 E0.01182
G1 X86.639 Y79.068 E0.02365
G1 X86.906 Y79.335 E0.01182
G1 X86.639 Y79.601 E0.01182
G1 X87.173 Y80.135 E0.02365
G1 X87.439 Y79.868 E0.01182
G1 X87.173 Y79.601 E0.01182
G1 X87.439 Y79.335 E0.01182
G1 X87.706 Y79.601 E0.01182
G1 X87.972 Y79.335 E0.01182
G1 X87.439 Y78.801 E0.02365
G1 X87.173 Y79.068 E0.01182
G1 X86.906 Y78.801 E0.01182
G1 X87.439 Y78.268 E0.02365
G1 X87.706 Y78.535 E0.01182
G1 X87.972 Y78.268 E0.01182
G1 X87.784 Y78.080 E0.00835
M204 S1250
G1 X88.317 Y78.080 F9000.000
M204 S800
G1 F1200.000
G1 X88.506 Y78.268 E0.00835
G1 X88.694 Y78.080 E0.00835
M204 S1250
G1 X88.851 Y78.080 F9000.000
M204 S800
G1 F1200.000
G1 X89.039 Y78.268 E0.00835
G1 X88.506 Y78.801 E0.02365
G1 X88.239 Y78.535 E0.01182
G1 X87.972 Y78.801 E0.01182
G1 X88.772 Y79.601 E0.03547
G1 X89.039 Y79.335 E0.01182
G1 X88.772 Y79.068 E0.01182
G1 X89.306 Y78.535 E0.02365
G1 X89.572 Y78.801 E0.01182
G1 X89.306 Y79.068 E0.01182
G1 X89.572 Y79.335 E0.01182
G1 X89.839 Y79.068 E0.01182
G1 X90.106 Y79.335 E0.01182
G1 X89.572 Y79.868 E0.02365
G1 X89.306 Y79.601 E0.01182
G1 X89.039 Y79.868 E0.01182
G1 X89.306 Y80.135 E0.01182
G1 X88.772 Y80.668 E0.02365
G1 X88.506 Y80.401 E0.01182
G1 X88.772 Y80.135 E0.01182
G1 X88.239 Y79.601 E0.02365
G1 X87.972 Y79.868 E0.01182
G1 X88.239 Y80.135 E0.01182
G1 X87.972 Y80.401 E0.01182
G1 X87.706 Y80.135 E0.01182
G1 X87.439 Y80.401 E0.01182
G1 X87.972 Y80.934 E0.02365
G1 X88.239 Y80.668 E0.01182
G1 X88.506 Y80.934 E0.01182
G1 X88.239 Y81.201 E0.01182
G1 X88.506 Y81.468 E0.01182
G1 X88.772 Y81.201 E0.01182
G1 X89.039 Y81.468 E0.01182
G1 X88.772 Y81.734 E0.01182
G1 X89.306 Y82.268 E0.02365
G1 X89.572 Y82.001 E0.01182
G1 X89.306 Y81.734 E0.01182
G1 X89.572 Y81.468 E0.01182
G1 X89.839 Y81.734 E0.01182
G1 X90.106 Y81.468 E0.01182
G1 X89.572 Y80.934 E0.02365
G1 X89.306 Y81.201 E0.01182
G1 X89.039 Y80.934 E0.01182
G1 X89.572 Y80.401 E0.02365
G1 X89.839 Y80.668 E0.01182
G1 X90.106 Y80.401 E0.01182
G1 X89.839 Y80.135 E0.01182
G1 X90.372 Y79.601 E0.02365
G1 X90.639 Y79.868 E0.01182
G1 X90.372 Y80.135 E0.01182
G1 X90.639 Y80.401 E0.01182
G1 X90.905 Y80.135 E0.01182
G1 X91.172 Y80.401 E0.01182
G1 X90.639 Y80.934 E0.02365
G1 X90.372 Y80.668 E0.01182
G1 X90.106 Y80.934 E0.01182
G1 X90.905 Y81.734 E0.03547
G1 X91.172 Y81.468 E0.01182
G1 X90.905 Y81.201 E0.01182
G1 X91.439 Y80.668 E0.02365
G1 X91.705 Y80.934 E0.01182
G1 X91.439 Y81.201 E0.01182
G1 X91.705 Y81.468 E0.01182
G1 X91.972 Y81.201 E0.01182
G1 X92.239 Y81.468 E0.01182
G1 X91.705 Y82.001 E0.02365
G1 X91.439 Y81.734 E0.01182
G1 X91.172 Y82.001 E0.01182
G1 X91.439 Y82.268 E0.01182
G1 X90.905 Y82.801 E0.02365
G1 X90.639 Y82.534 E0.01182
G1 X90.905 Y82.268 E0.01182
G1 X90.639 Y82.001 E0.01182
G1 X90.372 Y81.734 E0.01182
G1 X90.106 Y82.001 E0.01182
G1 X90.372 Y82.268 E0.01182
G1 X90.106 Y82.534 E0.01182
G1 X89.839 Y82.268 E0.01182
G1 X89.572 Y82.534 E0.01182
G1 X90.106 Y83.067 E0.02365
G1 X90.372 Y82.801 E0.01182
G1 X90.639 Y83.067 E0.01182
G1 X90.106 Y83.601 E0.02365
G1 X89.839 Y83.334 E0.01182
G1 X89.572 Y83.601 E0.01182
G1 X89.839 Y83.867 E0.01182
G1 X89.306 Y84.401 E0.02365
G1 X89.039 Y84.134 E0.01182
G1 X89.306 Y83.867 E0.01182
G1 X89.039 Y83.601 E0.01182
G1 X88.772 Y83.867 E0.01182
G1 X88.506 Y83.601 E0.01182
G1 X89.039 Y83.067 E0.02365
G1 X89.306 Y83.334 E0.01182
G1 X89.572 Y83.067 E0.01182
G1 X89.039 Y82.534 E0.02365
G1 X88.772 Y82.801 E0.01182
G1 X88.506 Y82.534 E0.01182
G1 X88.772 Y82.268 E0.01182
G1 X88.239 Y81.734 E0.02365
G1 X87.972 Y82.001 E0.01182
G1 X88.239 Y82.268 E0.01182
G1 X87.972 Y82.534 E0.01182
G1 X87.706 Y82.268 E0.01182
G1 X87.439 Y82.534 E0.01182
G1 X87.972 Y83.067 E0.02365
G1 X88.239 Y82.801 E0.01182
G1 X88.506 Y83.067 E0.01182
G1 X87.706 Y83.867 E0.03547
G1 X87.439 Y83.601 E0.01182
G1 X87.706 Y83.334 E0.01182
G1 X87.173 Y82.801 E0.02365
G1 X86.906 Y83.067 E0.01182
G1 X87.173 Y83.334 E0.01182
G1 X86.906 Y83.601 E0.01182
G1 X86.639 Y83.334 E0.01182
G1 X86.373 Y83.601 E0.01182
G1 X86.906 Y84.134 E0.02365
G1 X87.173 Y83.867 E0.01182
G1 X87.439 Y84.134 E0.01182
G1 X87.173 Y84.401 E0.01182
G1 X87.706 Y84.934 E0.02365
G1 X87.972 Y84.667 E0.01182
G1 X87.706 Y84.401 E0.01182
G1 X88.239 Y83.867 E0.02365
G1 X88.506 Y84.134 E0.01182
G1 X88.239 Y84.401 E0.01182
G1 X88.506 Y84.667 E0.01182
G1 X88.772 Y84.401 E0.01182
G1 X89.039 Y84.667 E0.01182
G1 X88.506 Y85.201 E0.02365
G1 X88.239 Y84.934 E0.01182
G1 X87.972 Y85.201 E0.01182
G1 X88.239 Y85.467 E0.01182
G1 X87.706 Y86.000 E0.02365
G1 X87.439 Y85.734 E0.01182
G1 X87.706 Y85.467 E0.01182
G1 X87.173 Y84.934 E0.02365
G1 X86.906 Y85.201 E0.01182
G1 X87.173 Y85.467 E0.01182
G1 X86.906 Y85.734 E0.01182
G1 X86.639 Y85.467 E0.01182
G1 X86.373 Y85.734 E0.01182
G1 X86.639 Y86.000 E0.01182
G1 X86.906 Y86.267 E0.01182
G1 X87.173 Y86.000 E0.01182
G1 X87.439 Y86.267 E0.01182
G1 X86.906 Y86.800 E0.02365
G1 X86.639 Y86.534 E0.01182
G1 X86.373 Y86.800 E0.01182
G1 X86.639 Y87.067 E0.01182
G1 X86.106 Y87.600 E0.02365
G1 X85.839 Y87.334 E0.01182
G1 X86.106 Y87.067 E0.01182
G1 X85.839 Y86.800 E0.01182
G1 X85.573 Y87.067 E0.01182
G1 X85.306 Y86.800 E0.01182
G1 X85.839 Y86.267 E0.02365
G1 X86.106 Y86.534 E0.01182
G1 X86.373 Y86.267 E0.01182
G1 X85.573 Y85.467 E0.03547
G1 X85.306 Y85.734 E0.01182
G1 X85.573 Y86.000 E0.01182
G1 X85.039 Y86.534 E0.02365
G1 X84.773 Y86.267 E0.01182
G1 X85.039 Y86.000 E0.01182
G1 X84.773 Y85.734 E0.01182
G1 X84.506 Y86.000 E0.01182
G1 X84.240 Y85.734 E0.01182
G1 X84.773 Y85.201 E0.02365
G1 X85.039 Y85.467 E0.01182
G1 X85.306 Y85.201 E0.01182
G1 X85.039 Y84.934 E0.01182
G1 X85.573 Y84.401 E0.02365
G1 X85.839 Y84.667 E0.01182
G1 X85.573 Y84.934 E0.01182
G1 X86.106 Y85.467 E0.02365
G1 X86.373 Y85.201 E0.01182
G1 X86.106 Y84.934 E0.01182
G1 X86.373 Y84.667 E0.01182
G1 X86.639 Y84.934 E0.01182
G1 X86.906 Y84.667 E0.01182
G1 X86.373 Y84.134 E0.02365
G1 X86.106 Y84.401 E0.01182
G1 X85.839 Y84.134 E0.01182
G1 X86.106 Y83.867 E0.01182
G1 X85.573 Y83.334 E0.02365
G1 X85.306 Y83.601 E0.01182
G1 X85.573 Y83.867 E0.01182
G1 X85.039 Y84.401 E0.02365
G1 X84.773 Y84.134 E0.01182
G1 X85.039 Y83.867 E0.01182
G1 X84.773 Y83.601 E0.01182
G1 X84.506 Y83.867 E0.01182
G1 X84.240 Y83.601 E0.01182
G1 X84.773 Y83.067 E0.02365
G1 X85.039 Y83.334 E0.01182
G1 X85.306 Y83.067 E0.01182
