; generated by PrusaSlicer 2.4.1 on 2022-05-05 at 17:29:32 UTC


;
;

;
;
; 

; external perimeters extrusion width = 0.45mm
; perimeters extrusion width = 0.45mm
; infill extrusion width = 0.45mm
; solid infill extrusion width = 0.45mm
; top infill extrusion width = 0.40mm
; support material extrusion width = 0.35mm
; first layer extrusion width = 0.42mm

M73 P0 R46
M201 X1250 Y1250 Z400 E5000 ; sets maximum accelerations, mm/sec^2
M203 X180 Y180 Z12 E80 ; sets maximum feedrates, mm / sec
M204 P1250 R1250 T1250 ; sets acceleration (P, T) and retract acceleration (R), mm/sec^2
M205 X8.00 Y8.00 Z2.00 E10.00 ; sets the jerk limits, mm/sec
M205 S0 T0 ; sets the minimum extruding and travel feed rate, mm/sec
M107
;TYPE:Custom
G90 ; use absolute coordinates
M83 ; extruder relative mode
M104 S170 ; set extruder temp for bed leveling
M140 S60 ; set bed temp
M109 R170 ; wait for bed leveling temp
M190 S60 ; wait for bed temp
G28 ; home all without mesh bed level
G29 ; mesh bed leveling 
M104 S215 ; set extruder temp
G92 E0.0
G1 Y-2.0 X179 F2400
G1 Z3 F720
M109 S215 ; wait for extruder temp

; intro line
G1 X170 F1000
G1 Z0.2 F720
G1 X110.0 E8.0 F900
G1 X40.0 E10.0 F700
G92 E0.0

M221 S95 ; set flow
G21 ; set units to millimeters
G90 ; use absolute coordinates
M83 ; use relative distances for extrusion
M900 K0.2 ; Filament gcode LA 1.5
; ; Filament gcode LA 1.0
M107
;LAYER_CHANGE
;Z:0.2
;HEIGHT:0.2
;BEFORE_LAYER_CHANGE
G92 E0.0
;0.2


G1 E-3.2 F4200
G1 Z.2 F9000
;AFTER_LAYER_CHANGE
;0.2
G1 Z.4
G1 X55.562 Y74.818
G1 Z.2
G1 E3.2 F2400
M204 S800
;TYPE:Skirt/Brim
;WIDTH:0.42
G1 F1200
G1 X81.079 Y60.085 E.92387
G1 X81.612 Y59.837 E.01843
G1 X82.721 Y59.633 E.03534
G1 X97.279 Y59.633 E.45646
G1 X98.12 Y59.752 E.02663
G1 X98.878 Y60.061 E.02566
G1 X124.437 Y74.817 E.92538
G1 X124.956 Y75.186 E.01997
G1 X125.673 Y76.052 E.03523
G1 X132.632 Y88.117 E.43672
G1 X132.855 Y88.683 E.01908
G1 X132.97 Y89.25 E.01813
G1 X132.981 Y89.901 E.02043
G1 X132.883 Y90.483 E.01849
G1 X132.489 Y91.406 E.03147
G1 X131.81 Y92.2 E.03276
G1 X98.671 Y119.88 E1.35384
G1 X97.892 Y120.225 E.02669
G1 X97.021 Y120.366 E.02769
G1 X83.077 Y120.367 E.43719
G1 X82.304 Y120.277 E.02441
G1 X81.622 Y120.038 E.02268
G1 X80.941 Y119.606 E.02529
G1 X48.158 Y92.172 E1.34031
G1 X47.545 Y91.46 E.02946
G1 X47.161 Y90.636 E.0285
G1 X47.009 Y89.701 E.02972
G1 X47.106 Y88.828 E.02753
G1 X47.461 Y87.945 E.02981
G1 X54.352 Y76.01 E.43214
G1 X54.899 Y75.319 E.02763
G1 X55.514 Y74.854 E.02416
M204 S1250
; printing object bracket_flat_corner_motor.stl id:0 copy 0
G1 E-2.24 F4200
;WIPE_START
G1 F7200
G1 X56.939 Y74.031 E-.912
;WIPE_END
G1 E-.048 F4200
G1 Z.4 F9000
G1 X87.676 Y83.963
G1 Z.2
G1 E3.2 F2400
M204 S800
;TYPE:Perimeter
M73 P1 R46
G1 F1200
G1 X87.793 Y83.595 E.0121
G1 X87.988 Y83.22 E.01326
G1 X88.31 Y82.819 E.01612
G1 X88.71 Y82.497 E.01612
G1 X89.086 Y82.302 E.01326
G1 X89.488 Y82.175 E.01324
G1 X89.983 Y82.12 E.01561
G1 X90.42 Y82.157 E.01376
G1 X90.909 Y82.299 E.01594
G1 X91.29 Y82.497 E.01346
G1 X91.69 Y82.819 E.01612
G1 X92.012 Y83.22 E.01612
G1 X92.208 Y83.595 E.01326
G1 X92.335 Y83.999 E.01326
G1 X92.39 Y84.503 E.01591
G1 X92.353 Y84.931 E.01347
G1 X92.21 Y85.418 E.01591
G1 X92.012 Y85.799 E.01346
G1 X91.694 Y86.195 E.01591
G1 X91.365 Y86.471 E.01347
G1 X90.92 Y86.715 E.01591
G1 X90.511 Y86.844 E.01346
G1 X90 Y86.9 E.01612
G1 X89.489 Y86.844 E.01612
G1 X89.08 Y86.715 E.01346
G1 X88.635 Y86.471 E.01591
G1 X88.306 Y86.195 E.01347
G1 X87.988 Y85.799 E.01592
G1 X87.79 Y85.418 E.01346
G1 X87.648 Y84.931 E.01591
G1 X87.61 Y84.503 E.01347
G1 X87.663 Y84.021 E.0152
M204 S1250
G1 X88.036 Y84.077 F9000
M204 S800
;TYPE:External perimeter
G1 F1200
G1 X88.142 Y83.74 E.01106
G1 X88.305 Y83.427 E.01106
G1 X88.578 Y83.087 E.01366
G1 X88.918 Y82.815 E.01366
G1 X89.23 Y82.652 E.01106
G1 X89.567 Y82.546 E.01106
G1 X89.988 Y82.499 E.0133
G1 X90.351 Y82.529 E.01142
G1 X90.767 Y82.651 E.0136
G1 X91.082 Y82.815 E.01114
G1 X91.422 Y83.087 E.01366
G1 X91.695 Y83.427 E.01366
G1 X91.858 Y83.74 E.01106
G1 X91.964 Y84.077 E.01106
G1 X92.011 Y84.507 E.01358
G1 X91.98 Y84.861 E.01114
G1 X91.859 Y85.277 E.01359
G1 X91.695 Y85.592 E.01113
G1 X91.424 Y85.93 E.01359
G1 X91.152 Y86.158 E.01114
G1 X90.772 Y86.367 E.01358
G1 X90.433 Y86.474 E.01113
G1 X90 Y86.521 E.01366
G1 X89.567 Y86.474 E.01366
G1 X89.228 Y86.367 E.01113
G1 X88.848 Y86.158 E.01358
G1 X88.576 Y85.93 E.01114
G1 X88.305 Y85.592 E.01359
G1 X88.141 Y85.277 E.01113
G1 X88.02 Y84.861 E.01358
G1 X87.989 Y84.507 E.01114
G1 X88.03 Y84.136 E.0117
M204 S1250
G1 X87.774 Y83.84 F9000
G1 E-2.24 F4200
;WIPE_START
G1 F7200
G1 X88.142 Y83.74 E-.22823
G1 X88.305 Y83.427 E-.19554
G1 X88.578 Y83.087 E-.24141
G1 X88.918 Y82.815 E-.24139
G1 X88.926 Y82.81 E-.00543
;WIPE_END
G1 E-.048 F4200
G1 Z.4 F9000
G1 X89.526 Y71.848
G1 Z.2
G1 E3.2 F2400
M204 S800
;TYPE:Perimeter
G1 F1200
G1 X89.08 Y71.715 E.01461
G1 X88.635 Y71.471 E.01591
G1 X88.306 Y71.195 E.01347
G1 X87.988 Y70.799 E.01591
G1 X87.79 Y70.418 E.01346
G1 X87.648 Y69.931 E.01591
G1 X87.61 Y69.503 E.01347
G1 X87.665 Y68.999 E.01591
G1 X87.793 Y68.595 E.01326
G1 X87.988 Y68.22 E.01326
G1 X88.31 Y67.819 E.01612
G1 X88.71 Y67.497 E.01612
G1 X89.086 Y67.302 E.01326
G1 X89.488 Y67.175 E.01324
G1 X89.983 Y67.12 E.01561
G1 X90.42 Y67.157 E.01376
G1 X90.909 Y67.299 E.01594
G1 X91.29 Y67.497 E.01346
G1 X91.69 Y67.819 E.01612
G1 X92.012 Y68.22 E.01612
G1 X92.208 Y68.595 E.01326
G1 X92.335 Y68.999 E.01326
G1 X92.39 Y69.503 E.01591
G1 X92.352 Y69.931 E.01347
G1 X92.21 Y70.418 E.01591
G1 X92.012 Y70.799 E.01346
G1 X91.695 Y71.195 E.01591
G1 X91.365 Y71.471 E.01347
G1 X90.92 Y71.715 E.01591
G1 X90.511 Y71.844 E.01346
G1 X90 Y71.9 E.01612
G1 X89.586 Y71.855 E.01307
M204 S1250
G1 X89.567 Y71.474 F9000
M204 S800
;TYPE:External perimeter
G1 F1200
G1 X89.228 Y71.367 E.01113
G1 X88.848 Y71.158 E.01358
G1 X88.576 Y70.93 E.01114
G1 X88.305 Y70.592 E.01359
G1 X88.141 Y70.277 E.01113
G1 X88.02 Y69.861 E.01358
G1 X87.989 Y69.507 E.01114
G1 X88.036 Y69.077 E.01359
G1 X88.142 Y68.74 E.01106
G1 X88.305 Y68.427 E.01106
G1 X88.578 Y68.087 E.01366
G1 X88.918 Y67.815 E.01366
G1 X89.23 Y67.652 E.01106
G1 X89.567 Y67.546 E.01106
G1 X89.988 Y67.499 E.0133
G1 X90.351 Y67.529 E.01142
G1 X90.767 Y67.651 E.0136
G1 X91.082 Y67.815 E.01114
G1 X91.422 Y68.087 E.01366
G1 X91.695 Y68.427 E.01366
G1 X91.858 Y68.74 E.01106
G1 X91.964 Y69.077 E.01106
G1 X92.011 Y69.507 E.01359
G1 X91.98 Y69.861 E.01114
G1 X91.859 Y70.277 E.01358
G1 X91.695 Y70.592 E.01113
G1 X91.424 Y70.93 E.01358
G1 X91.152 Y71.158 E.01114
G1 X90.772 Y71.367 E.01358
G1 X90.433 Y71.474 E.01113
G1 X90 Y71.521 E.01366
G1 X89.627 Y71.48 E.01178
M204 S1250
G1 X89.331 Y71.739 F9000
G1 E-2.24 F4200
;WIPE_START
G1 F7200
G1 X89.228 Y71.367 E-.22949
G1 X88.848 Y71.158 E-.24007
G1 X88.576 Y70.93 E-.19687
G1 X88.305 Y70.592 E-.24012
G1 X88.301 Y70.583 E-.00544
;WIPE_END
G1 E-.048 F4200
G1 Z.4 F9000
G1 X77.886 Y70.991
G1 Z.2
G1 E3.2 F2400
M204 S800
;TYPE:Perimeter
G1 F1200
G1 X77.846 Y71.454 E.01456
G1 X77.756 Y71.821 E.01185
G1 X77.666 Y72.07 E.00831
G1 X77.504 Y72.397 E.01143
G1 X77.358 Y72.626 E.00851
G1 X77.043 Y73.002 E.01539
G1 X76.662 Y73.321 E.01559
G1 X76.339 Y73.517 E.01185
G1 X76.093 Y73.632 E.00851
G1 X75.631 Y73.778 E.01518
G1 X75.258 Y73.835 E.01185
G1 X75 Y73.846 E.00809
G1 X74.742 Y73.835 E.00809
G1 X74.369 Y73.778 E.01185
G1 X73.907 Y73.632 E.01518
G1 X73.661 Y73.517 E.00851
G1 X73.338 Y73.321 E.01185
G1 X72.957 Y73.002 E.01559
G1 X72.642 Y72.626 E.01539
G1 X72.496 Y72.397 E.00851
G1 X72.334 Y72.07 E.01143
G1 X72.244 Y71.821 E.00831
G1 X72.154 Y71.454 E.01184
G1 X72.111 Y70.958 E.01559
G1 X72.154 Y70.463 E.01559
G1 X72.244 Y70.096 E.01185
G1 X72.334 Y69.847 E.0083
G1 X72.496 Y69.52 E.01144
G1 X72.642 Y69.291 E.00851
G1 X72.957 Y68.915 E.01538
G1 X73.338 Y68.596 E.01559
G1 X73.661 Y68.4 E.01185
G1 X73.907 Y68.285 E.00851
G1 X74.362 Y68.142 E.01498
G1 X74.629 Y68.095 E.00849
G1 X74.998 Y68.07 E.0116
G1 X75.495 Y68.112 E.01563
G1 X75.862 Y68.202 E.01187
G1 X76.105 Y68.291 E.0081
G1 X76.339 Y68.4 E.00809
G1 X76.655 Y68.591 E.0116
G1 X77.043 Y68.915 E.01583
G1 X77.358 Y69.291 E.0154
G1 X77.504 Y69.52 E.00851
G1 X77.666 Y69.847 E.01144
G1 X77.756 Y70.096 E.00831
G1 X77.846 Y70.463 E.01184
G1 X77.887 Y70.932 E.01474
M204 S1250
G1 X77.511 Y70.958 F9000
M204 S800
;TYPE:External perimeter
G1 F1200
G1 X77.473 Y71.392 E.01365
G1 X77.395 Y71.711 E.01029
G1 X77.318 Y71.921 E.00702
G1 X77.175 Y72.212 E.01014
G1 X77.054 Y72.402 E.00709
G1 X76.775 Y72.734 E.01358
G1 X76.442 Y73.014 E.01365
G1 X76.161 Y73.184 E.0103
G1 X75.956 Y73.28 E.00709
G1 X75.546 Y73.409 E.01351
G1 X75.221 Y73.459 E.0103
G1 X75 Y73.469 E.00693
G1 X74.779 Y73.459 E.00693
G1 X74.454 Y73.409 E.0103
G1 X74.044 Y73.28 E.01351
G1 X73.839 Y73.184 E.00708
G1 X73.558 Y73.014 E.0103
G1 X73.225 Y72.734 E.01365
G1 X72.946 Y72.402 E.01358
G1 X72.825 Y72.212 E.00709
G1 X72.682 Y71.921 E.01014
G1 X72.605 Y71.711 E.00702
G1 X72.527 Y71.392 E.01029
G1 X72.489 Y70.959 E.01365
G1 X72.527 Y70.525 E.01365
G1 X72.605 Y70.206 E.01029
G1 X72.682 Y69.996 E.00702
G1 X72.825 Y69.705 E.01015
G1 X72.946 Y69.515 E.00709
G1 X73.225 Y69.183 E.01358
G1 X73.558 Y68.903 E.01365
G1 X73.839 Y68.733 E.0103
G1 X74.044 Y68.637 E.00709
G1 X74.452 Y68.509 E.01343
G1 X74.674 Y68.469 E.00707
G1 X74.994 Y68.448 E.01006
G1 X75.434 Y68.486 E.01382
G1 X75.753 Y68.564 E.0103
G1 X75.961 Y68.639 E.00694
G1 X76.161 Y68.733 E.00694
G1 X76.435 Y68.899 E.01006
G1 X76.775 Y69.183 E.01388
G1 X77.054 Y69.515 E.01358
G1 X77.175 Y69.705 E.00709
G1 X77.318 Y69.996 E.01015
G1 X77.395 Y70.206 E.00702
G1 X77.473 Y70.525 E.01029
G1 X77.506 Y70.899 E.01177
M204 S1250
G1 X77.856 Y71.161 F9000
G1 E-2.24 F4200
;WIPE_START
G1 F7200
G1 X77.473 Y71.392 E-.27409
G1 X77.395 Y71.711 E-.18195
G1 X77.318 Y71.921 E-.12403
G1 X77.175 Y72.212 E-.1793
G1 X77.054 Y72.402 E-.12529
G1 X77.022 Y72.44 E-.02735
;WIPE_END
G1 E-.048 F4200
G1 Z.4 F9000
G1 X75.463 Y80.212
G1 Z.2
G1 E3.2 F2400
M204 S800
;TYPE:Perimeter
G1 F1200
G1 X75.754 Y80.273 E.0093
G1 X76.105 Y80.392 E.01165
G1 X76.439 Y80.556 E.01165
G1 X76.667 Y80.702 E.0085
G1 X77.043 Y81.018 E.01539
G1 X77.358 Y81.393 E.01538
G1 X77.504 Y81.622 E.00851
G1 X77.666 Y81.95 E.01144
G1 X77.756 Y82.198 E.0083
G1 X77.846 Y82.565 E.01185
G1 X77.889 Y83.061 E.01559
G1 X77.846 Y83.556 E.01559
G1 X77.756 Y83.923 E.01185
G1 X77.668 Y84.166 E.0081
G1 X77.559 Y84.399 E.00808
G1 X77.367 Y84.716 E.0116
G1 X77.044 Y85.103 E.01583
G1 X76.662 Y85.423 E.01561
G1 X76.339 Y85.619 E.01185
G1 X76.105 Y85.729 E.0081
G1 X75.862 Y85.817 E.00809
G1 X75.495 Y85.907 E.01185
G1 X75 Y85.95 E.01559
G1 X74.505 Y85.907 E.01559
G1 X74.138 Y85.817 E.01185
G1 X73.895 Y85.729 E.00809
G1 X73.661 Y85.619 E.0081
G1 X73.338 Y85.423 E.01185
G1 X72.957 Y85.104 E.01559
G1 X72.642 Y84.728 E.01538
G1 X72.496 Y84.499 E.00851
G1 X72.334 Y84.172 E.01144
G1 X72.244 Y83.923 E.0083
G1 X72.154 Y83.556 E.01185
G1 X72.111 Y83.061 E.01559
G1 X72.154 Y82.565 E.01559
G1 X72.244 Y82.198 E.01185
G1 X72.332 Y81.956 E.0081
G1 X72.441 Y81.722 E.00808
G1 X72.633 Y81.405 E.0116
G1 X72.956 Y81.018 E.01583
G1 X73.333 Y80.702 E.01541
G1 X73.561 Y80.556 E.0085
G1 X73.901 Y80.389 E.01185
G1 X74.362 Y80.244 E.01519
G1 X74.629 Y80.197 E.00849
G1 X74.998 Y80.172 E.01159
G1 X75.404 Y80.207 E.01276
M204 S1250
G1 X75.431 Y80.588 F9000
M204 S800
;TYPE:External perimeter
G1 F1200
G1 X75.652 Y80.636 E.00709
G1 X75.961 Y80.741 E.01022
G1 X76.253 Y80.886 E.01023
G1 X76.444 Y81.007 E.00708
G1 X76.775 Y81.285 E.01358
G1 X77.054 Y81.617 E.01358
G1 X77.175 Y81.807 E.00708
G1 X77.318 Y82.098 E.01015
G1 X77.395 Y82.308 E.00702
G1 X77.473 Y82.627 E.01029
G1 X77.511 Y83.061 E.01365
G1 X77.473 Y83.494 E.01365
G1 X77.395 Y83.813 E.0103
G1 X77.319 Y84.021 E.00694
G1 X77.226 Y84.222 E.00693
G1 X77.06 Y84.496 E.01006
G1 X76.776 Y84.836 E.01389
G1 X76.442 Y85.116 E.01366
G1 X76.161 Y85.286 E.01029
G1 X75.961 Y85.38 E.00694
G1 X75.753 Y85.456 E.00693
G1 X75.434 Y85.534 E.0103
G1 X75 Y85.572 E.01365
G1 X74.566 Y85.534 E.01365
G1 X74.247 Y85.456 E.0103
G1 X74.039 Y85.38 E.00693
G1 X73.839 Y85.286 E.00694
G1 X73.558 Y85.116 E.0103
G1 X73.225 Y84.836 E.01365
G1 X72.946 Y84.504 E.01358
G1 X72.825 Y84.314 E.00708
G1 X72.682 Y84.024 E.01015
G1 X72.605 Y83.813 E.00701
G1 X72.527 Y83.494 E.01029
G1 X72.489 Y83.061 E.01365
G1 X72.527 Y82.627 E.01365
G1 X72.605 Y82.308 E.01029
G1 X72.681 Y82.1 E.00694
G1 X72.774 Y81.9 E.00693
G1 X72.94 Y81.625 E.01006
G1 X73.224 Y81.285 E.01388
G1 X73.556 Y81.007 E.01359
G1 X73.747 Y80.885 E.00708
G1 X74.041 Y80.74 E.0103
G1 X74.452 Y80.611 E.01351
G1 X74.675 Y80.572 E.00708
G1 X74.994 Y80.55 E.01005
G1 X75.371 Y80.582 E.01186
M204 S1250
G1 X75.573 Y80.411 F9000
G1 E-2.24 F4200
;WIPE_START
G1 F7200
G1 X75.652 Y80.636 E-.15828
G1 X75.961 Y80.741 E-.1807
G1 X76.253 Y80.886 E-.18078
G1 X76.444 Y81.007 E-.12513
G1 X76.775 Y81.285 E-.24003
G1 X76.807 Y81.323 E-.0271
;WIPE_END
G1 E-.048 F4200
G1 Z.4 F9000
G1 X72.711 Y92.413
G1 Z.2
G1 E3.2 F2400
M204 S800
;TYPE:Perimeter
G1 F1200
G1 X73.163 Y92.544 E.01476
G1 X73.544 Y92.743 E.01347
G1 X73.94 Y93.06 E.01591
G1 X74.216 Y93.389 E.01347
G1 X74.46 Y93.834 E.01591
G1 X74.59 Y94.244 E.01346
G1 X74.645 Y94.755 E.01612
G1 X74.59 Y95.266 E.01612
G1 X74.46 Y95.675 E.01346
G1 X74.216 Y96.12 E.01591
G1 X73.94 Y96.449 E.01347
G1 X73.544 Y96.767 E.01591
G1 X73.169 Y96.962 E.01326
G1 X72.766 Y97.089 E.01326
G1 X72.255 Y97.145 E.01612
G1 X71.744 Y97.089 E.01612
G1 X71.34 Y96.962 E.01326
G1 X70.965 Y96.767 E.01326
G1 X70.564 Y96.445 E.01612
G1 X70.243 Y96.044 E.01612
G1 X70.047 Y95.669 E.01326
G1 X69.92 Y95.266 E.01326
G1 X69.864 Y94.755 E.01612
G1 X69.92 Y94.244 E.01612
G1 X70.047 Y93.84 E.01326
G1 X70.243 Y93.465 E.01326
G1 X70.564 Y93.064 E.01612
G1 X70.965 Y92.743 E.01612
G1 X71.34 Y92.547 E.01326
G1 X71.743 Y92.42 E.01324
G1 X72.238 Y92.365 E.01561
G1 X72.653 Y92.4 E.01306
M204 S1250
G1 X72.606 Y92.775 F9000
M204 S800
;TYPE:External perimeter
G1 F1200
G1 X73.022 Y92.896 E.0136
G1 X73.337 Y93.06 E.01114
G1 X73.675 Y93.331 E.01358
G1 X73.904 Y93.603 E.01114
G1 X74.112 Y93.983 E.01358
G1 X74.219 Y94.322 E.01113
G1 X74.266 Y94.755 E.01366
G1 X74.219 Y95.188 E.01366
G1 X74.112 Y95.526 E.01113
G1 X73.904 Y95.906 E.01358
G1 X73.675 Y96.178 E.01114
G1 X73.337 Y96.45 E.01359
G1 X73.024 Y96.613 E.01106
G1 X72.688 Y96.719 E.01106
G1 X72.255 Y96.766 E.01366
G1 X71.822 Y96.719 E.01366
G1 X71.485 Y96.613 E.01106
G1 X71.172 Y96.45 E.01106
G1 X70.833 Y96.177 E.01366
G1 X70.56 Y95.837 E.01366
G1 X70.397 Y95.524 E.01106
G1 X70.291 Y95.188 E.01106
G1 X70.244 Y94.755 E.01366
G1 X70.291 Y94.322 E.01366
G1 X70.397 Y93.985 E.01106
G1 X70.56 Y93.672 E.01106
G1 X70.833 Y93.333 E.01366
G1 X71.172 Y93.06 E.01366
G1 X71.485 Y92.897 E.01106
G1 X71.822 Y92.791 E.01106
G1 X72.243 Y92.744 E.0133
G1 X72.546 Y92.77 E.00954
M204 S1250
G1 X72.865 Y92.47 F9000
G1 E-2.24 F4200
;WIPE_START
G1 F7200
G1 X73.022 Y92.896 E-.273
G1 X73.337 Y93.06 E-.19685
G1 X73.675 Y93.331 E-.24008
G1 X73.904 Y93.603 E-.19687
G1 X73.908 Y93.611 E-.0052
;WIPE_END
G1 E-.048 F4200
G1 Z.4 F9000
G1 X61.482 Y88.138
G1 Z.2
G1 E3.2 F2400
M204 S800
;TYPE:Perimeter
G1 F1200
G1 X61.277 Y88.544 E.01428
G1 X60.959 Y88.94 E.01592
G1 X60.63 Y89.216 E.01347
G1 X60.185 Y89.46 E.01591
G1 X59.775 Y89.59 E.01346
G1 X59.264 Y89.645 E.01612
G1 X58.753 Y89.59 E.01612
G1 X58.344 Y89.46 E.01346
G1 X57.899 Y89.216 E.01591
G1 X57.57 Y88.94 E.01347
G1 X57.252 Y88.544 E.01591
G1 X57.054 Y88.163 E.01347
G1 X56.912 Y87.676 E.01591
G1 X56.875 Y87.255 E.01326
G1 X56.912 Y86.833 E.01326
G1 X57.054 Y86.346 E.01591
G1 X57.252 Y85.965 E.01347
G1 X57.574 Y85.564 E.01612
G1 X57.975 Y85.243 E.01611
G1 X58.35 Y85.047 E.01326
G1 X58.753 Y84.92 E.01324
G1 X59.248 Y84.865 E.01561
G1 X59.685 Y84.902 E.01376
G1 X60.179 Y85.046 E.01615
G1 X60.63 Y85.293 E.01612
G1 X60.959 Y85.569 E.01346
G1 X61.277 Y85.965 E.01592
G1 X61.472 Y86.341 E.01326
G1 X61.599 Y86.744 E.01326
G1 X61.655 Y87.255 E.01612
G1 X61.599 Y87.766 E.01612
G1 X61.5 Y88.08 E.01035
M204 S1250
G1 X61.122 Y88.024 F9000
M204 S800
;TYPE:External perimeter
G1 F1200
G1 X60.959 Y88.337 E.01106
G1 X60.688 Y88.675 E.01359
