; generated by PrusaSlicer 2.3.3 on 2022-01-25 at 22:21:21 UTC


;
;

;
;
; 

; external perimeters extrusion width = 0.45mm
; perimeters extrusion width = 0.45mm
; infill extrusion width = 0.45mm
; solid infill extrusion width = 0.45mm
; top infill extrusion width = 0.40mm
; support material extrusion width = 0.35mm
; first layer extrusion width = 0.42mm

M73 P0 R18
M201 X1250 Y1250 Z400 E5000 ; sets maximum accelerations, mm/sec^2
M203 X180 Y180 Z12 E80 ; sets maximum feedrates, mm/sec
M204 P1250 R1250 T1250 ; sets acceleration (P, T) and retract acceleration (R), mm/sec^2
M205 X8.00 Y8.00 Z2.00 E10.00 ; sets the jerk limits, mm/sec
M205 S0 T0 ; sets the minimum extruding and travel feed rate, mm/sec
M107
;TYPE:Custom
G90 ; use absolute coordinates
M83 ; extruder relative mode
M104 S170 ; set extruder temp for bed leveling
M140 S60 ; set bed temp
M109 R170 ; wait for bed leveling temp
M190 S60 ; wait for bed temp
G28 ; home all without mesh bed level
G29 ; mesh bed leveling 
M104 S215 ; set extruder temp
G92 E0.0
G1 Y-2.0 X179 F2400
G1 Z3 F720
M109 S215 ; wait for extruder temp

; intro line
G1 X170 F1000
G1 Z0.2 F720
G1 X110.0 E8.0 F900
G1 X40.0 E10.0 F700
G92 E0.0

M221 S95 ; set flow
G21 ; set units to millimeters
G90 ; use absolute coordinates
M83 ; use relative distances for extrusion
M900 K0.2 ; Filament gcode LA 1.5
; ; Filament gcode LA 1.0
;LAYER_CHANGE
;Z:0.2
;HEIGHT:0.2
;BEFORE_LAYER_CHANGE
G92 E0.0
;0.2


M73 P1 R17
G1 E-3.20000 F4200.000
G1 Z0.200 F9000.000
;AFTER_LAYER_CHANGE
;0.2
G1 Z0.400
G1 X80.437 Y71.084
G1 Z0.200
G1 E3.20000 F2400.000
M204 S800
;TYPE:Skirt
;WIDTH:0.42
G1 F1200.000
G1 X81.120 Y70.352 E0.03139
G1 X82.004 Y69.812 E0.03249
G1 X82.965 Y69.539 E0.03133
G1 X96.504 Y69.501 E0.42451
G1 X97.229 Y69.572 E0.02284
G1 X97.880 Y69.764 E0.02128
G1 X98.499 Y70.077 E0.02176
G1 X99.036 Y70.486 E0.02115
G1 X99.491 Y70.986 E0.02119
G1 X99.856 Y71.572 E0.02164
G1 X100.115 Y72.241 E0.02251
G1 X100.239 Y72.917 E0.02155
G1 X100.254 Y107.624 E1.08820
G1 X100.085 Y108.563 E0.02993
G1 X99.716 Y109.246 E0.02434
G1 X99.172 Y109.800 E0.02434
G1 X98.498 Y110.178 E0.02422
G1 X97.742 Y110.355 E0.02434
G1 X82.471 Y110.365 E0.47881
G1 X81.548 Y110.196 E0.02942
G1 X80.842 Y109.810 E0.02523
G1 X80.275 Y109.234 E0.02536
G1 X79.899 Y108.517 E0.02536
G1 X79.748 Y107.727 E0.02523
G1 X79.746 Y73.238 E1.08136
M73 P2 R17
G1 X79.804 Y72.596 E0.02021
G1 X79.976 Y71.961 E0.02063
G1 X80.409 Y71.137 E0.02919
M204 S1250
G1 X80.742 Y71.314 F9000.000
M204 S800
G1 F1200.000
G1 X81.402 Y70.609 E0.03030
G1 X82.185 Y70.144 E0.02853
G1 X83.048 Y69.908 E0.02804
G1 X96.504 Y69.878 E0.42191
G1 X97.162 Y69.944 E0.02075
G1 X97.747 Y70.117 E0.01913
G1 X98.302 Y70.398 E0.01949
G1 X98.785 Y70.768 E0.01909
G1 X99.202 Y71.230 E0.01950
G1 X99.541 Y71.787 E0.02045
G1 X99.758 Y72.368 E0.01944
G1 X99.865 Y72.970 E0.01917
G1 X99.877 Y107.619 E1.08640
G1 X99.728 Y108.439 E0.02614
G1 X99.408 Y109.030 E0.02107
G1 X98.931 Y109.509 E0.02119
G1 X98.340 Y109.835 E0.02119
G1 X97.684 Y109.981 E0.02107
G1 X82.481 Y109.988 E0.47667
G1 X81.672 Y109.839 E0.02579
G1 X81.060 Y109.503 E0.02190
G1 X80.573 Y109.003 E0.02190
G1 X80.252 Y108.383 E0.02190
G1 X80.124 Y107.696 E0.02190
G1 X80.123 Y73.240 E1.08036
G1 X80.175 Y72.662 E0.01819
G1 X80.331 Y72.087 E0.01867
G1 X80.713 Y71.367 E0.02557
M204 S1250
; printing object bracket_vertical_front.stl id:0 copy 0
G1 E-2.24000 F4200.000
;WIPE_START
G1 F7200.000
G1 X81.402 Y70.609 E-0.56766
G1 X81.937 Y70.292 E-0.34434
;WIPE_END
G1 E-0.04800 F4200.000
G1 Z0.400 F9000.000
G1 X89.086 Y92.547
G1 Z0.200
G1 E3.20000 F2400.000
M204 S800
;TYPE:Perimeter
G1 F1200.000
G1 X89.488 Y92.420 E0.01324
G1 X89.983 Y92.365 E0.01561
G1 X90.420 Y92.402 E0.01376
G1 X90.909 Y92.544 E0.01594
G1 X91.290 Y92.743 E0.01346
G1 X91.690 Y93.064 E0.01612
G1 X92.012 Y93.465 E0.01612
G1 X92.208 Y93.840 E0.01326
G1 X92.335 Y94.244 E0.01326
G1 X92.390 Y94.748 E0.01591
G1 X92.353 Y95.176 E0.01347
G1 X92.210 Y95.663 E0.01591
G1 X92.012 Y96.044 E0.01346
G1 X91.694 Y96.440 E0.01591
G1 X91.365 Y96.716 E0.01347
G1 X90.920 Y96.960 E0.01591
G1 X90.511 Y97.090 E0.01346
G1 X90.000 Y97.145 E0.01612
G1 X89.489 Y97.090 E0.01612
G1 X89.080 Y96.960 E0.01346
G1 X88.635 Y96.716 E0.01591
G1 X88.306 Y96.440 E0.01347
G1 X87.988 Y96.044 E0.01591
G1 X87.790 Y95.663 E0.01346
G1 X87.647 Y95.176 E0.01591
G1 X87.610 Y94.748 E0.01347
G1 X87.665 Y94.244 E0.01591
G1 X87.792 Y93.840 E0.01326
G1 X87.988 Y93.465 E0.01326
G1 X88.310 Y93.064 E0.01612
G1 X88.710 Y92.743 E0.01612
G1 X89.032 Y92.575 E0.01138
M204 S1250
G1 X88.918 Y93.060 F9000.000
M204 S800
;TYPE:External perimeter
G1 F1200.000
G1 X89.230 Y92.897 E0.01106
G1 X89.567 Y92.791 E0.01106
G1 X89.988 Y92.744 E0.01330
G1 X90.351 Y92.775 E0.01142
G1 X90.767 Y92.896 E0.01360
G1 X91.082 Y93.060 E0.01114
G1 X91.422 Y93.333 E0.01366
G1 X91.695 Y93.672 E0.01366
G1 X91.858 Y93.985 E0.01106
G1 X91.964 Y94.322 E0.01106
G1 X92.011 Y94.752 E0.01359
G1 X91.980 Y95.106 E0.01114
G1 X91.859 Y95.522 E0.01358
G1 X91.695 Y95.837 E0.01113
G1 X91.424 Y96.175 E0.01359
G1 X91.152 Y96.404 E0.01114
G1 X90.772 Y96.612 E0.01358
G1 X90.433 Y96.719 E0.01113
G1 X90.000 Y96.766 E0.01366
G1 X89.567 Y96.719 E0.01366
G1 X89.228 Y96.612 E0.01113
G1 X88.848 Y96.404 E0.01358
G1 X88.576 Y96.175 E0.01114
G1 X88.305 Y95.837 E0.01359
G1 X88.141 Y95.522 E0.01113
G1 X88.020 Y95.106 E0.01358
G1 X87.989 Y94.752 E0.01114
G1 X88.036 Y94.322 E0.01359
G1 X88.142 Y93.985 E0.01106
G1 X88.305 Y93.672 E0.01106
G1 X88.578 Y93.333 E0.01366
G1 X88.871 Y93.098 E0.01178
M204 S1250
G1 X88.897 Y92.708 F9000.000
G1 E-2.24000 F4200.000
;WIPE_START
G1 F7200.000
G1 X89.230 Y92.897 E-0.22823
G1 X89.567 Y92.791 E-0.19541
G1 X89.988 Y92.744 E-0.23499
G1 X90.351 Y92.775 E-0.20182
G1 X90.440 Y92.801 E-0.05154
;WIPE_END
G1 E-0.04800 F4200.000
G1 Z0.400 F9000.000
G1 X90.000 Y82.145
G1 Z0.200
G1 E3.20000 F2400.000
M204 S800
;TYPE:Perimeter
G1 F1200.000
G1 X89.489 Y82.090 E0.01612
G1 X89.080 Y81.960 E0.01346
G1 X88.635 Y81.716 E0.01591
G1 X88.306 Y81.440 E0.01347
G1 X87.988 Y81.044 E0.01591
G1 X87.790 Y80.663 E0.01346
G1 X87.648 Y80.176 E0.01591
G1 X87.610 Y79.748 E0.01347
G1 X87.665 Y79.244 E0.01591
G1 X87.792 Y78.840 E0.01326
G1 X87.988 Y78.465 E0.01326
G1 X88.310 Y78.064 E0.01612
G1 X88.710 Y77.743 E0.01612
G1 X89.086 Y77.547 E0.01326
G1 X89.488 Y77.420 E0.01324
G1 X89.983 Y77.365 E0.01561
G1 X90.420 Y77.402 E0.01376
G1 X90.909 Y77.544 E0.01594
G1 X91.290 Y77.743 E0.01346
G1 X91.690 Y78.064 E0.01612
G1 X92.012 Y78.465 E0.01612
G1 X92.208 Y78.840 E0.01326
G1 X92.335 Y79.244 E0.01326
G1 X92.390 Y79.748 E0.01591
G1 X92.352 Y80.176 E0.01347
G1 X92.210 Y80.663 E0.01591
G1 X92.012 Y81.044 E0.01346
G1 X91.694 Y81.440 E0.01591
G1 X91.365 Y81.716 E0.01347
G1 X90.920 Y81.960 E0.01591
G1 X90.511 Y82.090 E0.01346
G1 X90.060 Y82.139 E0.01424
M204 S1250
G1 X90.019 Y81.764 F9000.000
M204 S800
;TYPE:External perimeter
G1 F1200.000
G1 X89.567 Y81.719 E0.01423
G1 X89.228 Y81.612 E0.01113
G1 X88.848 Y81.404 E0.01358
G1 X88.576 Y81.175 E0.01114
G1 X88.305 Y80.837 E0.01358
G1 X88.141 Y80.522 E0.01113
G1 X88.020 Y80.106 E0.01358
G1 X87.989 Y79.752 E0.01114
G1 X88.036 Y79.322 E0.01359
G1 X88.142 Y78.985 E0.01106
G1 X88.305 Y78.672 E0.01106
G1 X88.578 Y78.333 E0.01366
G1 X88.918 Y78.060 E0.01366
G1 X89.230 Y77.897 E0.01106
G1 X89.567 Y77.791 E0.01106
G1 X89.988 Y77.744 E0.01330
G1 X90.351 Y77.775 E0.01142
G1 X90.767 Y77.896 E0.01360
G1 X91.082 Y78.060 E0.01114
G1 X91.422 Y78.333 E0.01366
G1 X91.695 Y78.672 E0.01366
G1 X91.858 Y78.985 E0.01106
G1 X91.964 Y79.322 E0.01106
G1 X92.011 Y79.752 E0.01359
G1 X91.980 Y80.106 E0.01114
G1 X91.859 Y80.522 E0.01358
G1 X91.695 Y80.837 E0.01113
G1 X91.424 Y81.175 E0.01358
G1 X91.152 Y81.404 E0.01114
M73 P3 R17
G1 X90.772 Y81.612 E0.01358
G1 X90.433 Y81.719 E0.01113
G1 X90.078 Y81.758 E0.01119
M204 S1250
G1 X89.819 Y82.110 F9000.000
G1 E-2.24000 F4200.000
;WIPE_START
G1 F7200.000
G1 X89.567 Y81.719 E-0.28415
G1 X89.228 Y81.612 E-0.19680
G1 X88.848 Y81.404 E-0.24007
G1 X88.584 Y81.182 E-0.19098
;WIPE_END
G1 E-0.04800 F4200.000
G1 Z0.400 F9000.000
G1 X96.684 Y73.158
G1 Z0.200
G1 E3.20000 F2400.000
M204 S800
;TYPE:Perimeter
G1 F1200.000
G1 X96.712 Y73.284 E0.00407
G1 X96.713 Y106.394 E1.03812
G1 X83.287 Y106.394 E0.42096
G1 X83.287 Y73.282 E1.03818
G1 X83.303 Y73.187 E0.00303
G1 X83.381 Y73.085 E0.00404
G1 X83.523 Y73.043 E0.00464
G1 X96.471 Y73.043 E0.40597
G1 X96.604 Y73.072 E0.00427
G1 X96.650 Y73.108 E0.00185
M204 S1250
G1 X96.886 Y72.814 F9000.000
M204 S800
;TYPE:External perimeter
G1 F1200.000
G1 X96.981 Y72.915 E0.00434
G1 X97.041 Y73.023 E0.00387
G1 X97.089 Y73.243 E0.00705
G1 X97.090 Y106.771 E1.05124
G1 X82.910 Y106.771 E0.44460
G1 X82.910 Y73.266 E1.05051
G1 X82.955 Y73.034 E0.00741
G1 X83.051 Y72.875 E0.00583
G1 X83.163 Y72.773 E0.00474
G1 X83.297 Y72.703 E0.00474
G1 X83.486 Y72.666 E0.00604
G1 X96.512 Y72.666 E0.40843
G1 X96.734 Y72.715 E0.00712
G1 X96.839 Y72.777 E0.00385
M204 S1250
G1 X96.866 Y72.951 F9000.000
G1 X96.429 Y73.620
M204 S800
;TYPE:Solid infill
G1 F1200.000
G1 X96.314 Y73.735 E0.00511
G1 X96.047 Y73.469 E0.01182
G1 X95.514 Y74.002 E0.02365
G1 X95.781 Y74.269 E0.01182
G1 X96.047 Y74.002 E0.01182
G1 X96.314 Y74.269 E0.01182
G1 X96.047 Y74.535 E0.01182
G1 X96.314 Y74.802 E0.01182
G1 X96.429 Y74.687 E0.00511
M204 S1250
G1 X96.429 Y75.220 F9000.000
M204 S800
G1 F1200.000
G1 X96.047 Y75.602 E0.01693
G1 X96.314 Y75.868 E0.01182
G1 X96.429 Y75.753 E0.00511
M204 S1250
G1 X96.429 Y76.286 F9000.000
M204 S800
G1 F1200.000
G1 X96.314 Y76.402 E0.00511
G1 X96.429 Y76.517 E0.00511
M204 S1250
G1 X96.429 Y76.820 F9000.000
M204 S800
G1 F1200.000
G1 X96.314 Y76.935 E0.00511
G1 X95.781 Y76.402 E0.02365
G1 X96.047 Y76.135 E0.01182
G1 X95.781 Y75.868 E0.01182
G1 X95.248 Y76.402 E0.02365
M73 P4 R17
G1 X95.514 Y76.668 E0.01182
G1 X95.248 Y76.935 E0.01182
G1 X94.981 Y76.668 E0.01182
G1 X94.448 Y77.202 E0.02365
G1 X94.714 Y77.468 E0.01182
G1 X94.981 Y77.202 E0.01182
G1 X95.248 Y77.468 E0.01182
G1 X94.981 Y77.735 E0.01182
G1 X95.248 Y78.001 E0.01182
G1 X95.781 Y77.468 E0.02365
G1 X95.514 Y77.202 E0.01182
G1 X95.781 Y76.935 E0.01182
G1 X96.429 Y77.583 E0.02876
M204 S1250
G1 X96.429 Y77.886 F9000.000
M204 S800
G1 F1200.000
G1 X96.314 Y78.001 E0.00511
G1 X96.047 Y77.735 E0.01182
G1 X95.514 Y78.268 E0.02365
G1 X95.781 Y78.535 E0.01182
G1 X96.047 Y78.268 E0.01182
G1 X96.314 Y78.535 E0.01182
G1 X96.047 Y78.801 E0.01182
G1 X96.314 Y79.068 E0.01182
G1 X96.429 Y78.953 E0.00511
M204 S1250
G1 E-2.24000 F4200.000
;WIPE_START
G1 F7200.000
G1 X96.314 Y79.068 E-0.09040
G1 X96.047 Y78.801 E-0.20896
G1 X96.314 Y78.535 E-0.20896
G1 X96.047 Y78.268 E-0.20896
G1 X95.799 Y78.517 E-0.19471
;WIPE_END
G1 E-0.04800 F4200.000
G1 Z0.400 F9000.000
G1 X92.468 Y80.781
G1 Z0.200
G1 E3.20000 F2400.000
M204 S800
G1 F1200.000
G1 X92.581 Y80.668 E0.00501
G1 X92.521 Y80.608 E0.00266
M204 S1250
G1 X92.635 Y80.189 F9000.000
M204 S800
G1 F1200.000
G1 X93.114 Y80.668 E0.02125
G1 X92.848 Y80.934 E0.01182
G1 X93.114 Y81.201 E0.01182
G1 X93.381 Y80.934 E0.01182
G1 X93.914 Y81.468 E0.02365
G1 X93.648 Y81.734 E0.01182
G1 X93.381 Y81.468 E0.01182
G1 X93.114 Y81.734 E0.01182
G1 X93.381 Y82.001 E0.01182
G1 X93.114 Y82.268 E0.01182
G1 X92.581 Y81.734 E0.02365
G1 X92.848 Y81.468 E0.01182
G1 X92.581 Y81.201 E0.01182
G1 X91.781 Y82.001 E0.03547
G1 X92.048 Y82.268 E0.01182
G1 X92.315 Y82.001 E0.01182
G1 X92.848 Y82.534 E0.02365
G1 X92.581 Y82.801 E0.01182
G1 X92.315 Y82.534 E0.01182
G1 X92.048 Y82.801 E0.01182
G1 X92.315 Y83.067 E0.01182
G1 X92.048 Y83.334 E0.01182
G1 X91.515 Y82.801 E0.02365
G1 X91.781 Y82.534 E0.01182
G1 X91.515 Y82.268 E0.01182
G1 X91.248 Y82.534 E0.01182
G1 X90.959 Y82.245 E0.01283
M204 S1250
G1 X90.550 Y82.370 F9000.000
M204 S800
G1 F1200.000
G1 X90.715 Y82.534 E0.00730
G1 X90.448 Y82.801 E0.01182
G1 X90.181 Y82.534 E0.01182
G1 X89.915 Y82.801 E0.01182
G1 X90.181 Y83.067 E0.01182
G1 X89.915 Y83.334 E0.01182
G1 X89.382 Y82.801 E0.02365
G1 X89.648 Y82.534 E0.01182
G1 X89.488 Y82.374 E0.00711
M204 S1250
G1 X89.317 Y82.332 F9000.000
M204 S800
G1 F1200.000
G1 X88.848 Y82.801 E0.02080
G1 X89.115 Y83.067 E0.01182
G1 X88.848 Y83.334 E0.01182
G1 X88.582 Y83.067 E0.01182
G1 X88.048 Y83.601 E0.02365
G1 X88.315 Y83.867 E0.01182
G1 X88.582 Y83.601 E0.01182
G1 X88.848 Y83.867 E0.01182
G1 X88.582 Y84.134 E0.01182
G1 X88.848 Y84.401 E0.01182
G1 X89.382 Y83.867 E0.02365
G1 X89.115 Y83.601 E0.01182
G1 X89.382 Y83.334 E0.01182
G1 X90.181 Y84.134 E0.03547
G1 X89.915 Y84.401 E0.01182
G1 X89.648 Y84.134 E0.01182
G1 X89.115 Y84.667 E0.02365
G1 X89.382 Y84.934 E0.01182
G1 X89.648 Y84.667 E0.01182
G1 X89.915 Y84.934 E0.01182
G1 X89.648 Y85.201 E0.01182
G1 X89.915 Y85.467 E0.01182
G1 X90.448 Y84.934 E0.02365
G1 X90.181 Y84.667 E0.01182
G1 X90.448 Y84.401 E0.01182
G1 X90.715 Y84.667 E0.01182
G1 X91.248 Y84.134 E0.02365
G1 X90.981 Y83.867 E0.01182
G1 X90.715 Y84.134 E0.01182
G1 X90.181 Y83.601 E0.02365
G1 X90.448 Y83.334 E0.01182
G1 X90.715 Y83.601 E0.01182
G1 X90.981 Y83.334 E0.01182
G1 X90.715 Y83.067 E0.01182
G1 X90.981 Y82.801 E0.01182
G1 X91.515 Y83.334 E0.02365
G1 X91.248 Y83.601 E0.01182
G1 X91.515 Y83.867 E0.01182
G1 X91.781 Y83.601 E0.01182
G1 X92.315 Y84.134 E0.02365
G1 X92.048 Y84.401 E0.01182
G1 X91.781 Y84.134 E0.01182
G1 X91.248 Y84.667 E0.02365
G1 X91.515 Y84.934 E0.01182
G1 X91.781 Y84.667 E0.01182
G1 X92.048 Y84.934 E0.01182
G1 X91.781 Y85.201 E0.01182
G1 X92.048 Y85.467 E0.01182
G1 X92.581 Y84.934 E0.02365
G1 X92.315 Y84.667 E0.01182
G1 X92.581 Y84.401 E0.01182
G1 X93.114 Y84.934 E0.02365
G1 X92.848 Y85.201 E0.01182
G1 X93.114 Y85.467 E0.01182
G1 X93.381 Y85.201 E0.01182
G1 X93.914 Y85.734 E0.02365
G1 X93.648 Y86.000 E0.01182
G1 X93.381 Y85.734 E0.01182
G1 X93.114 Y86.000 E0.01182
G1 X93.381 Y86.267 E0.01182
G1 X93.114 Y86.534 E0.01182
G1 X92.581 Y86.000 E0.02365
G1 X92.848 Y85.734 E0.01182
G1 X92.581 Y85.467 E0.01182
G1 X91.781 Y86.267 E0.03547
G1 X92.048 Y86.534 E0.01182
G1 X92.315 Y86.267 E0.01182
G1 X92.848 Y86.800 E0.02365
G1 X92.581 Y87.067 E0.01182
G1 X92.315 Y86.800 E0.01182
G1 X92.048 Y87.067 E0.01182
G1 X92.315 Y87.334 E0.01182
G1 X92.048 Y87.600 E0.01182
G1 X91.515 Y87.067 E0.02365
G1 X91.781 Y86.800 E0.01182
G1 X91.515 Y86.534 E0.01182
G1 X91.248 Y86.800 E0.01182
G1 X90.715 Y86.267 E0.02365
G1 X90.981 Y86.000 E0.01182
G1 X91.248 Y86.267 E0.01182
G1 X91.781 Y85.734 E0.02365
G1 X91.515 Y85.467 E0.01182
G1 X91.248 Y85.734 E0.01182
G1 X90.981 Y85.467 E0.01182
G1 X91.248 Y85.201 E0.01182
G1 X90.981 Y84.934 E0.01182
G1 X90.448 Y85.467 E0.02365
G1 X90.715 Y85.734 E0.01182
G1 X90.448 Y86.000 E0.01182
G1 X90.181 Y85.734 E0.01182
G1 X89.915 Y86.000 E0.01182
G1 X90.181 Y86.267 E0.01182
G1 X89.915 Y86.534 E0.01182
G1 X89.648 Y86.267 E0.01182
G1 X89.115 Y86.800 E0.02365
G1 X89.382 Y87.067 E0.01182
G1 X89.648 Y86.800 E0.01182
G1 X89.915 Y87.067 E0.01182
G1 X89.648 Y87.334 E0.01182
G1 X89.915 Y87.600 E0.01182
G1 X90.448 Y87.067 E0.02365
G1 X90.181 Y86.800 E0.01182
G1 X90.448 Y86.534 E0.01182
G1 X90.981 Y87.067 E0.02365
G1 X90.715 Y87.334 E0.01182
G1 X90.981 Y87.600 E0.01182
G1 X91.248 Y87.334 E0.01182
G1 X91.781 Y87.867 E0.02365
G1 X91.515 Y88.134 E0.01182
G1 X91.248 Y87.867 E0.01182
G1 X90.981 Y88.134 E0.01182
G1 X91.248 Y88.400 E0.01182
G1 X90.981 Y88.667 E0.01182
G1 X90.448 Y88.134 E0.02365
G1 X90.715 Y87.867 E0.01182
G1 X90.448 Y87.600 E0.01182
G1 X89.648 Y88.400 E0.03547
G1 X89.915 Y88.667 E0.01182
G1 X90.181 Y88.400 E0.01182
G1 X90.715 Y88.933 E0.02365
G1 X90.448 Y89.200 E0.01182
G1 X90.181 Y88.933 E0.01182
G1 X89.915 Y89.200 E0.01182
G1 X90.181 Y89.467 E0.01182
G1 X89.915 Y89.733 E0.01182
G1 X89.382 Y89.200 E0.02365
G1 X89.648 Y88.933 E0.01182
G1 X89.382 Y88.667 E0.01182
G1 X89.115 Y88.933 E0.01182
G1 X88.582 Y88.400 E0.02365
G1 X88.848 Y88.134 E0.01182
G1 X89.115 Y88.400 E0.01182
G1 X89.648 Y87.867 E0.02365
G1 X89.382 Y87.600 E0.01182
G1 X89.115 Y87.867 E0.01182
G1 X88.848 Y87.600 E0.01182
G1 X89.115 Y87.334 E0.01182
G1 X88.848 Y87.067 E0.01182
G1 X88.315 Y87.600 E0.02365
G1 X88.582 Y87.867 E0.01182
G1 X88.315 Y88.134 E0.01182
G1 X87.782 Y87.600 E0.02365
G1 X88.048 Y87.334 E0.01182
