; generated by PrusaSlicer 2.3.3 on 2022-01-25 at 22:17:42 UTC


;
;

;
;
; 

; external perimeters extrusion width = 0.45mm
; perimeters extrusion width = 0.45mm
; infill extrusion width = 0.45mm
; solid infill extrusion width = 0.45mm
; top infill extrusion width = 0.40mm
; support material extrusion width = 0.35mm
; first layer extrusion width = 0.42mm

M73 P0 R20
M201 X1250 Y1250 Z400 E5000 ; sets maximum accelerations, mm/sec^2
M203 X180 Y180 Z12 E80 ; sets maximum feedrates, mm/sec
M204 P1250 R1250 T1250 ; sets acceleration (P, T) and retract acceleration (R), mm/sec^2
M205 X8.00 Y8.00 Z2.00 E10.00 ; sets the jerk limits, mm/sec
M205 S0 T0 ; sets the minimum extruding and travel feed rate, mm/sec
M107
;TYPE:Custom
G90 ; use absolute coordinates
M83 ; extruder relative mode
M104 S170 ; set extruder temp for bed leveling
M140 S60 ; set bed temp
M109 R170 ; wait for bed leveling temp
M190 S60 ; wait for bed temp
G28 ; home all without mesh bed level
G29 ; mesh bed leveling 
M104 S215 ; set extruder temp
G92 E0.0
G1 Y-2.0 X179 F2400
G1 Z3 F720
M109 S215 ; wait for extruder temp

; intro line
G1 X170 F1000
G1 Z0.2 F720
G1 X110.0 E8.0 F900
G1 X40.0 E10.0 F700
G92 E0.0

M221 S95 ; set flow
G21 ; set units to millimeters
G90 ; use absolute coordinates
M83 ; use relative distances for extrusion
M900 K0.2 ; Filament gcode LA 1.5
; ; Filament gcode LA 1.0
;LAYER_CHANGE
;Z:0.2
;HEIGHT:0.2
;BEFORE_LAYER_CHANGE
G92 E0.0
;0.2


M73 P1 R19
G1 E-3.20000 F4200.000
G1 Z0.200 F9000.000
;AFTER_LAYER_CHANGE
;0.2
G1 Z0.400
G1 X56.309 Y52.365
G1 Z0.200
G1 E3.20000 F2400.000
M204 S800
;TYPE:Skirt
;WIDTH:0.42
G1 F1200.000
G1 X123.101 Y52.316 E2.09422
G1 X123.965 Y52.424 E0.02731
G1 X124.809 Y52.772 E0.02862
G1 X125.507 Y53.309 E0.02761
G1 X126.035 Y53.997 E0.02719
G1 X132.705 Y65.589 E0.41932
G1 X132.932 Y66.320 E0.02401
G1 X132.989 Y67.078 E0.02384
G1 X132.867 Y67.859 E0.02479
G1 X132.578 Y68.570 E0.02405
G1 X99.430 Y125.987 E2.07876
M73 P2 R19
G1 X99.050 Y126.521 E0.02054
G1 X98.546 Y126.994 E0.02168
G1 X97.985 Y127.340 E0.02065
G1 X97.342 Y127.578 E0.02151
G1 X96.652 Y127.681 E0.02185
G1 X83.390 Y127.683 E0.41585
G1 X82.607 Y127.564 E0.02483
G1 X81.853 Y127.255 E0.02555
G1 X81.129 Y126.712 E0.02836
G1 X80.586 Y126.014 E0.02775
G1 X47.428 Y68.582 E2.07930
G1 X47.111 Y67.778 E0.02711
G1 X47.008 Y66.933 E0.02668
G1 X47.122 Y66.081 E0.02695
G1 X47.433 Y65.312 E0.02601
G1 X54.105 Y53.776 E0.41785
G1 X54.527 Y53.276 E0.02052
G1 X55.063 Y52.850 E0.02145
G1 X55.681 Y52.538 E0.02173
G1 X56.251 Y52.381 E0.01852
M204 S1250
; printing object bracket_flat_center.stl id:0 copy 0
G1 E-2.24000 F4200.000
;WIPE_START
G1 F7200.000
G1 X57.896 Y52.379 E-0.91200
;WIPE_END
G1 E-0.04800 F4200.000
G1 Z0.400 F9000.000
G1 X88.737 Y100.837
G1 Z0.200
G1 E3.20000 F2400.000
M204 S800
;TYPE:Perimeter
G1 F1200.000
G1 X89.105 Y100.646 E0.01299
G1 X89.499 Y100.522 E0.01297
G1 X89.983 Y100.468 E0.01527
G1 X90.412 Y100.504 E0.01349
G1 X90.889 Y100.643 E0.01560
G1 X91.263 Y100.837 E0.01319
G1 X91.650 Y101.148 E0.01557
G1 X91.920 Y101.470 E0.01319
G1 X92.162 Y101.912 E0.01578
G1 X92.303 Y102.395 E0.01577
G1 X92.340 Y102.814 E0.01319
G1 X92.286 Y103.308 E0.01557
G1 X92.161 Y103.703 E0.01299
G1 X91.970 Y104.070 E0.01299
G1 X91.659 Y104.457 E0.01557
G1 X91.337 Y104.728 E0.01320
G1 X90.896 Y104.970 E0.01578
G1 X90.413 Y105.111 E0.01577
G1 X90.000 Y105.147 E0.01299
G1 X89.587 Y105.111 E0.01299
G1 X89.104 Y104.970 E0.01577
G1 X88.663 Y104.728 E0.01578
G1 X88.341 Y104.457 E0.01320
G1 X88.030 Y104.070 E0.01557
G1 X87.839 Y103.703 E0.01299
G1 X87.714 Y103.308 E0.01299
G1 X87.660 Y102.814 E0.01557
G1 X87.697 Y102.395 E0.01319
G1 X87.838 Y101.912 E0.01577
G1 X88.080 Y101.470 E0.01578
G1 X88.350 Y101.148 E0.01319
G1 X88.691 Y100.875 E0.01369
M204 S1250
G1 X88.927 Y101.169 F9000.000
M204 S800
;TYPE:External perimeter
G1 F1200.000
G1 X89.250 Y100.996 E0.01149
G1 X89.578 Y100.892 E0.01078
G1 X89.988 Y100.847 E0.01296
G1 X90.343 Y100.876 E0.01115
G1 X90.748 Y100.995 E0.01325
G1 X91.056 Y101.155 E0.01086
G1 X91.385 Y101.419 E0.01324
G1 X91.608 Y101.684 E0.01086
G1 X91.812 Y102.057 E0.01332
G1 X91.931 Y102.465 E0.01332
G1 X91.961 Y102.810 E0.01086
G1 X91.915 Y103.230 E0.01324
G1 X91.812 Y103.558 E0.01079
G1 X91.653 Y103.863 E0.01079
G1 X91.388 Y104.192 E0.01324
G1 X91.123 Y104.415 E0.01087
G1 X90.750 Y104.619 E0.01332
G1 X90.343 Y104.738 E0.01331
G1 X90.000 Y104.768 E0.01079
G1 X89.657 Y104.738 E0.01079
G1 X89.250 Y104.619 E0.01331
G1 X88.877 Y104.415 E0.01332
G1 X88.612 Y104.192 E0.01087
G1 X88.347 Y103.863 E0.01324
G1 X88.188 Y103.558 E0.01079
G1 X88.085 Y103.230 E0.01079
G1 X88.039 Y102.810 E0.01324
G1 X88.069 Y102.465 E0.01086
G1 X88.188 Y102.057 E0.01332
G1 X88.392 Y101.684 E0.01332
G1 X88.615 Y101.419 E0.01086
G1 X88.880 Y101.207 E0.01065
M204 S1250
G1 X88.905 Y100.803 F9000.000
G1 E-2.24000 F4200.000
;WIPE_START
G1 F7200.000
G1 X89.250 Y100.996 E-0.23592
G1 X89.578 Y100.892 E-0.19051
G1 X89.988 Y100.847 E-0.22899
G1 X90.343 Y100.876 E-0.19704
G1 X90.446 Y100.906 E-0.05954
;WIPE_END
G1 E-0.04800 F4200.000
G1 Z0.400 F9000.000
G1 X89.983 Y115.468
G1 Z0.200
G1 E3.20000 F2400.000
M204 S800
;TYPE:Perimeter
G1 F1200.000
G1 X90.412 Y115.504 E0.01349
G1 X90.889 Y115.643 E0.01560
G1 X91.263 Y115.837 E0.01319
G1 X91.650 Y116.148 E0.01557
G1 X91.920 Y116.470 E0.01319
G1 X92.162 Y116.911 E0.01576
G1 X92.301 Y117.385 E0.01547
G1 X92.340 Y117.813 E0.01349
G1 X92.286 Y118.308 E0.01560
G1 X92.161 Y118.703 E0.01299
G1 X91.970 Y119.070 E0.01299
G1 X91.659 Y119.457 E0.01557
G1 X91.337 Y119.728 E0.01320
G1 X90.896 Y119.970 E0.01578
G1 X90.413 Y120.111 E0.01577
G1 X90.000 Y120.147 E0.01299
G1 X89.587 Y120.111 E0.01299
G1 X89.104 Y119.970 E0.01577
G1 X88.663 Y119.728 E0.01578
G1 X88.341 Y119.457 E0.01320
G1 X88.030 Y119.070 E0.01557
G1 X87.839 Y118.703 E0.01299
G1 X87.714 Y118.308 E0.01299
G1 X87.660 Y117.814 E0.01557
G1 X87.697 Y117.395 E0.01319
G1 X87.838 Y116.912 E0.01577
G1 X88.080 Y116.470 E0.01578
G1 X88.350 Y116.148 E0.01319
G1 X88.737 Y115.837 E0.01557
G1 X89.105 Y115.646 E0.01299
G1 X89.499 Y115.522 E0.01297
G1 X89.923 Y115.474 E0.01339
M204 S1250
G1 X89.965 Y115.849 F9000.000
M204 S800
;TYPE:External perimeter
G1 F1200.000
G1 X90.343 Y115.876 E0.01186
G1 X90.748 Y115.995 E0.01325
G1 X91.056 Y116.155 E0.01086
G1 X91.385 Y116.419 E0.01324
G1 X91.608 Y116.684 E0.01086
G1 X91.812 Y117.057 E0.01331
G1 X91.929 Y117.455 E0.01303
G1 X91.961 Y117.809 E0.01115
G1 X91.915 Y118.230 E0.01325
G1 X91.812 Y118.558 E0.01079
G1 X91.653 Y118.863 E0.01079
G1 X91.388 Y119.192 E0.01324
G1 X91.123 Y119.415 E0.01087
G1 X90.750 Y119.619 E0.01332
G1 X90.343 Y119.738 E0.01331
G1 X90.000 Y119.768 E0.01079
G1 X89.657 Y119.738 E0.01079
G1 X89.250 Y119.619 E0.01331
G1 X88.877 Y119.415 E0.01332
G1 X88.612 Y119.192 E0.01087
G1 X88.347 Y118.863 E0.01324
G1 X88.188 Y118.558 E0.01079
G1 X88.085 Y118.230 E0.01079
G1 X88.039 Y117.810 E0.01324
G1 X88.069 Y117.465 E0.01086
G1 X88.188 Y117.057 E0.01332
G1 X88.392 Y116.684 E0.01332
G1 X88.615 Y116.419 E0.01086
G1 X88.944 Y116.155 E0.01324
G1 X89.250 Y115.996 E0.01079
G1 X89.578 Y115.892 E0.01078
G1 X89.906 Y115.856 E0.01035
M204 S1250
G1 X90.148 Y115.518 F9000.000
G1 E-2.24000 F4200.000
;WIPE_START
G1 F7200.000
G1 X90.343 Y115.876 E-0.24238
G1 X90.748 Y115.995 E-0.23423
G1 X91.056 Y116.155 E-0.19202
G1 X91.385 Y116.419 E-0.23407
G1 X91.396 Y116.432 E-0.00930
;WIPE_END
G1 E-0.04800 F4200.000
G1 Z0.400 F9000.000
G1 X60.601 Y66.492
G1 Z0.200
G1 E3.20000 F2400.000
M204 S800
;TYPE:Perimeter
G1 F1200.000
G1 X60.160 Y66.734 E0.01578
G1 X59.677 Y66.875 E0.01578
G1 X59.258 Y66.912 E0.01319
G1 X58.764 Y66.858 E0.01558
G1 X58.369 Y66.733 E0.01298
G1 X58.002 Y66.542 E0.01299
G1 X57.614 Y66.231 E0.01557
G1 X57.344 Y65.909 E0.01320
G1 X57.102 Y65.468 E0.01578
G1 X56.961 Y64.985 E0.01577
G1 X56.924 Y64.565 E0.01319
G1 X56.979 Y64.072 E0.01557
G1 X57.105 Y63.670 E0.01320
G1 X57.344 Y63.235 E0.01557
G1 X57.610 Y62.918 E0.01300
G1 X57.928 Y62.651 E0.01299
G1 X58.363 Y62.412 E0.01557
G1 X58.764 Y62.286 E0.01317
G1 X59.247 Y62.232 E0.01526
G1 X59.676 Y62.268 E0.01349
G1 X60.160 Y62.409 E0.01580
G1 X60.601 Y62.651 E0.01578
G1 X60.924 Y62.922 E0.01319
G1 X61.234 Y63.309 E0.01557
G1 X61.426 Y63.676 E0.01299
G1 X61.550 Y64.072 E0.01299
G1 X61.604 Y64.565 E0.01557
G1 X61.568 Y64.985 E0.01319
G1 X61.427 Y65.468 E0.01578
G1 X61.185 Y65.909 E0.01578
G1 X60.919 Y66.226 E0.01298
G1 X60.647 Y66.454 E0.01110
M204 S1250
G1 X60.405 Y66.165 F9000.000
M204 S800
;TYPE:External perimeter
G1 F1200.000
G1 X60.015 Y66.384 E0.01402
G1 X59.607 Y66.503 E0.01332
G1 X59.262 Y66.533 E0.01086
G1 X58.842 Y66.487 E0.01325
G1 X58.514 Y66.383 E0.01078
G1 X58.209 Y66.225 E0.01079
G1 X57.879 Y65.960 E0.01324
G1 X57.657 Y65.695 E0.01087
G1 X57.452 Y65.322 E0.01331
G1 X57.334 Y64.915 E0.01332
G1 X57.303 Y64.570 E0.01086
G1 X57.349 Y64.150 E0.01324
G1 X57.454 Y63.819 E0.01087
G1 X57.657 Y63.449 E0.01324
G1 X57.878 Y63.185 E0.01080
G1 X58.142 Y62.964 E0.01079
G1 X58.512 Y62.761 E0.01324
G1 X58.842 Y62.657 E0.01085
G1 X59.253 Y62.611 E0.01295
G1 X59.607 Y62.641 E0.01115
G1 X60.015 Y62.760 E0.01332
G1 X60.387 Y62.964 E0.01332
G1 X60.653 Y63.187 E0.01086
G1 X60.917 Y63.516 E0.01324
G1 X61.076 Y63.821 E0.01079
G1 X61.180 Y64.150 E0.01079
G1 X61.225 Y64.569 E0.01325
G1 X61.195 Y64.915 E0.01086
M73 P3 R19
G1 X61.076 Y65.322 E0.01332
G1 X60.872 Y65.695 E0.01332
G1 X60.651 Y65.958 E0.01079
G1 X60.451 Y66.126 E0.00819
M204 S1250
G1 X60.437 Y66.564 F9000.000
G1 E-2.24000 F4200.000
;WIPE_START
G1 F7200.000
G1 X60.015 Y66.384 E-0.28055
G1 X59.607 Y66.503 E-0.23543
G1 X59.262 Y66.533 E-0.19193
G1 X58.896 Y66.493 E-0.20409
;WIPE_END
G1 E-0.04800 F4200.000
G1 Z0.400 F9000.000
G1 X70.095 Y71.170
G1 Z0.200
G1 E3.20000 F2400.000
M204 S800
;TYPE:Perimeter
G1 F1200.000
G1 X70.334 Y70.735 E0.01557
G1 X70.601 Y70.418 E0.01299
G1 X70.918 Y70.151 E0.01299
G1 X71.353 Y69.912 E0.01557
G1 X71.754 Y69.786 E0.01317
G1 X72.238 Y69.732 E0.01526
G1 X72.667 Y69.768 E0.01349
G1 X73.150 Y69.909 E0.01580
G1 X73.592 Y70.151 E0.01578
G1 X73.914 Y70.422 E0.01319
G1 X74.225 Y70.809 E0.01557
G1 X74.416 Y71.177 E0.01299
G1 X74.541 Y71.572 E0.01299
G1 X74.595 Y72.065 E0.01557
G1 X74.558 Y72.484 E0.01319
G1 X74.419 Y72.961 E0.01558
G1 X74.225 Y73.334 E0.01319
G1 X73.914 Y73.722 E0.01558
G1 X73.592 Y73.992 E0.01319
G1 X73.151 Y74.234 E0.01578
G1 X72.667 Y74.375 E0.01577
G1 X72.248 Y74.412 E0.01319
G1 X71.755 Y74.358 E0.01557
G1 X71.359 Y74.233 E0.01299
G1 X70.992 Y74.042 E0.01299
G1 X70.605 Y73.731 E0.01557
G1 X70.334 Y73.409 E0.01319
G1 X70.092 Y72.967 E0.01578
G1 X69.952 Y72.485 E0.01577
G1 X69.915 Y72.065 E0.01319
G1 X69.969 Y71.572 E0.01557
G1 X70.077 Y71.228 E0.01131
M204 S1250
G1 X70.437 Y71.341 F9000.000
M204 S800
;TYPE:External perimeter
G1 F1200.000
G1 X70.647 Y70.949 E0.01394
G1 X70.868 Y70.685 E0.01079
G1 X71.132 Y70.464 E0.01079
G1 X71.502 Y70.261 E0.01324
G1 X71.832 Y70.157 E0.01086
G1 X72.243 Y70.111 E0.01295
G1 X72.597 Y70.141 E0.01115
G1 X73.005 Y70.260 E0.01332
G1 X73.378 Y70.464 E0.01332
G1 X73.643 Y70.687 E0.01086
G1 X73.908 Y71.016 E0.01325
G1 X74.066 Y71.321 E0.01079
G1 X74.170 Y71.650 E0.01079
G1 X74.216 Y72.069 E0.01325
G1 X74.186 Y72.414 E0.01086
G1 X74.067 Y72.820 E0.01325
G1 X73.908 Y73.127 E0.01086
G1 X73.643 Y73.457 E0.01325
G1 X73.378 Y73.680 E0.01086
G1 X73.005 Y73.884 E0.01332
G1 X72.598 Y74.003 E0.01332
G1 X72.252 Y74.033 E0.01086
G1 X71.833 Y73.987 E0.01324
G1 X71.504 Y73.883 E0.01079
G1 X71.199 Y73.724 E0.01079
G1 X70.870 Y73.460 E0.01324
G1 X70.647 Y73.195 E0.01086
G1 X70.443 Y72.822 E0.01332
G1 X70.324 Y72.415 E0.01331
G1 X70.294 Y72.070 E0.01086
G1 X70.340 Y71.650 E0.01324
G1 X70.419 Y71.398 E0.00827
M204 S1250
G1 X70.193 Y71.024 F9000.000
G1 E-2.24000 F4200.000
;WIPE_START
G1 F7200.000
G1 X70.647 Y70.949 E-0.27917
G1 X70.868 Y70.685 E-0.19077
G1 X71.132 Y70.464 E-0.19077
G1 X71.502 Y70.261 E-0.23402
G1 X71.532 Y70.252 E-0.01726
;WIPE_END
G1 E-0.04800 F4200.000
G1 Z0.400 F9000.000
G1 X86.419 Y80.453
G1 Z0.200
G1 E3.20000 F2400.000
M204 S800
;TYPE:Perimeter
G1 F1200.000
G1 X86.595 Y80.148 E0.01104
G1 X86.800 Y79.854 E0.01124
G1 X87.144 Y79.462 E0.01635
G1 X87.525 Y79.127 E0.01590
G1 X87.830 Y78.912 E0.01169
G1 X88.136 Y78.736 E0.01107
G1 X88.455 Y78.587 E0.01104
G1 X88.786 Y78.466 E0.01104
G1 X89.126 Y78.375 E0.01104
G1 X89.479 Y78.313 E0.01123
G1 X89.979 Y78.279 E0.01570
G1 X90.351 Y78.295 E0.01169
G1 X90.701 Y78.341 E0.01107
G1 X91.051 Y78.418 E0.01125
G1 X91.539 Y78.584 E0.01616
G1 X91.864 Y78.736 E0.01125
G1 X92.169 Y78.912 E0.01104
G1 X92.463 Y79.117 E0.01125
G1 X92.855 Y79.461 E0.01635
G1 X93.190 Y79.842 E0.01590
G1 X93.405 Y80.147 E0.01169
G1 X93.581 Y80.453 E0.01107
G1 X93.733 Y80.777 E0.01123
G1 X93.894 Y81.251 E0.01570
G1 X93.976 Y81.615 E0.01169
G1 X94.022 Y81.965 E0.01107
G1 X94.038 Y82.317 E0.01104
G1 X94.022 Y82.669 E0.01104
G1 X93.976 Y83.018 E0.01104
G1 X93.899 Y83.368 E0.01125
G1 X93.733 Y83.856 E0.01616
G1 X93.581 Y84.181 E0.01125
G1 X93.405 Y84.486 E0.01104
G1 X93.200 Y84.780 E0.01124
G1 X92.856 Y85.172 E0.01635
G1 X92.475 Y85.507 E0.01590
G1 X92.170 Y85.722 E0.01169
G1 X91.864 Y85.898 E0.01107
G1 X91.539 Y86.050 E0.01125
G1 X91.051 Y86.216 E0.01616
G1 X90.701 Y86.293 E0.01125
G1 X90.352 Y86.339 E0.01104
G1 X90.000 Y86.355 E0.01104
G1 X89.648 Y86.339 E0.01104
G1 X89.299 Y86.293 E0.01104
G1 X88.949 Y86.216 E0.01125
G1 X88.461 Y86.050 E0.01616
G1 X88.136 Y85.898 E0.01125
G1 X87.831 Y85.722 E0.01104
G1 X87.537 Y85.517 E0.01125
G1 X87.145 Y85.173 E0.01635
G1 X86.810 Y84.792 E0.01590
G1 X86.595 Y84.487 E0.01169
G1 X86.419 Y84.181 E0.01107
G1 X86.270 Y83.862 E0.01104
G1 X86.147 Y83.525 E0.01125
G1 X86.024 Y83.025 E0.01616
G1 X85.978 Y82.669 E0.01125
G1 X85.962 Y82.317 E0.01104
G1 X85.978 Y81.965 E0.01104
G1 X86.024 Y81.616 E0.01104
G1 X86.101 Y81.266 E0.01125
G1 X86.267 Y80.778 E0.01616
G1 X86.393 Y80.507 E0.00936
M204 S1250
G1 X86.735 Y80.666 F9000.000
M204 S800
;TYPE:External perimeter
G1 F1200.000
G1 X86.913 Y80.350 E0.01137
G1 X87.097 Y80.087 E0.01008
G1 X87.412 Y79.729 E0.01494
G1 X87.759 Y79.423 E0.01450
G1 X88.033 Y79.230 E0.01052
G1 X88.310 Y79.070 E0.01002
G1 X88.599 Y78.935 E0.01001
G1 X88.899 Y78.826 E0.01001
G1 X89.208 Y78.744 E0.01001
G1 X89.524 Y78.688 E0.01008
G1 X89.983 Y78.657 E0.01443
G1 X90.319 Y78.671 E0.01052
G1 X90.636 Y78.712 E0.01002
G1 X90.950 Y78.782 E0.01008
G1 X91.399 Y78.934 E0.01487
G1 X91.690 Y79.070 E0.01008
G1 X91.967 Y79.230 E0.01001
G1 X92.230 Y79.414 E0.01008
G1 X92.588 Y79.729 E0.01494
G1 X92.894 Y80.076 E0.01450
G1 X93.087 Y80.350 E0.01052
G1 X93.247 Y80.627 E0.01002
G1 X93.383 Y80.918 E0.01008
G1 X93.531 Y81.354 E0.01443
G1 X93.605 Y81.681 E0.01052
G1 X93.646 Y81.998 E0.01002
G1 X93.660 Y82.317 E0.01001
G1 X93.646 Y82.636 E0.01001
G1 X93.605 Y82.953 E0.01001
G1 X93.535 Y83.267 E0.01008
G1 X93.383 Y83.716 E0.01487
G1 X93.247 Y84.007 E0.01008
G1 X93.087 Y84.284 E0.01001
G1 X92.903 Y84.547 E0.01008
G1 X92.588 Y84.905 E0.01494
G1 X92.241 Y85.211 E0.01450
G1 X91.967 Y85.404 E0.01052
G1 X91.690 Y85.564 E0.01002
G1 X91.399 Y85.700 E0.01008
G1 X90.950 Y85.852 E0.01487
G1 X90.636 Y85.922 E0.01008
G1 X90.319 Y85.963 E0.01001
G1 X90.000 Y85.977 E0.01001
G1 X89.681 Y85.963 E0.01001
G1 X89.364 Y85.922 E0.01001
G1 X89.050 Y85.852 E0.01008
G1 X88.601 Y85.700 E0.01487
G1 X88.310 Y85.564 E0.01008
G1 X88.033 Y85.404 E0.01001
G1 X87.770 Y85.220 E0.01008
G1 X87.412 Y84.905 E0.01494
G1 X87.106 Y84.558 E0.01450
G1 X86.913 Y84.284 E0.01052
G1 X86.753 Y84.007 E0.01002
G1 X86.618 Y83.718 E0.01001
G1 X86.508 Y83.416 E0.01008
G1 X86.396 Y82.955 E0.01487
G1 X86.354 Y82.636 E0.01008
G1 X86.340 Y82.317 E0.01001
G1 X86.354 Y81.998 E0.01001
G1 X86.395 Y81.681 E0.01001
G1 X86.465 Y81.367 E0.01008
G1 X86.617 Y80.918 E0.01487
G1 X86.710 Y80.721 E0.00684
M204 S1250
G1 X86.535 Y80.363 F9000.000
G1 E-2.24000 F4200.000
;WIPE_START
G1 F7200.000
G1 X86.913 Y80.350 E-0.23416
G1 X87.097 Y80.087 E-0.17822
G1 X87.412 Y79.729 E-0.26399
G1 X87.731 Y79.448 E-0.23562
;WIPE_END
G1 E-0.04800 F4200.000
G1 Z0.400 F9000.000
G1 X105.581 Y72.961
G1 Z0.200
G1 E3.20000 F2400.000
M204 S800
;TYPE:Perimeter
G1 F1200.000
