; generated by PrusaSlicer 2.6.0-alpha6 on 2023-05-07 at 20:49:29 UTC


;
;

;
;
; 

; external perimeters extrusion width = 0.68mm
; perimeters extrusion width = 0.68mm
; infill extrusion width = 0.68mm
; solid infill extrusion width = 0.68mm
; top infill extrusion width = 0.60mm
; support material extrusion width = 0.55mm
; first layer extrusion width = 0.65mm

M73 P0 R37
M201 X2500 Y2500 Z400 E5000 ; sets maximum accelerations, mm/sec^2
M203 X180 Y180 Z12 E80 ; sets maximum feedrates, mm / sec
M204 P1250 R1250 T2500 ; sets acceleration (P, T) and retract acceleration (R), mm/sec^2
M205 X8.00 Y8.00 Z2.00 E10.00 ; sets the jerk limits, mm/sec
M205 S0 T0 ; sets the minimum extruding and travel feed rate, mm/sec
;TYPE:Custom
M862.3 P "MINI" ; printer model check
G90 ; use absolute coordinates
M83 ; extruder relative mode
M104 S170 ; set extruder temp for bed leveling
M140 S60 ; set bed temp
M109 R170 ; wait for bed leveling temp
M190 S60 ; wait for bed temp
M204 T1250 ; set travel acceleration
G28 ; home all without mesh bed level
G29 ; mesh bed leveling 
M204 T2500 ; restore travel acceleration
M104 S215 ; set extruder temp
G92 E0
G1 Y-2 X179 F2400
G1 Z3 F720
M109 S215 ; wait for extruder temp

; intro line
G1 X170 F1000
G1 Z0.2 F720
G1 X110 E8 F900
G1 X40 E10 F700
G92 E0

M221 S95 ; set flow
G21 ; set units to millimeters
G90 ; use absolute coordinates
M83 ; use relative distances for extrusion
M900 K0.12 ; Filament gcode LA 1.5
; ; Filament gcode LA 1.0
M107
;LAYER_CHANGE
;Z:0.2
;HEIGHT:0.2
;BEFORE_LAYER_CHANGE
G92 E0.0
;0.2


G1 E-3.2 F4200
G1 Z.2 F720
;AFTER_LAYER_CHANGE
;0.2
G1 Z.4
G1 X60.513 Y72.645 F9000
G1 Z.2 F720
G1 E3.2 F2400
M204 P800
;TYPE:Skirt/Brim
;WIDTH:0.65
G1 F1200
G1 X61.986 Y71.515 E.09371
G1 X63.595 Y70.482 E.09652
G1 X66.295 Y69.136 E.15229
G1 X69.204 Y68.149 E.15507
G1 X72.105 Y67.579 E.14924
G1 X75 Y67.393 E.14644
G1 X105.057 Y67.394 E1.51724
G1 X108.008 Y67.594 E.1493
G1 X109.838 Y67.917 E.0938
G1 X111.744 Y68.423 E.09955
G1 X114.503 Y69.488 E.14929
G1 X117.194 Y70.964 E.15493
G1 X119.575 Y72.719 E.14931
G1 X121.707 Y74.77 E.14934
G1 X122.901 Y76.193 E.09377
G1 X124.035 Y77.805 E.09949
G1 X125.464 Y80.394 E.14928
G1 X126.263 Y82.323 E.1054
G1 X127.059 Y85.053 E.14355
G1 X127.421 Y87.106 E.10523
G1 X127.606 Y89.943 E.14351
G1 X127.607 Y110 E1.01245
G1 X127.215 Y111.375 E.07217
G1 X126.156 Y112.337 E.07222
G1 X125 Y112.607 E.05992
G1 X55 Y112.607 E3.53352
G1 X53.625 Y112.215 E.07217
M73 P1 R37
G1 X52.663 Y111.156 E.07222
G1 X52.393 Y110 E.05992
G1 X52.393 Y90 E1.00958
G1 X52.484 Y87.973 E.10242
G1 X52.917 Y85.163 E.14352
G1 X53.424 Y83.254 E.0997
G1 X54.092 Y81.402 E.09938
G1 X55.451 Y78.647 E.15507
G1 X56.515 Y76.987 E.09953
G1 X57.718 Y75.426 E.09948
G1 X59.055 Y73.975 E.0996
G1 X60.446 Y72.706 E.09505
M204 P1250
; printing object cake_middle_gasket.stl id:0 copy 0
G1 E-2.24 F4200
;WIPE_START
G1 F7200
G1 X61.816 Y71.646 E-.96
;WIPE_END
G1 Z.4 F720
G1 X84.604 Y75.455 F9000
G1 Z.2 F720
G1 E3.2 F2400
M204 P800
;TYPE:Perimeter
;WIDTH:0.649999
G1 F1200
G1 X84.657 Y75.674 E.01137
G1 X84.933 Y76.38 E.03826
G1 X85.119 Y76.747 E.02077
G1 X85.444 Y77.259 E.03061
G1 X85.696 Y77.582 E.02068
G1 X86.227 Y78.137 E.03877
G1 X86.546 Y78.409 E.02116
G1 X87.052 Y78.762 E.03114
G1 X87.414 Y78.965 E.02095
G1 X87.999 Y79.222 E.03225
G1 X88.493 Y79.395 E.02642
G1 X89.407 Y79.572 E.04699
G1 X90.231 Y79.594 E.04161
G1 X90.985 Y79.511 E.03829
G1 X91.392 Y79.426 E.02099
G1 X92.176 Y79.167 E.04168
G1 X92.646 Y78.92 E.0268
G1 X93.32 Y78.514 E.03972
G1 X93.714 Y78.185 E.02591
G1 X94.119 Y77.792 E.02849
G1 X94.522 Y77.29 E.0325
G1 X94.822 Y76.851 E.02684
G1 X95.102 Y76.312 E.03066
G1 X95.256 Y75.927 E.02093
G1 X95.468 Y75.2 E.03823
G1 X95.545 Y74.79 E.02106
G1 X95.598 Y73.812 E.04944
G1 X95.543 Y73.199 E.03107
G1 X95.336 Y72.344 E.04441
G1 X104.974 Y72.346 E.48651
G1 X105.77 Y72.364 E.04019
G1 X106.539 Y72.414 E.0389
G1 X107.305 Y72.498 E.0389
G1 X108.065 Y72.615 E.03882
G1 X108.821 Y72.765 E.03891
G1 X109.568 Y72.948 E.03882
G1 X110.308 Y73.164 E.03891
G1 X111.038 Y73.411 E.0389
G1 X111.756 Y73.691 E.0389
G1 X112.46 Y74.001 E.03883
G1 X113.152 Y74.342 E.03894
G1 X113.827 Y74.712 E.03886
G1 X114.485 Y75.112 E.03887
G1 X115.126 Y75.539 E.03888
G1 X115.746 Y75.995 E.03885
G1 X116.348 Y76.477 E.03893
G1 X116.926 Y76.984 E.03881
G1 X117.483 Y77.518 E.03895
G1 X118.016 Y78.074 E.03888
G1 X118.523 Y78.652 E.03881
G1 X119.005 Y79.253 E.03889
G1 X119.461 Y79.875 E.03893
G1 X119.889 Y80.515 E.03886
G1 X120.288 Y81.173 E.03884
G1 X120.658 Y81.848 E.03886
G1 X120.999 Y82.54 E.03894
G1 X121.31 Y83.245 E.0389
G1 X121.588 Y83.961 E.03877
G1 X121.836 Y84.692 E.03897
G1 X122.052 Y85.432 E.03891
G1 X122.235 Y86.178 E.03877
G1 X122.385 Y86.935 E.03896
G1 X122.502 Y87.696 E.03887
G1 X122.586 Y88.461 E.03885
G1 X122.636 Y89.23 E.0389
G1 X122.654 Y90.026 E.04019
G1 X122.654 Y102.315 E.62033
G1 X122.162 Y102.13 E.02653
G1 X121.344 Y101.972 E.04205
G1 X120.593 Y101.98 E.03791
G1 X119.774 Y102.148 E.0422
G1 X119.255 Y102.35 E.02811
G1 X118.73 Y102.658 E.03073
G1 X118.393 Y102.91 E.02124
G1 X118.028 Y103.254 E.02532
G1 X117.694 Y103.673 E.02705
G1 X117.471 Y104.033 E.02138
G1 X117.142 Y104.793 E.0418
G1 X116.987 Y105.53 E.03802
G1 X116.973 Y106.355 E.04165
G1 X117.112 Y107.099 E.03821
G1 X117.318 Y107.654 E.02988
G1 X93.683 Y107.654 E1.19307
G1 X93.945 Y106.883 E.0411
G1 X94.04 Y106.055 E.04207
G1 X93.984 Y105.312 E.03761
G1 X93.754 Y104.505 E.04236
G1 X93.582 Y104.126 E.02101
G1 X93.25 Y103.591 E.03178
G1 X92.875 Y103.158 E.02891
G1 X92.479 Y102.814 E.02648
G1 X91.858 Y102.41 E.0374
G1 X91.328 Y102.178 E.0292
G1 X90.757 Y102.031 E.02976
G1 X90.344 Y101.972 E.02106
G1 X89.738 Y101.963 E.03059
G1 X89.18 Y102.044 E.02846
G1 X88.579 Y102.219 E.0316
G1 X88.087 Y102.441 E.02725
G1 X87.393 Y102.91 E.04228
G1 X86.899 Y103.406 E.03534
G1 X86.582 Y103.834 E.02689
G1 X86.287 Y104.408 E.03258
G1 X86.142 Y104.793 E.02077
G1 X85.987 Y105.53 E.03802
G1 X85.973 Y106.355 E.04165
G1 X86.112 Y107.099 E.03821
G1 X86.318 Y107.654 E.02988
G1 X62.683 Y107.654 E1.19307
G1 X62.945 Y106.883 E.0411
G1 X63.04 Y106.055 E.04207
G1 X62.984 Y105.312 E.03761
G1 X62.834 Y104.74 E.02985
G1 X62.551 Y104.072 E.03662
G1 X62.259 Y103.603 E.02789
G1 X61.897 Y103.183 E.02799
G1 X61.554 Y102.869 E.02347
G1 X61.013 Y102.49 E.03334
G1 X60.478 Y102.235 E.02992
G1 X59.757 Y102.031 E.03782
G1 X59.344 Y101.972 E.02106
G1 X58.593 Y101.98 E.03791
G1 X57.774 Y102.148 E.0422
G1 X57.346 Y102.317 E.02323
G1 X57.346 Y90.026 E.62044
G1 X57.364 Y89.23 E.04019
G1 X57.414 Y88.461 E.0389
G1 X57.498 Y87.696 E.03885
G1 X57.615 Y86.935 E.03887
G1 X57.765 Y86.178 E.03896
G1 X57.948 Y85.432 E.03877
G1 X58.164 Y84.692 E.03891
G1 X58.412 Y83.961 E.03897
G1 X58.69 Y83.245 E.03877
G1 X59.001 Y82.54 E.0389
G1 X59.342 Y81.848 E.03894
G1 X59.712 Y81.173 E.03886
G1 X60.111 Y80.515 E.03884
G1 X60.539 Y79.875 E.03886
G1 X60.995 Y79.253 E.03893
G1 X61.477 Y78.652 E.03889
G1 X61.984 Y78.074 E.03881
G1 X62.517 Y77.518 E.03888
G1 X63.074 Y76.984 E.03895
G1 X63.652 Y76.477 E.03881
G1 X64.254 Y75.995 E.03893
G1 X64.874 Y75.539 E.03885
G1 X65.515 Y75.112 E.03888
G1 X66.173 Y74.712 E.03887
G1 X66.848 Y74.342 E.03886
G1 X67.54 Y74.001 E.03894
G1 X68.244 Y73.691 E.03883
G1 X68.962 Y73.411 E.0389
G1 X69.692 Y73.164 E.0389
G1 X70.432 Y72.948 E.03891
G1 X71.179 Y72.765 E.03882
G1 X71.935 Y72.615 E.03891
G1 X72.695 Y72.498 E.03882
G1 X73.461 Y72.414 E.0389
G1 X74.23 Y72.364 E.0389
G1 X75.026 Y72.346 E.04019
G1 X84.652 Y72.344 E.48591
G1 X84.544 Y72.732 E.02033
G1 X84.407 Y73.696 E.04915
G1 X84.415 Y74.491 E.04013
G1 X84.507 Y75.056 E.0289
G1 X84.583 Y75.367 E.01616
M204 P1250
G1 X85.187 Y75.301 F9000
M204 P800
G1 F1200
G1 X85.223 Y75.453 E.00789
G1 X85.631 Y76.422 E.05307
G1 X86.141 Y77.169 E.04566
G1 X86.893 Y77.912 E.05336
G1 X87.399 Y78.264 E.03111
G1 X87.735 Y78.443 E.01922
G1 X88.624 Y78.802 E.0484
G1 X89.446 Y78.966 E.04231
G1 X90.165 Y78.99 E.03631
G1 X91.209 Y78.847 E.05319
G1 X91.877 Y78.633 E.03541
G1 X92.353 Y78.387 E.02705
G1 X92.972 Y78.015 E.03645
G1 X93.437 Y77.624 E.03067
G1 X93.83 Y77.182 E.02986
G1 X94.283 Y76.571 E.03839
G1 X94.673 Y75.757 E.04556
G1 X94.941 Y74.737 E.05324
G1 X94.993 Y73.866 E.04405
G1 X94.884 Y72.96 E.04606
G1 X94.673 Y72.241 E.03782
G1 X94.442 Y71.737 E.02799
G1 X104.981 Y71.739 E.532
G1 X105.796 Y71.757 E.04115
G1 X106.591 Y71.809 E.04022
G1 X107.384 Y71.896 E.04027
G1 X108.171 Y72.017 E.04019
G1 X108.952 Y72.172 E.04019
G1 X109.726 Y72.362 E.04023
G1 X110.491 Y72.585 E.04022
G1 X111.245 Y72.841 E.04019
G1 X111.988 Y73.13 E.04024
G1 X112.717 Y73.45 E.04019
G1 X113.432 Y73.803 E.04025
G1 X114.13 Y74.186 E.04019
G1 X114.811 Y74.599 E.0402
G1 X115.474 Y75.042 E.04025
G1 X116.116 Y75.513 E.04019
G1 X116.738 Y76.012 E.04025
G1 X117.337 Y76.537 E.04021
G1 X117.912 Y77.088 E.0402
G1 X118.464 Y77.664 E.04027
G1 X118.988 Y78.262 E.04014
G1 X119.487 Y78.884 E.04025
G1 X119.958 Y79.526 E.04019
G1 X120.401 Y80.189 E.04025
G1 X120.814 Y80.869 E.04016
G1 X121.197 Y81.568 E.04023
G1 X121.55 Y82.283 E.04025
G1 X121.871 Y83.012 E.04021
G1 X122.159 Y83.754 E.04018
G1 X122.415 Y84.509 E.04024
G1 X122.639 Y85.274 E.04024
G1 X122.828 Y86.047 E.04017
G1 X122.983 Y86.829 E.04024
G1 X123.104 Y87.617 E.04024
G1 X123.191 Y88.408 E.04017
G1 X123.243 Y89.203 E.04022
G1 X123.261 Y90.019 E.0412
G1 X123.261 Y103.419 E.67642
G1 X122.602 Y102.96 E.04054
G1 X122.017 Y102.72 E.03192
G1 X121.317 Y102.579 E.03604
G1 X120.685 Y102.58 E.0319
G1 X119.983 Y102.718 E.03611
G1 X119.402 Y102.961 E.03179
G1 X118.804 Y103.357 E.0362
G1 X118.381 Y103.777 E.03009
G1 X118.07 Y104.2 E.0265
G1 X117.832 Y104.675 E.02682
G1 X117.642 Y105.274 E.03172
G1 X117.566 Y105.985 E.03609
G1 X117.618 Y106.61 E.03166
G1 X117.821 Y107.3 E.03631
G1 X118.111 Y107.861 E.03188
G1 X118.423 Y108.261 E.02561
G1 X92.585 Y108.261 E1.30427
G1 X92.984 Y107.7 E.03475
G1 X93.271 Y107.05 E.03587
G1 X93.407 Y106.431 E.03199
G1 X93.425 Y105.723 E.03575
G1 X93.313 Y105.096 E.03215
G1 X93.056 Y104.429 E.03608
G1 X92.771 Y103.964 E.02753
G1 X92.44 Y103.583 E.02548
G1 X92.12 Y103.304 E.02143
G1 X91.602 Y102.96 E.03139
G1 X91.017 Y102.72 E.03192
G1 X90.496 Y102.597 E.02702
G1 X89.982 Y102.564 E.026
G1 X89.607 Y102.592 E.01898
G1 X88.983 Y102.718 E.03213
G1 X88.402 Y102.961 E.03179
G1 X87.804 Y103.357 E.0362
G1 X87.381 Y103.777 E.03009
G1 X87.016 Y104.3 E.03219
G1 X86.787 Y104.775 E.02662
G1 X86.642 Y105.274 E.02623
G1 X86.566 Y105.985 E.03609
G1 X86.618 Y106.61 E.03166
G1 X86.821 Y107.3 E.03631
G1 X87.111 Y107.861 E.03188
G1 X87.423 Y108.261 E.02561
G1 X61.585 Y108.261 E1.30427
G1 X61.824 Y107.957 E.01952
M73 P2 R37
G1 X62.168 Y107.325 E.03632
G1 X62.358 Y106.726 E.03172
G1 X62.434 Y106.015 E.03609
G1 X62.392 Y105.471 E.02754
G1 X62.259 Y104.935 E.02788
G1 X62.025 Y104.375 E.03064
G1 X61.716 Y103.897 E.02873
G1 X61.196 Y103.359 E.03777
G1 X60.713 Y103.018 E.02985
G1 X60.243 Y102.795 E.02626
G1 X59.539 Y102.605 E.03681
G1 X58.982 Y102.564 E.02819
G1 X58.272 Y102.644 E.03607
G1 X57.668 Y102.833 E.03195
G1 X57.044 Y103.177 E.03597
G1 X56.739 Y103.417 E.01959
G1 X56.739 Y90.019 E.67632
G1 X56.757 Y89.203 E.0412
G1 X56.809 Y88.408 E.04022
G1 X56.896 Y87.617 E.04017
G1 X57.017 Y86.829 E.04024
G1 X57.172 Y86.047 E.04024
G1 X57.361 Y85.274 E.04017
G1 X57.585 Y84.509 E.04024
G1 X57.841 Y83.754 E.04024
G1 X58.129 Y83.012 E.04018
G1 X58.45 Y82.283 E.04021
G1 X58.803 Y81.568 E.04025
G1 X59.186 Y80.87 E.04019
G1 X59.599 Y80.189 E.0402
G1 X60.042 Y79.526 E.04025
G1 X60.513 Y78.884 E.04019
G1 X61.012 Y78.262 E.04025
G1 X61.536 Y77.664 E.04014
G1 X62.088 Y77.088 E.04027
G1 X62.663 Y76.537 E.0402
G1 X63.262 Y76.012 E.04021
G1 X63.884 Y75.513 E.04025
G1 X64.526 Y75.042 E.04019
G1 X65.188 Y74.599 E.04021
G1 X65.87 Y74.186 E.04025
G1 X66.568 Y73.803 E.04019
G1 X67.283 Y73.45 E.04025
G1 X68.012 Y73.13 E.04019
G1 X68.755 Y72.841 E.04024
G1 X69.509 Y72.585 E.04019
G1 X70.274 Y72.362 E.04022
G1 X71.048 Y72.172 E.04023
G1 X71.829 Y72.017 E.04019
G1 X72.616 Y71.896 E.04019
G1 X73.409 Y71.809 E.04027
G1 X74.204 Y71.757 E.04022
G1 X75.019 Y71.739 E.04115
G1 X85.552 Y71.737 E.53169
G1 X85.498 Y71.841 E.00592
G1 X85.142 Y72.837 E.05339
G1 X85.014 Y73.696 E.04384
G1 X85.02 Y74.438 E.03746
G1 X85.166 Y75.214 E.03986
M204 P1250
G1 X85.771 Y75.147 F9000
M204 P800
G1 F1200
G1 X85.788 Y75.232 E.00438
G1 X86.144 Y76.096 E.04717
G1 X86.58 Y76.749 E.03963
G1 X87.241 Y77.414 E.04733
G1 X87.746 Y77.766 E.03107
G1 X87.979 Y77.887 E.01325
G1 X88.756 Y78.209 E.04246
G1 X89.486 Y78.361 E.03764
G1 X90.099 Y78.387 E.03097
G1 X91.027 Y78.268 E.04723
G1 X91.606 Y78.085 E.03065
G1 X92.061 Y77.855 E.02574
G1 X92.582 Y77.55 E.03047
G1 X93.047 Y77.159 E.03067
G1 X93.357 Y76.802 E.02387
G1 X93.744 Y76.291 E.03236
G1 X94.091 Y75.587 E.03962
G1 X94.336 Y74.684 E.04723
G1 X94.389 Y73.919 E.03871
G1 X94.301 Y73.131 E.04002
G1 X94.023 Y72.246 E.04683
G1 X93.635 Y71.547 E.04036
G1 X93.263 Y71.101 E.02932
G1 X93.688 Y71.129 E.0215
G1 X104.988 Y71.132 E.57041
G1 X105.823 Y71.15 E.04216
G1 X106.644 Y71.204 E.04153
G1 X107.463 Y71.294 E.04159
G1 X108.276 Y71.419 E.04152
G1 X109.084 Y71.58 E.04159
G1 X109.883 Y71.775 E.04152
G1 X110.674 Y72.006 E.0416
G1 X111.453 Y72.27 E.04152
G1 X112.221 Y72.569 E.0416
G1 X112.973 Y72.9 E.04147
G1 X113.712 Y73.264 E.04158
G1 X114.434 Y73.66 E.04157
G1 X115.138 Y74.087 E.04156
G1 X115.822 Y74.545 E.04155
G1 X116.486 Y75.031 E.04154
G1 X117.128 Y75.547 E.04158
G1 X117.747 Y76.089 E.04153
G1 X118.341 Y76.659 E.04156
G1 X118.911 Y77.253 E.04156
G1 X119.453 Y77.872 E.04153
G1 X119.969 Y78.514 E.04158
G1 X120.456 Y79.178 E.04157
G1 X120.913 Y79.863 E.04157
G1 X121.34 Y80.566 E.04152
G1 X121.735 Y81.288 E.04154
G1 X122.1 Y82.026 E.04156
G1 X122.432 Y82.78 E.04159
G1 X122.73 Y83.546 E.04149
G1 X122.994 Y84.327 E.04162
G1 X123.225 Y85.117 E.04155
G1 X123.42 Y85.916 E.04152
G1 X123.581 Y86.724 E.04159
G1 X123.706 Y87.537 E.04152
G1 X123.796 Y88.356 E.04159
G1 X123.85 Y89.177 E.04153
G1 X123.868 Y90.012 E.04216
G1 X123.868 Y104.851 E.74906
;WIDTH:0.694404
G1 X123.846 Y105.156 E.01657
;WIDTH:0.738808
M73 P2 R36
G1 X123.824 Y105.462 E.01775
G1 X123.714 Y105.178 E.01762
;WIDTH:0.694404
G1 X123.604 Y104.895 E.01645
;WIDTH:0.649999
G1 X123.363 Y104.443 E.02586
G1 X122.984 Y103.983 E.03009
G1 X122.499 Y103.601 E.03116
G1 X122.041 Y103.369 E.02592
G1 X121.468 Y103.21 E.03002
G1 X120.956 Y103.17 E.02592
G1 X120.364 Y103.244 E.03012
G1 X119.876 Y103.403 E.02591
G1 X119.359 Y103.696 E.03
G1 X118.943 Y104.055 E.02774
G1 X118.625 Y104.457 E.02587
G1 X118.377 Y104.942 E.0275
G1 X118.228 Y105.431 E.0258
G1 X118.172 Y106.024 E.03007
G1 X118.221 Y106.533 E.02581
G1 X118.396 Y107.105 E.03019
G1 X118.637 Y107.557 E.02586
G1 X119.016 Y108.017 E.03009
G1 X119.501 Y108.399 E.03116
G1 X119.959 Y108.631 E.02592
;WIDTH:0.689705
G1 X120.241 Y108.73 E.01607
;WIDTH:0.72941
G1 X120.523 Y108.828 E.01704
G1 X120.215 Y108.848 E.01762
;WIDTH:0.689705
G1 X119.907 Y108.868 E.0166
;WIDTH:0.649999
G1 X91.799 Y108.868 E1.41886
;WIDTH:0.666541
G1 X91.172 Y108.86 E.03252
;WIDTH:0.716107
G1 X90.918 Y108.835 E.01429
;WIDTH:0.765672
G1 X90.665 Y108.81 E.01528
G1 X90.896 Y108.707 E.0152
;WIDTH:0.716107
G1 X91.127 Y108.605 E.01413
;WIDTH:0.666541
G1 X91.641 Y108.304 E.03089
;WIDTH:0.649999
G1 X92.138 Y107.853 E.03388
G1 X92.439 Y107.433 E.02608
G1 X92.685 Y106.893 E.02995
G1 X92.801 Y106.391 E.02601
G1 X92.823 Y105.8 E.02985
G1 X92.739 Y105.291 E.02604
G1 X92.531 Y104.733 E.03006
G1 X92.259 Y104.297 E.02594
G1 X91.868 Y103.872 E.02915
G1 X91.438 Y103.561 E.02679
G1 X90.98 Y103.343 E.0256
G1 X90.468 Y103.21 E.0267
G1 X89.956 Y103.17 E.02592
G1 X89.364 Y103.244 E.03012
G1 X88.876 Y103.403 E.02591
G1 X88.359 Y103.696 E.03
G1 X87.968 Y104.031 E.02599
G1 X87.608 Y104.482 E.02913
G1 X87.377 Y104.942 E.02598
G1 X87.228 Y105.431 E.0258
G1 X87.172 Y106.024 E.03007
G1 X87.221 Y106.533 E.02581
G1 X87.396 Y107.105 E.03019
G1 X87.637 Y107.557 E.02586
G1 X88.016 Y108.017 E.03009
G1 X88.501 Y108.399 E.03116
G1 X88.959 Y108.631 E.02592
;WIDTH:0.689705
G1 X89.241 Y108.73 E.01607
;WIDTH:0.72941
G1 X89.523 Y108.828 E.01704
G1 X89.215 Y108.848 E.01762
