; generated by PrusaSlicer 2.6.0-alpha6 on 2023-05-07 at 20:46:13 UTC


;
;

;
;
; 

; external perimeters extrusion width = 0.68mm
; perimeters extrusion width = 0.68mm
; infill extrusion width = 0.68mm
; solid infill extrusion width = 0.68mm
; top infill extrusion width = 0.60mm
; support material extrusion width = 0.55mm
; first layer extrusion width = 0.65mm

M73 P0 R30
M201 X2500 Y2500 Z400 E5000 ; sets maximum accelerations, mm/sec^2
M203 X180 Y180 Z12 E80 ; sets maximum feedrates, mm / sec
M204 P1250 R1250 T2500 ; sets acceleration (P, T) and retract acceleration (R), mm/sec^2
M205 X8.00 Y8.00 Z2.00 E10.00 ; sets the jerk limits, mm/sec
M205 S0 T0 ; sets the minimum extruding and travel feed rate, mm/sec
;TYPE:Custom
M862.3 P "MINI" ; printer model check
G90 ; use absolute coordinates
M83 ; extruder relative mode
M104 S170 ; set extruder temp for bed leveling
M140 S60 ; set bed temp
M109 R170 ; wait for bed leveling temp
M190 S60 ; wait for bed temp
M204 T1250 ; set travel acceleration
G28 ; home all without mesh bed level
G29 ; mesh bed leveling 
M204 T2500 ; restore travel acceleration
M104 S215 ; set extruder temp
G92 E0
G1 Y-2 X179 F2400
G1 Z3 F720
M109 S215 ; wait for extruder temp

; intro line
G1 X170 F1000
G1 Z0.2 F720
G1 X110 E8 F900
G1 X40 E10 F700
G92 E0

M221 S95 ; set flow
G21 ; set units to millimeters
G90 ; use absolute coordinates
M83 ; use relative distances for extrusion
M900 K0.12 ; Filament gcode LA 1.5
; ; Filament gcode LA 1.0
M107
;LAYER_CHANGE
;Z:0.2
;HEIGHT:0.2
;BEFORE_LAYER_CHANGE
G92 E0.0
;0.2


G1 E-3.2 F4200
G1 Z.2 F720
;AFTER_LAYER_CHANGE
;0.2
G1 Z.4
G1 X53.844 Y67.663 F9000
G1 Z.2 F720
G1 E3.2 F2400
M204 P800
;TYPE:Skirt/Brim
;WIDTH:0.65
G1 F1200
G1 X55 Y67.393 E.05992
G1 X125 Y67.393 E3.53352
G1 X126.375 Y67.785 E.07217
M73 P1 R30
G1 X127.337 Y68.844 E.07222
G1 X127.607 Y70 E.05992
G1 X127.587 Y90.689 E1.04436
G1 X127.268 Y93.665 E.15109
G1 X126.566 Y96.568 E.15076
G1 X125.845 Y98.55 E.10646
G1 X124.573 Y101.129 E.14516
G1 X123.44 Y102.908 E.10647
G1 X121.641 Y105.149 E.14506
G1 X120.149 Y106.641 E.10651
G1 X117.907 Y108.44 E.1451
G1 X116.129 Y109.573 E.10643
G1 X113.549 Y110.845 E.1452
G1 X111.677 Y111.532 E.10066
G1 X109.641 Y112.077 E.10639
G1 X107.677 Y112.418 E.10062
G1 X105.69 Y112.587 E.10066
G1 X75.193 Y112.606 E1.53945
G1 X72.323 Y112.418 E.14518
G1 X70.359 Y112.077 E.10062
G1 X67.486 Y111.248 E.15094
G1 X65.539 Y110.441 E.10639
G1 X62.922 Y108.997 E.15088
G1 X60.602 Y107.296 E.14522
G1 X58.48 Y105.278 E.14782
G1 X57.083 Y103.62 E.10944
G1 X55.484 Y101.227 E.14528
G1 X54.155 Y98.55 E.15087
G1 X53.468 Y96.677 E.10071
G1 X52.923 Y94.64 E.10644
G1 X52.485 Y91.798 E.14515
G1 X52.393 Y89.75 E.10348
G1 X52.393 Y70 E.99696
G1 X52.785 Y68.625 E.07217
G1 X53.778 Y67.724 E.06768
M204 P1250
; printing object cake_cover_back.stl id:0 copy 0
G1 E-2.24 F4200
;WIPE_START
G1 F7200
G1 X55 Y67.393 E-.70159
G1 X55.466 Y67.393 E-.25841
;WIPE_END
G1 Z.4 F720
G1 X59.135 Y78.368 F9000
G1 Z.2 F720
G1 E3.2 F2400
M204 P800
;TYPE:Perimeter
;WIDTH:0.649999
G1 F1200
G1 X59.724 Y78.33 E.02979
G1 X60.219 Y78.214 E.02566
G1 X60.776 Y78.012 E.02991
G1 X61.152 Y77.831 E.02106
G1 X61.668 Y77.489 E.03125
G1 X62.185 Y77.029 E.03493
G1 X62.574 Y76.55 E.03115
G1 X62.842 Y76.118 E.02566
G1 X63.092 Y75.58 E.02995
G1 X63.23 Y75.19 E.02088
G1 X63.354 Y74.578 E.03152
G1 X63.388 Y73.816 E.0385
G1 X63.277 Y73.011 E.04102
G1 X63.062 Y72.346 E.03528
G1 X85.942 Y72.346 E1.15496
G1 X85.699 Y73.099 E.03994
G1 X85.612 Y73.816 E.03646
G1 X85.646 Y74.578 E.0385
G1 X85.862 Y75.464 E.04603
G1 X86.016 Y75.85 E.02098
G1 X86.352 Y76.452 E.0348
G1 X86.735 Y76.935 E.03112
G1 X87.028 Y77.234 E.02113
G1 X87.65 Y77.71 E.03954
G1 X88.108 Y77.961 E.02636
G1 X88.497 Y78.127 E.02135
G1 X89.012 Y78.277 E.02708
G1 X89.488 Y78.36 E.02439
G1 X90.187 Y78.388 E.03531
G1 X90.724 Y78.33 E.02726
G1 X91.219 Y78.214 E.02566
G1 X91.776 Y78.012 E.02991
G1 X92.152 Y77.831 E.02106
G1 X92.668 Y77.489 E.03125
G1 X93.196 Y77.017 E.03575
G1 X93.574 Y76.549 E.03037
G1 X93.842 Y76.118 E.02562
G1 X94.092 Y75.58 E.02995
G1 X94.23 Y75.19 E.02088
G1 X94.354 Y74.578 E.03152
G1 X94.388 Y73.816 E.0385
G1 X94.277 Y73.011 E.04102
G1 X94.062 Y72.346 E.03528
G1 X116.943 Y72.346 E1.15501
G1 X116.699 Y73.101 E.04005
G1 X116.612 Y73.816 E.03636
G1 X116.646 Y74.578 E.0385
G1 X116.862 Y75.464 E.04603
G1 X117.016 Y75.85 E.02098
G1 X117.352 Y76.452 E.0348
G1 X117.735 Y76.935 E.03112
G1 X118.028 Y77.234 E.02113
G1 X118.54 Y77.643 E.03308
G1 X119.108 Y77.961 E.03286
G1 X119.536 Y78.139 E.0234
G1 X120.421 Y78.354 E.04597
G1 X121.278 Y78.378 E.04328
G1 X121.867 Y78.301 E.02999
G1 X122.654 Y78.06 E.04155
G1 X122.654 Y89.725 E.58884
G1 X122.636 Y90.531 E.0407
G1 X122.585 Y91.31 E.03941
G1 X122.5 Y92.086 E.03941
G1 X122.381 Y92.859 E.03948
G1 X122.229 Y93.625 E.03942
G1 X122.043 Y94.384 E.03945
G1 X121.825 Y95.134 E.03943
G1 X121.574 Y95.874 E.03944
G1 X121.291 Y96.601 E.03938
G1 X120.976 Y97.316 E.03944
G1 X120.63 Y98.017 E.03946
G1 X120.254 Y98.702 E.03944
G1 X119.85 Y99.37 E.03941
G1 X119.416 Y100.018 E.03937
G1 X118.954 Y100.648 E.03944
G1 X118.464 Y101.258 E.0395
G1 X117.949 Y101.846 E.03946
G1 X117.409 Y102.41 E.03942
G1 X116.846 Y102.949 E.03934
G1 X116.258 Y103.464 E.03946
G1 X115.648 Y103.954 E.0395
G1 X115.019 Y104.415 E.03937
G1 X114.369 Y104.849 E.03945
G1 X113.702 Y105.255 E.03942
G1 X113.016 Y105.63 E.03946
G1 X112.316 Y105.976 E.03942
G1 X111.601 Y106.29 E.03942
G1 X110.873 Y106.574 E.03945
G1 X110.133 Y106.825 E.03944
G1 X109.384 Y107.043 E.03938
G1 X108.625 Y107.229 E.03945
G1 X107.858 Y107.381 E.03947
G1 X107.087 Y107.5 E.03938
G1 X106.311 Y107.585 E.03941
G1 X105.531 Y107.636 E.03946
G1 X104.724 Y107.654 E.04075
G1 X94.057 Y107.654 E.53846
G1 X94.301 Y106.899 E.04005
G1 X94.388 Y106.184 E.03636
G1 X94.354 Y105.422 E.0385
G1 X94.138 Y104.536 E.04603
G1 X93.984 Y104.15 E.02098
G1 X93.648 Y103.548 E.0348
G1 X93.265 Y103.065 E.03112
G1 X92.972 Y102.766 E.02113
G1 X92.349 Y102.289 E.03961
G1 X91.889 Y102.038 E.02645
G1 X91.503 Y101.873 E.02119
G1 X90.989 Y101.723 E.02703
G1 X90.51 Y101.64 E.02454
G1 X89.809 Y101.612 E.03541
G1 X89.273 Y101.671 E.02722
G1 X88.781 Y101.786 E.0255
G1 X88.224 Y101.988 E.02991
G1 X87.848 Y102.169 E.02106
G1 X87.332 Y102.511 E.03125
G1 X86.813 Y102.974 E.03511
G1 X86.426 Y103.451 E.03101
G1 X86.158 Y103.882 E.02562
G1 X85.908 Y104.42 E.02995
G1 X85.77 Y104.81 E.02088
G1 X85.646 Y105.422 E.03152
G1 X85.612 Y106.184 E.0385
G1 X85.723 Y106.989 E.04102
G1 X85.938 Y107.654 E.03528
G1 X75.276 Y107.654 E.53821
G1 X74.469 Y107.636 E.04075
G1 X73.689 Y107.585 E.03946
G1 X72.913 Y107.5 E.03941
G1 X72.141 Y107.381 E.03943
G1 X71.375 Y107.229 E.03942
G1 X70.616 Y107.043 E.03945
G1 X69.867 Y106.825 E.03938
G1 X69.127 Y106.574 E.03944
G1 X68.399 Y106.29 E.03945
G1 X67.684 Y105.976 E.03942
G1 X66.984 Y105.63 E.03942
G1 X66.298 Y105.255 E.03946
G1 X65.631 Y104.849 E.03942
G1 X64.981 Y104.415 E.03945
G1 X64.352 Y103.954 E.03937
G1 X63.742 Y103.464 E.0395
G1 X63.154 Y102.949 E.03946
G1 X62.591 Y102.41 E.03934
G1 X62.051 Y101.846 E.03942
G1 X61.536 Y101.258 E.03946
G1 X61.046 Y100.648 E.0395
G1 X60.584 Y100.018 E.03944
G1 X60.15 Y99.37 E.03937
G1 X59.746 Y98.702 E.03941
G1 X59.369 Y98.017 E.03947
G1 X59.024 Y97.316 E.03944
G1 X58.709 Y96.601 E.03944
G1 X58.426 Y95.874 E.03938
G1 X58.175 Y95.134 E.03944
G1 X57.957 Y94.384 E.03943
G1 X57.771 Y93.625 E.03945
M73 P2 R30
G1 X57.619 Y92.859 E.03942
G1 X57.5 Y92.086 E.03948
G1 X57.415 Y91.31 E.03941
G1 X57.364 Y90.531 E.03941
G1 X57.346 Y89.725 E.0407
G1 X57.346 Y78.06 E.58884
G1 X58.012 Y78.277 E.03536
G1 X58.815 Y78.388 E.04092
G1 X59.046 Y78.373 E.01169
M204 P1250
G1 X59.109 Y77.766 F9000
M204 P800
G1 F1200
G1 X59.658 Y77.726 E.02779
G1 X60.011 Y77.644 E.01829
G1 X60.837 Y77.312 E.04494
G1 X61.278 Y77.024 E.02659
G1 X61.734 Y76.622 E.03069
G1 X62.1 Y76.17 E.02936
G1 X62.292 Y75.862 E.01832
G1 X62.542 Y75.324 E.02995
G1 X62.711 Y74.756 E.02991
G1 X62.784 Y74.132 E.03171
G1 X62.749 Y73.474 E.03326
G1 X62.556 Y72.706 E.03997
G1 X62.262 Y72.079 E.03496
G1 X62.027 Y71.739 E.02086
G1 X86.973 Y71.739 E1.25924
G1 X86.708 Y72.138 E.02418
G1 X86.36 Y72.955 E.04483
G1 X86.251 Y73.474 E.02677
G1 X86.216 Y74.132 E.03326
G1 X86.306 Y74.819 E.03498
G1 X86.555 Y75.57 E.03994
G1 X86.9 Y76.17 E.03494
G1 X87.418 Y76.769 E.03997
G1 X87.967 Y77.191 E.03495
G1 X88.678 Y77.547 E.04014
G1 X89.182 Y77.694 E.0265
G1 X89.541 Y77.755 E.01838
G1 X90.134 Y77.783 E.02997
G1 X90.658 Y77.726 E.02661
G1 X91.011 Y77.644 E.01829
G1 X91.837 Y77.312 E.04494
G1 X92.278 Y77.024 E.02659
G1 X92.742 Y76.614 E.03126
G1 X93.1 Y76.17 E.02879
G1 X93.292 Y75.862 E.01832
G1 X93.542 Y75.324 E.02995
G1 X93.711 Y74.756 E.02991
G1 X93.784 Y74.132 E.03171
G1 X93.749 Y73.474 E.03326
G1 X93.556 Y72.706 E.03997
G1 X93.262 Y72.079 E.03496
G1 X93.027 Y71.739 E.02086
G1 X117.973 Y71.739 E1.25924
G1 X117.707 Y72.141 E.02433
G1 X117.357 Y72.963 E.0451
G1 X117.251 Y73.474 E.02634
G1 X117.216 Y74.132 E.03326
G1 X117.306 Y74.819 E.03498
G1 X117.555 Y75.57 E.03994
G1 X117.9 Y76.17 E.03494
G1 X118.418 Y76.769 E.03997
G1 X118.871 Y77.134 E.02937
G1 X119.4 Y77.429 E.03057
G1 X119.706 Y77.556 E.01672
G1 X120.474 Y77.749 E.03997
G1 X121.198 Y77.776 E.03657
G1 X121.787 Y77.699 E.02999
G1 X122.139 Y77.609 E.01834
G1 X122.837 Y77.312 E.03829
G1 X123.261 Y77.036 E.02554
G1 X123.261 Y89.731 E.64083
G1 X123.243 Y90.557 E.04171
G1 X123.19 Y91.363 E.04077
G1 X123.102 Y92.166 E.04078
G1 X122.979 Y92.964 E.04076
G1 X122.822 Y93.757 E.04081
G1 X122.63 Y94.541 E.04074
G1 X122.404 Y95.316 E.04075
G1 X122.144 Y96.081 E.04079
G1 X121.852 Y96.834 E.04077
G1 X121.527 Y97.573 E.04075
G1 X121.169 Y98.297 E.04077
G1 X120.78 Y99.005 E.04078
G1 X120.362 Y99.696 E.04077
G1 X119.913 Y100.367 E.04075
G1 X119.435 Y101.018 E.04077
G1 X118.929 Y101.649 E.04083
G1 X118.397 Y102.256 E.04074
G1 X117.839 Y102.839 E.04074
G1 X117.256 Y103.397 E.04074
G1 X116.648 Y103.929 E.04078
G1 X116.018 Y104.436 E.04082
G1 X115.367 Y104.913 E.04074
G1 X114.695 Y105.362 E.0408
G1 X114.005 Y105.78 E.04072
G1 X113.297 Y106.169 E.04078
G1 X112.573 Y106.526 E.04075
G1 X111.833 Y106.851 E.0408
G1 X111.081 Y107.144 E.04074
G1 X110.316 Y107.404 E.04079
G1 X109.541 Y107.63 E.04075
G1 X108.756 Y107.822 E.04079
G1 X107.964 Y107.979 E.04076
G1 X107.166 Y108.102 E.04076
G1 X106.363 Y108.19 E.04078
G1 X105.557 Y108.243 E.04077
G1 X104.731 Y108.261 E.04171
G1 X93.027 Y108.261 E.5908
G1 X93.293 Y107.859 E.02433
G1 X93.643 Y107.037 E.0451
G1 X93.749 Y106.526 E.02634
G1 X93.784 Y105.868 E.03326
G1 X93.694 Y105.181 E.03498
G1 X93.445 Y104.43 E.03994
G1 X93.1 Y103.83 E.03494
G1 X92.582 Y103.231 E.03997
G1 X92.032 Y102.808 E.03502
G1 X91.321 Y102.453 E.04012
G1 X90.819 Y102.306 E.0264
G1 X90.458 Y102.245 E.01848
G1 X89.862 Y102.217 E.03012
G1 X89.34 Y102.274 E.02651
G1 X88.989 Y102.356 E.0182
G1 X88.163 Y102.688 E.04494
G1 X87.722 Y102.976 E.02659
G1 X87.264 Y103.38 E.03083
G1 X86.9 Y103.83 E.02922
G1 X86.708 Y104.138 E.01832
G1 X86.458 Y104.676 E.02995
G1 X86.289 Y105.244 E.02991
G1 X86.216 Y105.868 E.03171
G1 X86.251 Y106.526 E.03326
M73 P2 R29
G1 X86.444 Y107.294 E.03997
G1 X86.738 Y107.921 E.03496
G1 X86.973 Y108.261 E.02086
G1 X75.269 Y108.261 E.5908
G1 X74.443 Y108.243 E.04171
G1 X73.637 Y108.19 E.04077
G1 X72.834 Y108.102 E.04078
G1 X72.036 Y107.979 E.04076
G1 X71.244 Y107.822 E.04076
G1 X70.459 Y107.63 E.04079
G1 X69.684 Y107.404 E.04075
G1 X68.919 Y107.144 E.04079
G1 X68.167 Y106.851 E.04074
G1 X67.427 Y106.526 E.0408
G1 X66.703 Y106.169 E.04075
G1 X65.995 Y105.78 E.04078
G1 X65.305 Y105.362 E.04072
G1 X64.633 Y104.913 E.0408
G1 X63.982 Y104.436 E.04074
G1 X63.352 Y103.929 E.04082
G1 X62.744 Y103.397 E.04078
G1 X62.161 Y102.839 E.04074
G1 X61.603 Y102.256 E.04074
G1 X61.071 Y101.649 E.04074
G1 X60.565 Y101.018 E.04083
G1 X60.087 Y100.367 E.04077
G1 X59.638 Y99.696 E.04075
G1 X59.22 Y99.005 E.04077
G1 X58.831 Y98.297 E.04078
G1 X58.473 Y97.573 E.04077
G1 X58.148 Y96.834 E.04075
G1 X57.856 Y96.081 E.04077
G1 X57.596 Y95.316 E.04079
G1 X57.37 Y94.541 E.04075
G1 X57.178 Y93.757 E.04074
G1 X57.021 Y92.964 E.04081
G1 X56.898 Y92.166 E.04076
G1 X56.81 Y91.363 E.04078
G1 X56.757 Y90.557 E.04077
G1 X56.739 Y89.731 E.04171
G1 X56.739 Y77.036 E.64083
G1 X57.4 Y77.429 E.03882
G1 X58.182 Y77.694 E.04168
G1 X58.868 Y77.784 E.03493
G1 X59.019 Y77.773 E.00764
M204 P1250
G1 X59.006 Y77.172 F9000
M204 P800
G1 F1200
G1 X59.099 Y77.177 E.0047
G1 X59.804 Y77.073 E.03597
G1 X60.45 Y76.833 E.03479
G1 X60.888 Y76.559 E.02608
G1 X61.318 Y76.175 E.0291
G1 X61.741 Y75.605 E.03583
G1 X61.992 Y75.068 E.02992
G1 X62.122 Y74.612 E.02394
G1 X62.179 Y74.079 E.02706
G1 X62.144 Y73.527 E.02792
G1 X61.973 Y72.876 E.03398
G1 X61.724 Y72.359 E.02897
G1 X61.318 Y71.825 E.03386
G1 X60.888 Y71.441 E.0291
G1 X60.36 Y71.132 E.03088
G1 X88.634 Y71.132 E1.42724
G1 X88.112 Y71.441 E.03062
G1 X87.682 Y71.825 E.0291
G1 X87.259 Y72.395 E.03583
G1 X87.008 Y72.932 E.02992
G1 X86.856 Y73.527 E.031
G1 X86.821 Y74.079 E.02792
G1 X86.889 Y74.649 E.02898
G1 X87.093 Y75.29 E.03396
G1 X87.374 Y75.79 E.02895
G1 X87.808 Y76.304 E.03396
G1 X88.259 Y76.659 E.02897
G1 X88.876 Y76.973 E.03495
G1 X89.594 Y77.15 E.03733
G1 X90.164 Y77.17 E.02879
G1 X90.804 Y77.073 E.03268
G1 X91.449 Y76.833 E.03474
G1 X91.888 Y76.559 E.02612
G1 X92.318 Y76.175 E.0291
G1 X92.741 Y75.605 E.03583
G1 X92.992 Y75.068 E.02992
G1 X93.122 Y74.612 E.02394
G1 X93.179 Y74.079 E.02706
G1 X93.144 Y73.527 E.02792
G1 X92.973 Y72.876 E.03398
G1 X92.724 Y72.359 E.02897
G1 X92.318 Y71.825 E.03386
G1 X91.888 Y71.441 E.0291
G1 X91.36 Y71.132 E.03088
G1 X119.634 Y71.132 E1.42724
G1 X119.112 Y71.441 E.03062
G1 X118.682 Y71.825 E.0291
G1 X118.258 Y72.396 E.0359
G1 X118.005 Y72.941 E.03033
G1 X117.856 Y73.527 E.03052
G1 X117.821 Y74.079 E.02792
G1 X117.889 Y74.649 E.02898
G1 X118.093 Y75.29 E.03396
G1 X118.374 Y75.79 E.02895
G1 X118.808 Y76.304 E.03396
G1 X119.259 Y76.659 E.02897
G1 X119.876 Y76.973 E.03495
G1 X120.527 Y77.144 E.03398
G1 X121.119 Y77.174 E.02992
G1 X121.708 Y77.097 E.02999
G1 X122.379 Y76.864 E.03586
G1 X122.776 Y76.639 E.02303
G1 X123.192 Y76.304 E.02696
G1 X123.626 Y75.79 E.03396
G1 X123.868 Y75.333 E.0261
G1 X123.868 Y89.738 E.72715
G1 X123.85 Y90.584 E.04271
G1 X123.795 Y91.416 E.04209
G1 X123.704 Y92.245 E.0421
G1 X123.577 Y93.07 E.04214
G1 X123.414 Y93.888 E.0421
G1 X123.216 Y94.698 E.04209
G1 X122.983 Y95.499 E.04211
G1 X122.715 Y96.289 E.04211
G1 X122.413 Y97.066 E.04208
G1 X122.077 Y97.829 E.04208
G1 X121.708 Y98.577 E.0421
G1 X121.306 Y99.309 E.04216
G1 X120.874 Y100.022 E.04208
G1 X120.411 Y100.715 E.04207
G1 X119.917 Y101.388 E.04214
G1 X119.394 Y102.039 E.04215
G1 X118.845 Y102.666 E.04207
G1 X118.268 Y103.268 E.04209
G1 X117.666 Y103.845 E.04209
G1 X117.038 Y104.395 E.04214
G1 X116.387 Y104.917 E.04212
G1 X115.715 Y105.41 E.04207
G1 X115.022 Y105.874 E.0421
G1 X114.309 Y106.306 E.04208
G1 X113.577 Y106.708 E.04216
G1 X112.829 Y107.076 E.04208
G1 X112.066 Y107.412 E.04208
G1 X111.289 Y107.715 E.0421
G1 X110.499 Y107.983 E.04211
G1 X109.698 Y108.216 E.04211
G1 X108.888 Y108.414 E.04209
G1 X108.069 Y108.577 E.04215
M73 P3 R29
G1 X107.245 Y108.704 E.04209
G1 X106.416 Y108.795 E.0421
G1 X105.584 Y108.849 E.04209
G1 X104.738 Y108.868 E.04272
G1 X91.366 Y108.868 E.675
G1 X91.888 Y108.559 E.03062
G1 X92.318 Y108.175 E.0291
G1 X92.742 Y107.604 E.0359
G1 X92.995 Y107.059 E.03033
G1 X93.144 Y106.473 E.03052
G1 X93.179 Y105.921 E.02792
G1 X93.111 Y105.351 E.02898
G1 X92.907 Y104.71 E.03396
G1 X92.626 Y104.21 E.02895
G1 X92.192 Y103.696 E.03396
G1 X91.74 Y103.34 E.02904
G1 X91.124 Y103.027 E.03488
G1 X90.406 Y102.85 E.03733
G1 X89.825 Y102.831 E.02934
G1 X89.196 Y102.927 E.03212
G1 X88.55 Y103.167 E.03479
G1 X88.112 Y103.441 E.02608
G1 X87.682 Y103.825 E.0291
G1 X87.259 Y104.395 E.03583
G1 X87.008 Y104.932 E.02992
G1 X86.878 Y105.388 E.02394
G1 X86.821 Y105.921 E.02706
G1 X86.856 Y106.473 E.02792
G1 X87.027 Y107.124 E.03398
G1 X87.276 Y107.641 E.02897
G1 X87.682 Y108.175 E.03386
G1 X88.112 Y108.559 E.0291
G1 X88.639 Y108.868 E.03084
G1 X75.262 Y108.868 E.67526
G1 X74.416 Y108.849 E.04272
