; generated by PrusaSlicer 2.6.0-alpha6 on 2023-05-07 at 20:45:20 UTC


;
;

;
;
; 

; external perimeters extrusion width = 0.68mm
; perimeters extrusion width = 0.68mm
; infill extrusion width = 0.68mm
; solid infill extrusion width = 0.68mm
; top infill extrusion width = 0.60mm
; support material extrusion width = 0.55mm
; first layer extrusion width = 0.65mm

M73 P0 R17
M201 X2500 Y2500 Z400 E5000 ; sets maximum accelerations, mm/sec^2
M203 X180 Y180 Z12 E80 ; sets maximum feedrates, mm / sec
M204 P1250 R1250 T2500 ; sets acceleration (P, T) and retract acceleration (R), mm/sec^2
M205 X8.00 Y8.00 Z2.00 E10.00 ; sets the jerk limits, mm/sec
M205 S0 T0 ; sets the minimum extruding and travel feed rate, mm/sec
;TYPE:Custom
M862.3 P "MINI" ; printer model check
G90 ; use absolute coordinates
M83 ; extruder relative mode
M104 S170 ; set extruder temp for bed leveling
M140 S60 ; set bed temp
M109 R170 ; wait for bed leveling temp
M190 S60 ; wait for bed temp
M204 T1250 ; set travel acceleration
G28 ; home all without mesh bed level
G29 ; mesh bed leveling 
M204 T2500 ; restore travel acceleration
M104 S215 ; set extruder temp
G92 E0
G1 Y-2 X179 F2400
G1 Z3 F720
M109 S215 ; wait for extruder temp

; intro line
G1 X170 F1000
G1 Z0.2 F720
G1 X110 E8 F900
G1 X40 E10 F700
G92 E0

M221 S95 ; set flow
G21 ; set units to millimeters
G90 ; use absolute coordinates
M83 ; use relative distances for extrusion
M900 K0.12 ; Filament gcode LA 1.5
; ; Filament gcode LA 1.0
M107
;LAYER_CHANGE
;Z:0.2
;HEIGHT:0.2
;BEFORE_LAYER_CHANGE
G92 E0.0
;0.2


G1 E-3.2 F4200
M73 P1 R17
G1 Z.2 F720
;AFTER_LAYER_CHANGE
;0.2
G1 Z.4
G1 X73.61 Y45.863 F9000
G1 Z.2 F720
G1 E3.2 F2400
M204 P800
;TYPE:Skirt/Brim
;WIDTH:0.65
G1 F1200
G1 X74.775 Y44.357 E.09611
G1 X79.07 Y40.49 E.29173
G1 X80.116 Y39.806 E.06309
G1 X81.145 Y39.291 E.05809
G1 X86.643 Y37.505 E.29181
G1 X87.877 Y37.306 E.0631
G1 X89.026 Y37.255 E.05806
G1 X94.774 Y37.859 E.29175
G1 X96.603 Y38.394 E.09619
G1 X102.059 Y41.49 E.31666
G1 X103.512 Y42.722 E.09616
M73 P1 R16
G1 X107.238 Y47.769 E.31667
G1 X108.063 Y49.483 E.09602
G1 X109.414 Y55.613 E.31686
G1 X109.483 Y56.938 E.06698
G1 X109.402 Y58.595 E.08374
G1 X109.038 Y60.965 E.12104
G1 X97.326 Y117.702 E2.9244
G1 X88.83 Y141.044 E1.2539
M73 P2 R16
G1 X87.991 Y142.203 E.07223
G1 X86.381 Y142.76 E.086
G1 X78.914 Y142.76 E.37693
G1 X77.539 Y142.367 E.07219
G1 X76.578 Y141.308 E.07219
G1 X76.314 Y140.34 E.05065
G1 X70.523 Y59.888 E4.07163
G1 X70.563 Y53.427 E.32615
G1 X71.015 Y51.576 E.09618
G1 X73.573 Y45.945 E.3122
M204 P1250
; printing object cake_arm_right.stl id:0 copy 0
G1 E-2.24 F4200
;WIPE_START
G1 F7200
G1 X74.619 Y44.564 E-.96
;WIPE_END
G1 Z.4 F720
G1 X101.818 Y55.961 F9000
G1 Z.2 F720
G1 E3.2 F2400
M204 P800
;TYPE:Perimeter
;WIDTH:0.649999
G1 F1200
G1 X102.006 Y56.091 E.01154
G1 X102.527 Y56.308 E.02849
G1 X103.014 Y56.356 E.0247
G1 X103.962 Y56.262 E.04809
G1 X104.47 Y56.332 E.02589
G1 X105.217 Y56.575 E.03965
G1 X105.704 Y56.8 E.02708
G1 X105.744 Y56.869 E.00403
G1 X105.727 Y57.54 E.03388
G1 X105.683 Y58.209 E.03384
G1 X105.609 Y58.876 E.03388
G1 X105.508 Y59.539 E.03385
G1 X105.378 Y60.197 E.03386
G1 X105.221 Y60.85 E.0339
G1 X105.037 Y61.495 E.03386
G1 X104.826 Y62.132 E.03387
G1 X104.587 Y62.759 E.03387
G1 X104.322 Y63.376 E.0339
G1 X104.033 Y63.98 E.0338
G1 X103.716 Y64.572 E.0339
G1 X103.376 Y65.15 E.03385
G1 X103.011 Y65.713 E.03387
G1 X102.623 Y66.261 E.03389
G1 X102.212 Y66.791 E.03386
G1 X101.779 Y67.303 E.03385
G1 X101.324 Y67.797 E.0339
G1 X100.85 Y68.272 E.03387
G1 X100.356 Y68.725 E.03383
G1 X99.843 Y69.158 E.03389
G1 X99.312 Y69.568 E.03386
G1 X98.764 Y69.955 E.03386
G1 X98.201 Y70.319 E.03384
G1 X97.622 Y70.659 E.03389
G1 X97.03 Y70.974 E.03385
G1 X96.542 Y71.208 E.02732
G1 X95.596 Y71.608 E.05185
G1 X94.215 Y72.101 E.07402
G1 X93.951 Y72.321 E.01735
G1 X93.782 Y72.638 E.01813
G1 X93.744 Y72.898 E.01326
G1 X93.744 Y116.611 E2.20658
G1 X85.588 Y139.021 E1.20382
M73 P3 R16
G1 X80.047 Y139.021 E.2797
G1 X80.047 Y132.738 E.31716
G1 X87.634 Y125.152 E.54158
G1 X87.846 Y124.819 E.01993
G1 X90.954 Y116.279 E.45875
G1 X91.009 Y115.968 E.01594
G1 X91.009 Y73.594 E2.13899
G1 X90.967 Y73.322 E.01389
G1 X90.853 Y73.085 E.01328
G1 X90.718 Y72.927 E.01049
G1 X90.425 Y72.744 E.01744
G1 X90.118 Y72.683 E.0158
G1 X88.802 Y72.638 E.06647
G1 X87.711 Y72.527 E.05536
G1 X87.043 Y72.421 E.03414
G1 X86.164 Y72.234 E.04536
G1 X85.079 Y71.934 E.05682
G1 X84.439 Y71.716 E.03413
G1 X83.81 Y71.471 E.03407
G1 X83.104 Y71.158 E.03898
G1 X81.953 Y70.557 E.06554
G1 X82.077 Y69.55 E.05122
G1 X82.251 Y68.959 E.0311
G1 X82.514 Y68.52 E.02583
G1 X82.981 Y67.851 E.04118
G1 X83.096 Y67.503 E.0185
G1 X83.198 Y66.995 E.02616
G1 X83.13 Y66.455 E.02747
G1 X82.884 Y65.908 E.03028
G1 X82.697 Y65.66 E.01568
G1 X82.02 Y65.027 E.04679
G1 X81.658 Y64.764 E.02259
G1 X81.371 Y64.637 E.01584
G1 X80.739 Y64.503 E.03261
G1 X80.169 Y64.581 E.02904
;WIDTH:0.699338
G1 X79.976 Y64.641 E.01103
;WIDTH:0.748677
G1 X79.783 Y64.7 E.01184
;WIDTH:0.798015
G1 X79.59 Y64.76 E.01269
;WIDTH:0.803767
G1 X79.385 Y64.9 E.01571
;WIDTH:0.846684
G1 X79.077 Y65.151 E.02655
;WIDTH:0.8896
G1 X78.768 Y65.401 E.02798
G1 X78.304 Y65.664 E.03755
;WIDTH:0.88935
G1 X77.787 Y65.832 E.03826
G1 X77.283 Y65.96 E.0366
G1 X77.55 Y65.512 E.03671
G1 X77.952 Y65.001 E.04576
;WIDTH:0.8896
G1 X78.273 Y64.72 E.03003
G1 X78.702 Y64.431 E.03642
;WIDTH:0.843808
G1 X79.131 Y64.142 E.03445
;WIDTH:0.798015
G1 X79.255 Y63.969 E.01336
;WIDTH:0.748677
G1 X79.38 Y63.796 E.01253
;WIDTH:0.699338
G1 X79.504 Y63.623 E.01162
;WIDTH:0.649999
G1 X79.72 Y63.168 E.02542
G1 X79.811 Y62.669 E.0256
G1 X79.772 Y62.169 E.02532
G1 X79.564 Y61.584 E.03134
G1 X79.31 Y61.019 E.03127
G1 X79.021 Y60.606 E.02545
G1 X78.689 Y60.292 E.02307
G1 X78.251 Y60.066 E.02488
G1 X77.894 Y59.971 E.01865
;WIDTH:0.688012
G1 X77.74 Y59.947 E.00836
;WIDTH:0.726024
G1 X77.585 Y59.923 E.00891
;WIDTH:0.764037
G1 X77.431 Y59.899 E.00935
;WIDTH:0.802049
G1 X77.277 Y59.875 E.00984
;WIDTH:0.803322
G1 X77.098 Y59.913 E.01157
;WIDTH:0.846965
G1 X76.668 Y60.027 E.02974
;WIDTH:0.890608
G1 X76.238 Y60.141 E.03136
G1 X75.736 Y60.189 E.03555
;WIDTH:0.889934
G1 X75.351 Y60.155 E.02722
G1 X74.65 Y60.047 E.04995
G1 X75.248 Y59.643 E.05083
G1 X75.763 Y59.397 E.0402
;WIDTH:0.890608
G1 X76.062 Y59.315 E.02185
G1 X76.591 Y59.225 E.03782
;WIDTH:0.846329
G1 X77.12 Y59.135 E.03585
;WIDTH:0.802049
G1 X77.251 Y59.051 E.00982
;WIDTH:0.764037
G1 X77.382 Y58.966 E.00936
;WIDTH:0.726024
G1 X77.513 Y58.881 E.00887
;WIDTH:0.688012
G1 X77.644 Y58.797 E.00835
;WIDTH:0.649999
G1 X77.919 Y58.579 E.01771
G1 X78.284 Y58.101 E.03036
G1 X78.464 Y57.618 E.02602
G1 X78.501 Y57.121 E.02516
G1 X78.504 Y56.286 E.04215
G1 X78.389 Y55.78 E.02619
G1 X78.233 Y55.444 E.0187
G1 X77.925 Y55.04 E.02564
G1 X77.609 Y54.81 E.01973
;WIDTH:0.689249
G1 X77.5 Y54.732 E.0072
;WIDTH:0.728499
G1 X77.392 Y54.655 E.00756
;WIDTH:0.767749
G1 X77.283 Y54.578 E.00804
;WIDTH:0.806998
G1 X77.175 Y54.501 E.00843
;WIDTH:0.811289
G1 X76.932 Y54.458 E.01577
;WIDTH:0.851044
G1 X76.499 Y54.383 E.02953
;WIDTH:0.890799
G1 X76.067 Y54.308 E.03091
G1 X75.584 Y54.145 E.03594
;WIDTH:0.8899
G1 X75.247 Y53.958 E.02714
G1 X74.65 Y53.574 E.04999
G1 X75.361 Y53.448 E.05085
G1 X75.931 Y53.433 E.04016
;WIDTH:0.890799
G1 X76.248 Y53.484 E.02264
G1 X76.712 Y53.606 E.03382
;WIDTH:0.847142
G1 X77.175 Y53.728 E.03202
;WIDTH:0.803484
G1 X77.314 Y53.728 E.00879
;WIDTH:0.778124
G1 X77.452 Y53.727 E.00844
;WIDTH:0.752764
G1 X77.671 Y53.688 E.01313
;WIDTH:0.718509
G1 X77.89 Y53.649 E.0125
;WIDTH:0.684254
G1 X78.109 Y53.611 E.01185
;WIDTH:0.649999
G1 X78.615 Y53.38 E.02808
G1 X79.01 Y53.034 E.02651
G1 X79.211 Y52.76 E.01715
G1 X79.645 Y51.854 E.05071
G1 X79.791 Y51.37 E.02552
G1 X79.808 Y50.85 E.02626
G1 X79.695 Y50.37 E.02489
G1 X79.473 Y49.987 E.02235
;WIDTH:0.689258
G1 X79.408 Y49.873 E.00705
;WIDTH:0.728517
G1 X79.342 Y49.76 E.00746
;WIDTH:0.767776
G1 X79.277 Y49.647 E.00786
;WIDTH:0.807034
G1 X79.212 Y49.534 E.00828
;WIDTH:0.81133
G1 X79.007 Y49.396 E.01579
;WIDTH:0.851839
G1 X78.635 Y49.147 E.03011
;WIDTH:0.892348
G1 X78.264 Y48.898 E.03156
G1 X77.953 Y48.618 E.02956
;WIDTH:0.892149
G1 X77.545 Y48.097 E.04673
G1 X77.282 Y47.662 E.03589
G1 X77.785 Y47.78 E.03648
G1 X78.411 Y48.013 E.04717
;WIDTH:0.892348
G1 X78.766 Y48.217 E.02892
G1 X79.202 Y48.56 E.03918
;WIDTH:0.849691
G1 X79.639 Y48.904 E.03731
;WIDTH:0.807034
G1 X79.783 Y48.94 E.00943
;WIDTH:0.767776
G1 X79.928 Y48.976 E.009
;WIDTH:0.728517
G1 X80.073 Y49.013 E.00853
;WIDTH:0.689258
G1 X80.217 Y49.049 E.00798
;WIDTH:0.649999
G1 X80.564 Y49.107 E.01776
G1 X81.096 Y49.075 E.0269
G1 X81.562 Y48.905 E.02504
G1 X81.827 Y48.744 E.01565
G1 X82.552 Y48.116 E.04842
G1 X82.854 Y47.728 E.02482
G1 X83.077 Y47.334 E.02285
G1 X83.183 Y46.787 E.02813
G1 X83.177 Y46.432 E.01792
;WIDTH:0.690147
G1 X83.154 Y46.276 E.00849
;WIDTH:0.730294
G1 X83.131 Y46.12 E.00901
;WIDTH:0.770442
G1 X83.108 Y45.963 E.0096
;WIDTH:0.810589
G1 X83.086 Y45.807 E.01006
;WIDTH:0.816073
G1 X82.906 Y45.531 E.02118
;WIDTH:0.852941
G1 X82.7 Y45.202 E.02614
;WIDTH:0.889809
G1 X82.495 Y44.873 E.0273
G1 X82.28 Y44.376 E.03813
;WIDTH:0.889299
G1 X82.167 Y43.844 E.03828
G1 X82.093 Y43.329 E.03662
G1 X82.511 Y43.642 E.03675
G1 X82.977 Y44.095 E.04574
;WIDTH:0.889809
G1 X83.23 Y44.46 E.03127
G1 X83.479 Y44.926 E.03721
;WIDTH:0.850199
G1 X83.727 Y45.391 E.03538
;WIDTH:0.810589
G1 X83.843 Y45.489 E.00969
;WIDTH:0.770442
G1 X83.958 Y45.588 E.00918
;WIDTH:0.730294
G1 X84.073 Y45.686 E.00864
;WIDTH:0.690147
G1 X84.188 Y45.784 E.00813
;WIDTH:0.649999
G1 X84.616 Y46.044 E.02528
G1 X85.099 Y46.187 E.02543
G1 X85.602 Y46.201 E.0254
G1 X86.121 Y46.083 E.02687
G1 X86.822 Y45.851 E.03727
G1 X87.309 Y45.564 E.02853
G1 X87.637 Y45.255 E.02275
G1 X87.908 Y44.801 E.02669
G1 X88.007 Y44.483 E.01681
;WIDTH:0.696842
G1 X88.051 Y44.299 E.01029
;WIDTH:0.743685
G1 X88.094 Y44.114 E.01107
;WIDTH:0.790527
G1 X88.137 Y43.93 E.01175
;WIDTH:0.806176
G1 X88.113 Y43.678 E.01607
;WIDTH:0.848003
G1 X88.052 Y43.287 E.02649
;WIDTH:0.88983
G1 X87.991 Y42.897 E.0278
G1 X87.991 Y42.506 E.02753
;WIDTH:0.889552
G1 X88.067 Y42.024 E.03435
G1 X88.243 Y41.347 E.04924
G1 X88.423 Y41.627 E.02343
G1 X88.745 Y42.382 E.05778
;WIDTH:0.88983
G1 X88.828 Y42.81 E.0307
M73 P4 R16
G1 X88.85 Y43.224 E.0292
;WIDTH:0.845468
G1 X88.871 Y43.638 E.02766
;WIDTH:0.801106
G1 X88.918 Y43.817 E.01167
;WIDTH:0.773966
G1 X88.966 Y43.997 E.01132
;WIDTH:0.746826
G1 X89.086 Y44.242 E.01597
;WIDTH:0.698413
G1 X89.207 Y44.487 E.01489
;WIDTH:0.649999
G1 X89.59 Y44.981 E.03155
G1 X90.093 Y45.299 E.03004
G1 X90.433 Y45.416 E.01815
G1 X91.428 Y45.548 E.05067
G1 X91.979 Y45.523 E.02784
G1 X92.282 Y45.444 E.01581
G1 X92.784 Y45.189 E.02842
G1 X93.161 Y44.819 E.02666
;WIDTH:0.689535
G1 X93.266 Y44.688 E.00903
;WIDTH:0.729071
G1 X93.371 Y44.558 E.00953
;WIDTH:0.768607
G1 X93.476 Y44.427 E.01013
;WIDTH:0.806267
G1 X93.594 Y44.131 E.02023
;WIDTH:0.848353
G1 X93.703 Y43.732 E.0277
;WIDTH:0.890478
G1 X93.812 Y43.333 E.02915
G1 X94.035 Y42.845 E.03781
G1 X94.355 Y42.405 E.03834
G1 X94.687 Y42.006 E.03658
G1 X94.734 Y42.524 E.03666
G1 X94.708 Y43.168 E.04542
G1 X94.609 Y43.612 E.03206
G1 X94.43 Y44.092 E.0361
;WIDTH:0.845844
G1 X94.251 Y44.571 E.03414
;WIDTH:0.801209
G1 X94.25 Y44.717 E.00921
;WIDTH:0.761912
G1 X94.25 Y44.862 E.00867
;WIDTH:0.722615
G1 X94.249 Y45.007 E.0082
;WIDTH:0.683318
G1 X94.316 Y45.553 E.02929
;WIDTH:0.649999
G1 X94.496 Y46.02 E.02526
G1 X94.791 Y46.428 E.02541
G1 X95.063 Y46.654 E.01785
G1 X95.946 Y47.192 E.05219
G1 X96.422 Y47.357 E.02543
G1 X96.781 Y47.41 E.01832
G1 X97.347 Y47.356 E.0287
G1 X97.828 Y47.151 E.02639
;WIDTH:0.694792
G1 X97.976 Y47.07 E.00914
;WIDTH:0.739585
G1 X98.123 Y46.988 E.00975
;WIDTH:0.784377
G1 X98.271 Y46.907 E.0104
;WIDTH:0.805918
G1 X98.456 Y46.712 E.01705
;WIDTH:0.847781
G1 X98.705 Y46.405 E.02645
;WIDTH:0.889643
G1 X98.954 Y46.099 E.02778
G1 X99.331 Y45.765 E.03546
;WIDTH:0.889085
G1 X99.662 Y45.567 E.02714
G1 X100.293 Y45.242 E.04994
G1 X100.046 Y45.92 E.05077
G1 X99.775 Y46.421 E.04008
;WIDTH:0.889643
G1 X99.579 Y46.663 E.02193
G1 X99.298 Y46.942 E.02788
;WIDTH:0.847781
G1 X99.018 Y47.221 E.02645
;WIDTH:0.805918
G1 X98.857 Y47.425 E.01649
;WIDTH:0.784377
G1 X98.782 Y47.59 E.01117
;WIDTH:0.739585
G1 X98.706 Y47.755 E.01052
;WIDTH:0.694792
G1 X98.63 Y47.919 E.0098
;WIDTH:0.649999
G1 X98.499 Y48.443 E.02726
G1 X98.488 Y48.794 E.01773
G1 X98.58 Y49.305 E.02621
G1 X98.839 Y49.815 E.02887
G1 X99.3 Y50.449 E.03957
G1 X99.638 Y50.789 E.0242
G1 X99.933 Y50.993 E.01811
G1 X100.415 Y51.186 E.02621
G1 X100.986 Y51.227 E.0289
;WIDTH:0.698442
G1 X101.183 Y51.213 E.01076
;WIDTH:0.746885
G1 X101.379 Y51.199 E.0115
;WIDTH:0.795327
G1 X101.575 Y51.185 E.01229
;WIDTH:0.808487
G1 X101.821 Y51.07 E.01729
;WIDTH:0.849055
G1 X102.173 Y50.894 E.02638
;WIDTH:0.889623
G1 X102.525 Y50.717 E.02774
G1 X102.898 Y50.596 E.02761
;WIDTH:0.88926
G1 X103.378 Y50.52 E.0342
G1 X104.098 Y50.479 E.05075
G1 X103.885 Y50.719 E.02258
G1 X103.25 Y51.275 E.0594
;WIDTH:0.889623
G1 X102.864 Y51.488 E.03104
G1 X102.387 Y51.682 E.03625
;WIDTH:0.842475
G1 X101.91 Y51.876 E.03424
;WIDTH:0.795327
G1 X101.784 Y51.987 E.01051
;WIDTH:0.746885
G1 X101.659 Y52.098 E.00979
;WIDTH:0.698442
G1 X101.533 Y52.209 E.00915
;WIDTH:0.649999
G1 X101.172 Y52.632 E.02807
G1 X100.954 Y53.109 E.02647
G1 X100.875 Y53.663 E.02825
G1 X100.952 Y54.266 E.03069
G1 X101.132 Y55.014 E.03884
G1 X101.398 Y55.554 E.03039
G1 X101.744 Y55.91 E.02506
M204 P1250
G1 X102.085 Y55.39 F9000
M204 P800
;TYPE:External perimeter
G1 F1200
G1 X102.163 Y55.474 E.00579
G1 X102.622 Y55.702 E.02587
G1 X102.954 Y55.751 E.01694
G1 X103.974 Y55.651 E.05174
G1 X104.791 Y55.798 E.0419
G1 X105.512 Y56.042 E.03842
G1 X106.344 Y56.461 E.04702
G1 X106.334 Y57.567 E.05583
G1 X106.287 Y58.262 E.03516
G1 X106.211 Y58.955 E.03519
G1 X106.106 Y59.644 E.03518
G1 X105.972 Y60.327 E.03513
G1 X105.809 Y61.004 E.03515
G1 X105.617 Y61.674 E.03518
G1 X105.398 Y62.335 E.03515
G1 X105.15 Y62.986 E.03517
G1 X104.875 Y63.627 E.03521
G1 X104.574 Y64.254 E.03511
G1 X104.245 Y64.869 E.03521
G1 X103.893 Y65.469 E.03511
G1 X103.514 Y66.054 E.03519
G1 X103.111 Y66.622 E.03516
G1 X102.684 Y67.173 E.03519
G1 X102.235 Y67.705 E.03514
G1 X101.763 Y68.218 E.03519
G1 X101.27 Y68.71 E.03516
G1 X100.757 Y69.181 E.03515
G1 X100.225 Y69.63 E.03514
G1 X99.673 Y70.056 E.0352
G1 X99.104 Y70.458 E.03517
G1 X98.519 Y70.836 E.03516
G1 X97.918 Y71.189 E.03518
G1 X97.304 Y71.516 E.03512
G1 X96.675 Y71.817 E.0352
G1 X96.035 Y72.091 E.03514
G1 X95.383 Y72.338 E.03519
G1 X94.61 Y72.593 E.04109
G1 X94.42 Y72.706 E.01116
G1 X94.352 Y72.898 E.01028
G1 X94.352 Y116.718 E2.21198
G1 X86.013 Y139.628 E1.2307
G1 X79.439 Y139.628 E.33185
G1 X79.439 Y132.487 E.36047
G1 X87.204 Y124.722 E.55433
G1 X87.275 Y124.612 E.00661
G1 X90.383 Y116.072 E.45875
G1 X90.402 Y115.968 E.00534
G1 X90.402 Y73.594 E2.13899
G1 X90.388 Y73.503 E.00465
M73 P5 R16
G1 X90.265 Y73.34 E.01031
G1 X90.105 Y73.29 E.00846
G1 X88.762 Y73.244 E.06783
G1 X87.62 Y73.128 E.05794
G1 X86.925 Y73.016 E.03554
G1 X86.021 Y72.824 E.04665
G1 X84.886 Y72.509 E.05946
G1 X84.221 Y72.283 E.03545
G1 X83.567 Y72.028 E.03543
G1 X82.838 Y71.703 E.04029
G1 X82.154 Y71.359 E.03865
G1 X81.34 Y70.897 E.04725
G1 X81.351 Y70.423 E.02393
G1 X81.412 Y69.822 E.03049
G1 X81.515 Y69.309 E.02641
G1 X81.743 Y68.612 E.03702
G1 X82.02 Y68.166 E.0265
G1 X82.443 Y67.57 E.03689
G1 X82.584 Y67.059 E.02676
G1 X82.526 Y66.544 E.02616
G1 X82.282 Y66.103 E.02544
G1 X81.606 Y65.471 E.04671
G1 X81.277 Y65.245 E.02015
G1 X80.791 Y65.118 E.02536
G1 X80.27 Y65.18 E.02649
G1 X79.844 Y65.407 E.02437
G1 X79.151 Y66.035 E.04721
G1 X78.59 Y66.335 E.03211
G1 X78.012 Y66.523 E.03068
G1 X77.503 Y66.657 E.02657
G1 X76.763 Y66.771 E.03779
G1 X76.353 Y66.207 E.0352
G1 X76.68 Y65.538 E.03759
G1 X76.953 Y65.095 E.02627
G1 X77.381 Y64.552 E.0349
G1 X77.787 Y64.161 E.02845
G1 X78.599 Y63.696 E.04723
G1 X78.917 Y63.402 E.02186
G1 X79.102 Y63.095 E.01809
G1 X79.195 Y62.76 E.01755
G1 X79.199 Y62.41 E.01767
G1 X79.101 Y62.036 E.01952
G1 X78.782 Y61.321 E.03952
G1 X78.53 Y60.962 E.02214
