; generated by PrusaSlicer 2.6.0-alpha6 on 2023-05-07 at 20:44:18 UTC


;
;

;
;
; 

; external perimeters extrusion width = 0.68mm
; perimeters extrusion width = 0.68mm
; infill extrusion width = 0.68mm
; solid infill extrusion width = 0.68mm
; top infill extrusion width = 0.60mm
; support material extrusion width = 0.55mm
; first layer extrusion width = 0.65mm

M73 P0 R23
M201 X2500 Y2500 Z400 E5000 ; sets maximum accelerations, mm/sec^2
M203 X180 Y180 Z12 E80 ; sets maximum feedrates, mm / sec
M204 P1250 R1250 T2500 ; sets acceleration (P, T) and retract acceleration (R), mm/sec^2
M205 X8.00 Y8.00 Z2.00 E10.00 ; sets the jerk limits, mm/sec
M205 S0 T0 ; sets the minimum extruding and travel feed rate, mm/sec
;TYPE:Custom
M862.3 P "MINI" ; printer model check
G90 ; use absolute coordinates
M83 ; extruder relative mode
M104 S170 ; set extruder temp for bed leveling
M140 S60 ; set bed temp
M109 R170 ; wait for bed leveling temp
M190 S60 ; wait for bed temp
M204 T1250 ; set travel acceleration
G28 ; home all without mesh bed level
G29 ; mesh bed leveling 
M204 T2500 ; restore travel acceleration
M104 S215 ; set extruder temp
G92 E0
G1 Y-2 X179 F2400
G1 Z3 F720
M109 S215 ; wait for extruder temp

; intro line
G1 X170 F1000
M73 P0 R22
G1 Z0.2 F720
G1 X110 E8 F900
G1 X40 E10 F700
G92 E0

M221 S95 ; set flow
G21 ; set units to millimeters
G90 ; use absolute coordinates
M83 ; use relative distances for extrusion
M900 K0.12 ; Filament gcode LA 1.5
; ; Filament gcode LA 1.0
M107
;LAYER_CHANGE
;Z:0.2
;HEIGHT:0.2
;BEFORE_LAYER_CHANGE
G92 E0.0
;0.2


G1 E-3.2 F4200
M73 P1 R22
G1 Z.2 F720
;AFTER_LAYER_CHANGE
;0.2
G1 Z.4
G1 X73.489 Y46.296 F9000
G1 Z.2 F720
G1 E3.2 F2400
M204 P800
;TYPE:Skirt/Brim
;WIDTH:0.65
G1 F1200
G1 X74.564 Y44.721 E.09626
G1 X79.193 Y40.49 E.31657
G1 X80.813 Y39.489 E.09613
G1 X86.766 Y37.505 E.31675
G1 X88 Y37.306 E.0631
G1 X89.149 Y37.255 E.05806
G1 X94.897 Y37.859 E.29175
G1 X96.726 Y38.394 E.09619
G1 X102.182 Y41.49 E.31666
G1 X103.156 Y42.274 E.06312
G1 X103.963 Y43.093 E.05804
G1 X107.361 Y47.769 E.29178
G1 X107.891 Y48.791 E.05811
G1 X108.336 Y49.959 E.06309
G1 X109.593 Y56.103 E.31657
G1 X109.587 Y57.656 E.07839
G1 X103.562 Y140.342 E4.18496
G1 X103.07 Y141.685 E.0722
G1 X101.944 Y142.567 E.0722
G1 X100.962 Y142.76 E.05052
G1 X93.495 Y142.76 E.37693
G1 X92.12 Y142.367 E.07219
G1 X91.046 Y141.044 E.08602
G1 X82.55 Y117.702 E1.2539
G1 X70.74 Y60.485 E2.94913
G1 X70.495 Y58.813 E.0853
M73 P2 R22
G1 X70.395 Y57.116 E.08581
G1 X70.443 Y55.411 E.0861
G1 X70.637 Y53.722 E.08582
G1 X70.978 Y52.054 E.08594
G1 X73.453 Y46.378 E.31257
M204 P1250
; printing object cake_arm_left.stl id:0 copy 0
G1 E-2.24 F4200
;WIPE_START
G1 F7200
G1 X74.418 Y44.939 E-.96
;WIPE_END
G1 Z.4 F720
G1 X101.104 Y60.548 F9000
G1 Z.2 F720
G1 E3.2 F2400
M204 P800
;TYPE:Perimeter
;WIDTH:0.649999
G1 F1200
G1 X101.257 Y60.917 E.02016
G1 X101.439 Y61.17 E.01573
;WIDTH:0.67626
G1 X101.644 Y61.381 E.01549
;WIDTH:0.702521
G1 X101.849 Y61.592 E.01613
;WIDTH:0.738476
G1 X101.954 Y61.661 E.00727
;WIDTH:0.774431
G1 X102.059 Y61.73 E.00764
;WIDTH:0.810385
G1 X102.164 Y61.799 E.00802
;WIDTH:0.851355
G1 X102.584 Y61.967 E.03041
;WIDTH:0.892325
G1 X103.004 Y62.136 E.03198
G1 X103.326 Y62.315 E.02602
;WIDTH:0.892132
G1 X103.73 Y62.635 E.03639
G1 X104.218 Y63.141 E.04964
G1 X103.499 Y63.116 E.0508
G1 X102.939 Y63.012 E.04022
;WIDTH:0.892325
G1 X102.654 Y62.906 E.02148
G1 X102.218 Y62.686 E.03449
;WIDTH:0.84786
G1 X101.783 Y62.465 E.03266
;WIDTH:0.803395
G1 X101.602 Y62.447 E.0115
;WIDTH:0.765046
G1 X101.422 Y62.429 E.01086
;WIDTH:0.726697
G1 X101.241 Y62.411 E.01034
;WIDTH:0.688348
G1 X101.061 Y62.393 E.00971
;WIDTH:0.649999
G1 X100.71 Y62.409 E.01774
G1 X100.197 Y62.551 E.02687
G1 X99.779 Y62.813 E.0249
G1 X99.552 Y63.025 E.01568
G1 X98.973 Y63.792 E.04851
G1 X98.796 Y64.138 E.01962
G1 X98.622 Y64.645 E.02706
G1 X98.624 Y65.223 E.02918
G1 X98.725 Y65.585 E.01897
;WIDTH:0.689261
G1 X98.789 Y65.743 E.00916
;WIDTH:0.728522
G1 X98.854 Y65.901 E.00974
;WIDTH:0.767783
G1 X98.918 Y66.059 E.01027
;WIDTH:0.807044
G1 X98.983 Y66.218 E.01091
;WIDTH:0.81901
G1 X99.196 Y66.428 E.0193
;WIDTH:0.854288
G1 X99.449 Y66.689 E.02452
;WIDTH:0.889565
G1 X99.701 Y66.951 E.02559
G1 X100.015 Y67.394 E.03823
;WIDTH:0.889081
G1 X100.236 Y67.891 E.03827
G1 X100.416 Y68.379 E.0366
G1 X99.942 Y68.16 E.03674
G1 X99.392 Y67.812 E.04579
;WIDTH:0.889565
G1 X99.067 Y67.506 E.03143
G1 X98.777 Y67.153 E.03216
;WIDTH:0.847828
G1 X98.487 Y66.799 E.03063
;WIDTH:0.806091
G1 X98.366 Y66.716 E.00931
;WIDTH:0.77132
G1 X98.244 Y66.632 E.00897
;WIDTH:0.736549
G1 X98.123 Y66.549 E.00846
;WIDTH:0.701777
G1 X97.896 Y66.439 E.01382
;WIDTH:0.675888
G1 X97.668 Y66.329 E.01332
;WIDTH:0.649999
G1 X97.201 Y66.218 E.02423
G1 X96.889 Y66.215 E.01575
G1 X96.343 Y66.311 E.02798
G1 X95.805 Y66.586 E.0305
G1 X95.188 Y66.958 E.03637
G1 X94.773 Y67.354 E.02896
G1 X94.54 Y67.769 E.02402
G1 X94.397 Y68.286 E.02708
G1 X94.416 Y68.84 E.02798
G1 X94.491 Y69.164 E.01679
G1 X94.873 Y70.036 E.04806
G1 X94.964 Y70.684 E.03303
G1 X94.959 Y71.372 E.03473
G1 X94.893 Y71.892 E.02646
G1 X94.265 Y72.093 E.03328
G1 X93.553 Y72.273 E.03707
G1 X92.427 Y72.49 E.05789
G1 X91.802 Y72.574 E.03183
G1 X90.987 Y72.644 E.04129
G1 X89.622 Y72.696 E.06895
G1 X89.292 Y72.823 E.01785
G1 X89.028 Y73.076 E.01846
G1 X88.909 Y73.322 E.01379
G1 X88.867 Y73.593 E.01384
G1 X88.867 Y115.968 E2.13904
G1 X88.922 Y116.279 E.01594
G1 X92.03 Y124.819 E.45875
G1 X92.242 Y125.152 E.01993
G1 X99.829 Y132.738 E.54158
G1 X99.829 Y139.021 E.31716
G1 X94.288 Y139.021 E.2797
G1 X86.132 Y116.611 E1.20382
G1 X86.132 Y72.899 E2.20653
G1 X86.091 Y72.628 E.01384
G1 X86.004 Y72.434 E.01073
G1 X85.775 Y72.176 E.01741
G1 X85.508 Y72.034 E.01527
G1 X84.678 Y71.759 E.04414
G1 X84.034 Y71.514 E.03478
G1 X83.401 Y71.241 E.0348
G1 X82.781 Y70.941 E.03477
G1 X82.174 Y70.614 E.0348
G1 X81.582 Y70.262 E.03477
G1 X81.006 Y69.883 E.03481
G1 X80.447 Y69.48 E.03479
G1 X79.906 Y69.053 E.03479
G1 X79.383 Y68.604 E.03479
G1 X78.882 Y68.132 E.03475
G1 X78.4 Y67.638 E.03484
G1 X77.941 Y67.124 E.03479
G1 X77.504 Y66.591 E.03479
G1 X77.092 Y66.039 E.03477
G1 X76.703 Y65.47 E.03479
G1 X76.339 Y64.884 E.03482
G1 X76.002 Y64.284 E.03474
G1 X75.69 Y63.668 E.03486
G1 X75.406 Y63.041 E.03475
G1 X75.149 Y62.401 E.03481
G1 X74.921 Y61.752 E.03472
G1 X74.721 Y61.092 E.03481
G1 X74.549 Y60.424 E.03482
G1 X74.406 Y59.75 E.03478
G1 X74.293 Y59.07 E.0348
G1 X74.21 Y58.386 E.03478
G1 X74.157 Y57.699 E.03478
G1 X74.133 Y57.01 E.0348
G1 X74.142 Y56.261 E.03781
G1 X74.181 Y55.583 E.03428
G1 X74.262 Y54.805 E.03948
G1 X74.478 Y53.523 E.06563
G1 X75.474 Y53.329 E.05122
G1 X76.09 Y53.312 E.03111
G1 X76.595 Y53.428 E.02616
G1 X77.371 Y53.665 E.04096
G1 X77.755 Y53.665 E.01938
G1 X78.274 Y53.597 E.02642
G1 X78.756 Y53.367 E.02696
G1 X79.189 Y52.969 E.02969
G1 X79.369 Y52.707 E.01605
G1 X79.868 Y51.579 E.06226
G1 X79.941 Y51.06 E.02646
G1 X79.833 Y50.45 E.03127
G1 X79.687 Y50.109 E.01872
;WIDTH:0.690035
G1 X79.596 Y49.962 E.0093
;WIDTH:0.730071
G1 X79.504 Y49.815 E.00991
;WIDTH:0.770107
G1 X79.412 Y49.668 E.01049
;WIDTH:0.810143
G1 X79.321 Y49.521 E.01103
;WIDTH:0.81582
G1 X79.044 Y49.341 E.02123
;WIDTH:0.853651
G1 X78.715 Y49.12 E.02672
;WIDTH:0.891482
G1 X78.386 Y48.898 E.028
G1 X78.076 Y48.618 E.02947
G1 X77.667 Y48.097 E.04674
G1 X77.405 Y47.661 E.03589
G1 X78.105 Y47.836 E.05091
G1 X78.633 Y48.053 E.04028
G1 X78.891 Y48.221 E.02172
G1 X79.26 Y48.517 E.03338
;WIDTH:0.847608
G1 X79.629 Y48.814 E.03169
;WIDTH:0.803733
G1 X79.788 Y48.879 E.01087
;WIDTH:0.768064
G1 X79.946 Y48.944 E.0103
;WIDTH:0.732394
G1 X80.104 Y49.008 E.00977
;WIDTH:0.696724
G1 X80.774 Y49.109 E.03684
;WIDTH:0.649999
G1 X81.124 Y49.084 E.01771
G1 X81.65 Y48.929 E.02768
G1 X82.106 Y48.628 E.02758
G1 X82.687 Y48.105 E.03946
G1 X83.02 Y47.694 E.0267
G1 X83.164 Y47.413 E.01594
G1 X83.304 Y46.918 E.02597
G1 X83.286 Y46.345 E.02894
;WIDTH:0.698734
G1 X83.251 Y46.151 E.01075
;WIDTH:0.747468
G1 X83.217 Y45.956 E.0116
;WIDTH:0.796202
G1 X83.182 Y45.762 E.01235
;WIDTH:0.808798
G1 X83.042 Y45.531 E.0172
;WIDTH:0.849224
G1 X82.829 Y45.199 E.02645
;WIDTH:0.889649
G1 X82.617 Y44.868 E.02767
G1 X82.403 Y44.376 E.03777
;WIDTH:0.8893
G1 X82.29 Y43.844 E.03828
G1 X82.216 Y43.329 E.03662
G1 X82.634 Y43.642 E.03675
G1 X83.1 Y44.095 E.04574
;WIDTH:0.889649
G1 X83.348 Y44.45 E.03049
G1 X83.526 Y44.801 E.02771
;WIDTH:0.849224
G1 X83.703 Y45.153 E.02642
;WIDTH:0.808798
G1 X83.919 Y45.442 E.02298
;WIDTH:0.765463
G1 X84.049 Y45.556 E.01039
;WIDTH:0.726975
G1 X84.18 Y45.67 E.00988
;WIDTH:0.688487
G1 X84.311 Y45.784 E.00932
;WIDTH:0.649999
G1 X84.739 Y46.044 E.02528
G1 X85.222 Y46.187 E.02543
G1 X85.725 Y46.201 E.0254
G1 X86.286 Y46.069 E.02909
G1 X86.94 Y45.853 E.03477
G1 X87.432 Y45.564 E.0288
G1 X87.76 Y45.255 E.02275
G1 X88.031 Y44.801 E.02669
G1 X88.13 Y44.483 E.01681
;WIDTH:0.696846
G1 X88.174 Y44.299 E.01029
;WIDTH:0.743693
G1 X88.217 Y44.114 E.01107
;WIDTH:0.790539
G1 X88.26 Y43.93 E.01175
;WIDTH:0.806178
G1 X88.236 Y43.678 E.01607
;WIDTH:0.848004
G1 X88.175 Y43.287 E.02649
;WIDTH:0.88983
G1 X88.114 Y42.897 E.0278
G1 X88.114 Y42.506 E.02753
;WIDTH:0.889553
G1 X88.19 Y42.024 E.03435
G1 X88.366 Y41.347 E.04924
G1 X88.546 Y41.627 E.02343
G1 X88.868 Y42.382 E.05778
;WIDTH:0.88983
G1 X88.951 Y42.81 E.0307
G1 X88.973 Y43.224 E.0292
;WIDTH:0.845469
G1 X88.994 Y43.638 E.02766
;WIDTH:0.801107
G1 X89.041 Y43.817 E.01167
;WIDTH:0.773966
G1 X89.089 Y43.997 E.01132
;WIDTH:0.746824
G1 X89.209 Y44.242 E.01597
;WIDTH:0.698412
G1 X89.33 Y44.487 E.01489
;WIDTH:0.649999
G1 X89.713 Y44.981 E.03155
G1 X90.216 Y45.299 E.03004
G1 X90.556 Y45.416 E.01815
G1 X91.551 Y45.548 E.05067
G1 X92.102 Y45.523 E.02784
G1 X92.365 Y45.461 E.01364
G1 X92.836 Y45.239 E.02628
G1 X93.284 Y44.819 E.031
;WIDTH:0.691715
G1 X93.39 Y44.689 E.00905
;WIDTH:0.73343
G1 X93.496 Y44.559 E.00963
;WIDTH:0.775145
G1 X93.602 Y44.429 E.01021
;WIDTH:0.802903
G1 X93.701 Y44.194 E.01611
;WIDTH:0.846759
G1 X93.818 Y43.763 E.02985
;WIDTH:0.890614
G1 X93.935 Y43.333 E.03141
G1 X94.144 Y42.874 E.03555
;WIDTH:0.88967
G1 X94.372 Y42.551 E.02784
G1 X94.81 Y42.006 E.04923
G1 X94.86 Y42.717 E.05018
G1 X94.797 Y43.398 E.04815
;WIDTH:0.890614
G1 X94.551 Y44.097 E.05223
;WIDTH:0.846117
M73 P3 R22
G1 X94.364 Y44.6 E.03584
;WIDTH:0.80162
G1 X94.371 Y44.728 E.00809
;WIDTH:0.759586
G1 X94.378 Y44.856 E.00764
;WIDTH:0.717551
G1 X94.4 Y45.173 E.01783
;WIDTH:0.683775
G1 X94.422 Y45.49 E.01693
;WIDTH:0.649999
G1 X94.584 Y45.962 E.02519
G1 X94.891 Y46.398 E.02692
G1 X95.143 Y46.628 E.01722
G1 X95.924 Y47.107 E.04625
G1 X96.386 Y47.322 E.02572
G1 X96.883 Y47.413 E.02551
G1 X97.385 Y47.373 E.02542
G1 X97.858 Y47.207 E.0253
;WIDTH:0.689966
G1 X98.024 Y47.114 E.01024
;WIDTH:0.729932
G1 X98.191 Y47.021 E.01092
;WIDTH:0.769898
G1 X98.358 Y46.928 E.01155
;WIDTH:0.806799
G1 X98.582 Y46.708 E.01994
;WIDTH:0.848193
G1 X98.831 Y46.397 E.02668
;WIDTH:0.889587
G1 X99.081 Y46.087 E.02804
G1 X99.48 Y45.743 E.03709
;WIDTH:0.889285
G1 X99.775 Y45.555 E.02462
G1 X100.417 Y45.239 E.05036
G1 X100.164 Y45.93 E.05179
G1 X99.901 Y46.415 E.03883
;WIDTH:0.889587
G1 X99.676 Y46.692 E.02512
G1 X99.447 Y46.931 E.0233
;WIDTH:0.856122
G1 X99.218 Y47.169 E.02233
;WIDTH:0.822656
G1 X98.989 Y47.408 E.02146
;WIDTH:0.78919
G1 X98.916 Y47.564 E.01069
;WIDTH:0.742793
G1 X98.844 Y47.721 E.01005
;WIDTH:0.696396
G1 X98.771 Y47.877 E.00936
;WIDTH:0.649999
G1 X98.623 Y48.372 E.02608
G1 X98.609 Y48.882 E.02575
G1 X98.716 Y49.345 E.02399
G1 X98.962 Y49.815 E.02678
G1 X99.423 Y50.449 E.03957
G1 X99.777 Y50.815 E.0257
G1 X100.258 Y51.096 E.02812
G1 X100.794 Y51.222 E.02779
G1 X101.126 Y51.226 E.01676
;WIDTH:0.68798
G1 X101.267 Y51.218 E.00757
;WIDTH:0.725961
G1 X101.407 Y51.209 E.00797
;WIDTH:0.763942
G1 X101.547 Y51.201 E.00841
;WIDTH:0.801922
G1 X101.688 Y51.193 E.00891
;WIDTH:0.803226
G1 X101.854 Y51.118 E.01152
;WIDTH:0.846866
G1 X102.251 Y50.918 E.02972
;WIDTH:0.890506
G1 X102.648 Y50.717 E.03136
G1 X103.129 Y50.565 E.03555
;WIDTH:0.889823
G1 X103.512 Y50.519 E.02716
G1 X104.22 Y50.479 E.04994
G1 X103.719 Y50.998 E.0508
G1 X103.267 Y51.345 E.04013
;WIDTH:0.890506
G1 X102.991 Y51.488 E.02191
G1 X102.498 Y51.683 E.03736
;WIDTH:0.845608
G1 X102.005 Y51.879 E.03541
;WIDTH:0.80071
G1 X101.937 Y51.943 E.00588
;WIDTH:0.769183
G1 X101.868 Y52.008 E.00572
;WIDTH:0.737655
G1 X101.614 Y52.274 E.02125
;WIDTH:0.693827
G1 X101.359 Y52.54 E.01994
;WIDTH:0.649999
G1 X101.1 Y53.037 E.02829
G1 X100.996 Y53.628 E.03029
G1 X101.046 Y54.061 E.022
G1 X101.211 Y54.896 E.04296
G1 X101.418 Y55.38 E.02657
G1 X101.582 Y55.628 E.01501
G1 X101.952 Y55.97 E.02543
G1 X102.282 Y56.171 E.0195
;WIDTH:0.689272
G1 X102.437 Y56.235 E.00901
;WIDTH:0.728545
G1 X102.593 Y56.3 E.00963
;WIDTH:0.767818
G1 X102.749 Y56.364 E.01016
;WIDTH:0.80709
G1 X102.904 Y56.428 E.01066
;WIDTH:0.811362
G1 X103.15 Y56.419 E.01573
;WIDTH:0.851094
G1 X103.589 Y56.403 E.02952
;WIDTH:0.890826
G1 X104.028 Y56.387 E.03097
G1 X104.534 Y56.445 E.03591
;WIDTH:0.889927
G1 X104.902 Y56.559 E.02713
G1 X105.566 Y56.81 E.04999
G1 X104.897 Y57.081 E.05084
G1 X104.343 Y57.214 E.04013
;WIDTH:0.890826
G1 X104.022 Y57.231 E.02266
G1 X103.475 Y57.21 E.03859
;WIDTH:0.848958
G1 X102.929 Y57.189 E.03662
;WIDTH:0.80709
G1 X102.823 Y57.231 E.00724
;WIDTH:0.772196
G1 X102.716 Y57.273 E.00697
;WIDTH:0.737302
G1 X102.609 Y57.315 E.00664
;WIDTH:0.702408
G1 X102.371 Y57.42 E.01426
;WIDTH:0.676204
G1 X102.132 Y57.525 E.01375
;WIDTH:0.649999
G1 X101.707 Y57.846 E.02689
G1 X101.415 Y58.242 E.02484
G1 X101.275 Y58.552 E.01717
G1 X101.063 Y59.425 E.04535
G1 X100.998 Y59.957 E.02705
G1 X101.07 Y60.465 E.0259
M204 P1250
G1 X101.682 Y60.378 F9000
M204 P800
;TYPE:External perimeter
G1 F1200
G1 X101.863 Y60.735 E.0202
G1 X102.294 Y61.116 E.02904
G1 X103.244 Y61.448 E.0508
G1 X103.763 Y61.728 E.02977
G1 X104.193 Y62.07 E.02773
G1 X104.561 Y62.429 E.02595
G1 X105.183 Y63.187 E.0495
G1 X104.898 Y63.827 E.03536
G1 X104.458 Y63.866 E.0223
G1 X103.918 Y63.872 E.02726
G1 X103.408 Y63.839 E.0258
G1 X102.724 Y63.713 E.03511
G1 X102.294 Y63.539 E.02342
G1 X101.495 Y63.086 E.04636
G1 X100.97 Y62.994 E.02691
G1 X100.451 Y63.102 E.02676
G1 X100.036 Y63.391 E.02553
G1 X99.419 Y64.223 E.05229
G1 X99.223 Y64.755 E.02862
G1 X99.252 Y65.273 E.02619
G1 X99.48 Y65.746 E.02651
G1 X100.291 Y66.508 E.05617
G1 X100.652 Y67.039 E.03241
G1 X100.9 Y67.595 E.03073
G1 X101.086 Y68.088 E.0266
G1 X101.277 Y68.811 E.03775
G1 X100.759 Y69.278 E.03521
G1 X100.058 Y69.022 E.03767
G1 X99.59 Y68.797 E.02621
G1 X99.004 Y68.427 E.03498
G1 X98.574 Y68.066 E.02834
G1 X98.053 Y67.34 E.04511
G1 X97.706 Y67.025 E.02366
G1 X97.422 Y66.884 E.01601
G1 X96.987 Y66.814 E.02224
G1 X96.447 Y66.922 E.0278
G1 X95.649 Y67.37 E.0462
G1 X95.297 Y67.677 E.02358
G1 X95.146 Y67.896 E.01343
G1 X95.002 Y68.366 E.02481
G1 X95.047 Y68.92 E.02806
G1 X95.458 Y69.858 E.05169
G1 X95.571 Y70.684 E.04208
G1 X95.562 Y71.442 E.03827
G1 X95.42 Y72.36 E.04689
G1 X94.418 Y72.681 E.05311
G1 X93.683 Y72.866 E.03826
G1 X92.51 Y73.092 E.0603
G1 X91.862 Y73.178 E.033
G1 X91.022 Y73.25 E.04256
G1 X89.693 Y73.302 E.06714
G1 X89.528 Y73.421 E.01027
G1 X89.474 Y73.593 E.0091
G1 X89.474 Y115.968 E2.13904
G1 X89.493 Y116.072 E.00534
G1 X92.601 Y124.612 E.45875
G1 X92.672 Y124.722 E.00661
G1 X100.437 Y132.487 E.55433
G1 X100.437 Y139.628 E.36047
G1 X93.863 Y139.628 E.33185
G1 X85.524 Y116.718 E1.2307
G1 X85.524 Y72.899 E2.21193
G1 X85.452 Y72.702 E.01059
G1 X85.317 Y72.61 E.00825
G1 X84.475 Y72.331 E.04478
G1 X83.806 Y72.077 E.03612
G1 X83.149 Y71.793 E.03613
G1 X82.504 Y71.482 E.03615
G1 X81.875 Y71.143 E.03607
G1 X81.26 Y70.776 E.03615
G1 X80.662 Y70.384 E.03609
G1 X80.082 Y69.965 E.03612
G1 X79.519 Y69.522 E.03616
G1 X78.977 Y69.055 E.03611
G1 X78.457 Y68.565 E.03607
G1 X77.956 Y68.052 E.0362
G1 X77.48 Y67.519 E.03607
G1 X77.026 Y66.965 E.03616
G1 X76.598 Y66.392 E.0361
G1 X76.194 Y65.801 E.03614
G1 X75.817 Y65.193 E.03611
G1 X75.467 Y64.57 E.03607
G1 X75.143 Y63.931 E.03617
G1 X74.847 Y63.279 E.03615
G1 X74.581 Y62.615 E.03611
G1 X74.344 Y61.94 E.03611
G1 X74.136 Y61.256 E.03609
G1 X73.958 Y60.562 E.03617
G1 X73.81 Y59.862 E.03612
