; generated by PrusaSlicer 2.6.0-alpha6 on 2023-05-07 at 20:48:41 UTC


;
;

;
;
; 

; external perimeters extrusion width = 0.68mm
; perimeters extrusion width = 0.68mm
; infill extrusion width = 0.68mm
; solid infill extrusion width = 0.68mm
; top infill extrusion width = 0.60mm
; support material extrusion width = 0.55mm
; first layer extrusion width = 0.65mm

M73 P0 R32
M201 X2500 Y2500 Z400 E5000 ; sets maximum accelerations, mm/sec^2
M203 X180 Y180 Z12 E80 ; sets maximum feedrates, mm / sec
M204 P1250 R1250 T2500 ; sets acceleration (P, T) and retract acceleration (R), mm/sec^2
M205 X8.00 Y8.00 Z2.00 E10.00 ; sets the jerk limits, mm/sec
M205 S0 T0 ; sets the minimum extruding and travel feed rate, mm/sec
;TYPE:Custom
M862.3 P "MINI" ; printer model check
G90 ; use absolute coordinates
M83 ; extruder relative mode
M104 S170 ; set extruder temp for bed leveling
M140 S60 ; set bed temp
M109 R170 ; wait for bed leveling temp
M190 S60 ; wait for bed temp
M204 T1250 ; set travel acceleration
G28 ; home all without mesh bed level
G29 ; mesh bed leveling 
M204 T2500 ; restore travel acceleration
M104 S215 ; set extruder temp
G92 E0
G1 Y-2 X179 F2400
G1 Z3 F720
M109 S215 ; wait for extruder temp

; intro line
G1 X170 F1000
G1 Z0.2 F720
G1 X110 E8 F900
G1 X40 E10 F700
G92 E0

M221 S95 ; set flow
G21 ; set units to millimeters
G90 ; use absolute coordinates
M83 ; use relative distances for extrusion
M900 K0.12 ; Filament gcode LA 1.5
; ; Filament gcode LA 1.0
M107
;LAYER_CHANGE
;Z:0.2
;HEIGHT:0.2
;BEFORE_LAYER_CHANGE
G92 E0.0
;0.2


G1 E-3.2 F4200
G1 Z.2 F720
;AFTER_LAYER_CHANGE
;0.2
G1 Z.4
G1 X46.376 Y68.003 F9000
G1 Z.2 F720
G1 E3.2 F2400
M204 P800
;TYPE:Skirt/Brim
;WIDTH:0.65
G1 F1200
G1 X47.531 Y67.733 E.05987
G1 X84.608 Y67.733 E1.87161
G1 X86 Y68.136 E.07315
G1 X140.32 Y102.456 E3.24345
G1 X141.274 Y103.522 E.07221
M73 P1 R32
G1 X141.535 Y104.66 E.05894
G1 X141.535 Y109.66 E.25239
G1 X141.143 Y111.035 E.07217
G1 X140.084 Y111.997 E.07222
G1 X138.928 Y112.267 E.05992
G1 X116.856 Y112.267 E1.11417
G1 X115.7 Y111.996 E.05994
G1 X46.375 Y77.677 E3.90478
G1 X45.316 Y76.715 E.07222
G1 X44.924 Y75.34 E.07217
G1 X44.924 Y70.34 E.25239
G1 X45.317 Y68.965 E.07219
G1 X46.309 Y68.064 E.06765
M204 P1250
; printing object cake_extension.stl id:0 copy 0
G1 E-2.24 F4200
;WIPE_START
G1 F7200
G1 X47.531 Y67.733 E-.70159
G1 X47.997 Y67.733 E-.25841
;WIPE_END
G1 Z.4 F720
G1 X83.174 Y74.409 F9000
G1 Z.2 F720
G1 E3.2 F2400
M204 P800
;TYPE:Perimeter
;WIDTH:0.649999
G1 F1200
G1 X82.977 Y74.277 E.01197
G1 X82.628 Y74.208 E.01796
G1 X50.805 Y74.208 E1.60639
G1 X50.805 Y71.472 E.13811
G1 X84.139 Y71.472 E1.68266
G1 X118.192 Y105.525 E2.43097
G1 X118.487 Y105.723 E.01793
G1 X118.836 Y105.792 E.01796
G1 X137.796 Y105.792 E.95708
G1 X137.796 Y108.528 E.13811
G1 X117.325 Y108.528 E1.03335
G1 X83.249 Y74.459 E2.43236
M204 P1250
G1 X82.856 Y74.917 F9000
M204 P800
;TYPE:External perimeter
G1 F1200
G1 X82.628 Y74.815 E.01261
G1 X50.198 Y74.815 E1.63703
G1 X50.198 Y70.865 E.19939
M73 P2 R32
G1 X84.39 Y70.865 E1.72597
G1 X118.661 Y105.13 E2.44632
G1 X118.836 Y105.185 E.00926
M73 P2 R31
G1 X138.403 Y105.185 E.98772
G1 X138.403 Y109.135 E.19939
G1 X117.074 Y109.135 E1.07666
G1 X82.92 Y74.981 E2.43818
M204 P1250
G1 X82.841 Y74.668 F9000
G1 X83.642 Y74.2
M204 P800
;TYPE:Solid infill
;WIDTH:0.65
G1 F1200
G1 X83.736 Y74.106 E.00671
G1 X83.307 Y73.677 E.03063
G1 X83.736 Y73.248 E.03063
G1 X84.594 Y74.106 E.06125
G1 X84.165 Y74.535 E.03063
G1 X84.594 Y74.965 E.03066
G1 X85.024 Y74.535 E.0307
G1 X85.882 Y75.394 E.06129
G1 X85.453 Y75.823 E.03063
G1 X85.024 Y75.394 E.03063
G1 X84.929 Y75.488 E.00675
M204 P1250
G1 E-2.24 F4200
;WIPE_START
G1 F7200
G1 X85.024 Y75.394 E-.07406
G1 X85.453 Y75.823 E-.33621
G1 X85.882 Y75.394 E-.33621
G1 X85.61 Y75.121 E-.21352
;WIPE_END
G1 Z.4 F720
G1 X88.793 Y79.352 F9000
G1 Z.2 F720
G1 E3.2 F2400
M204 P800
G1 F1200
G1 X88.887 Y79.257 E.00675
G1 X88.458 Y78.828 E.03063
G1 X88.887 Y78.399 E.03063
G1 X89.746 Y79.257 E.06129
G1 X89.316 Y79.687 E.0307
G1 X89.746 Y80.116 E.03066
G1 X90.175 Y79.687 E.03063
G1 X90.604 Y80.116 E.03063
G1 X90.175 Y80.545 E.03063
G1 X90.604 Y80.974 E.03063
G1 X91.033 Y80.545 E.03063
G1 X91.892 Y81.404 E.06132
G1 X91.463 Y81.833 E.03063
G1 X91.033 Y81.404 E.03066
G1 X90.939 Y81.498 E.00671
M204 P1250
G1 E-2.24 F4200
;WIPE_START
G1 F7200
G1 X91.033 Y81.404 E-.07367
G1 X91.463 Y81.833 E-.3366
G1 X91.892 Y81.404 E-.33621
G1 X91.62 Y81.132 E-.21352
;WIPE_END
G1 Z.4 F720
G1 X92.227 Y82.786 F9000
G1 Z.2 F720
G1 E3.2 F2400
M204 P800
G1 F1200
G1 X92.321 Y82.692 E.00671
G1 X91.892 Y82.262 E.03066
G1 X92.321 Y81.833 E.03063
G1 X93.18 Y82.692 E.06132
G1 X92.751 Y83.121 E.03063
G1 X93.18 Y83.55 E.03063
G1 X94.038 Y82.692 E.06125
G1 X93.609 Y82.262 E.03066
G1 X93.947 Y81.924 E.02413
M204 P1250
G1 X93.518 Y81.495 F9000
M204 P800
G1 F1200
G1 X93.18 Y81.833 E.02413
G1 X92.321 Y80.974 E.06132
G1 X92.659 Y80.637 E.02409
M204 P1250
G1 X92.23 Y80.207 F9000
M204 P800
G1 F1200
G1 X91.892 Y80.545 E.02413
G1 X91.033 Y79.687 E.06129
G1 X91.371 Y79.349 E.02413
M204 P1250
G1 X90.942 Y78.919 F9000
M204 P800
G1 F1200
G1 X90.604 Y79.257 E.02413
G1 X90.175 Y78.828 E.03063
G1 X89.746 Y78.399 E.03063
G1 X90.084 Y78.061 E.02413
M204 P1250
G1 X89.654 Y77.632 F9000
M204 P800
G1 F1200
G1 X89.316 Y77.97 E.02413
G1 X88.458 Y77.111 E.06129
G1 X88.796 Y76.773 E.02413
M204 P1250
G1 X88.366 Y76.344 F9000
M204 P800
G1 F1200
G1 X88.029 Y76.682 E.02409
G1 X87.599 Y76.252 E.0307
G1 X86.741 Y77.111 E.06129
G1 X87.17 Y77.54 E.03063
G1 X87.599 Y77.111 E.03063
G1 X88.458 Y77.97 E.06132
G1 X88.029 Y78.399 E.03063
G1 X87.599 Y77.97 E.03066
G1 X87.505 Y78.064 E.00671
M204 P1250
G1 E-2.24 F4200
;WIPE_START
G1 F7200
G1 X87.599 Y77.97 E-.07367
G1 X88.029 Y78.399 E-.3366
G1 X88.458 Y77.97 E-.33621
G1 X88.186 Y77.698 E-.21352
;WIPE_END
G1 Z.4 F720
G1 X86.217 Y76.776 F9000
G1 Z.2 F720
G1 E3.2 F2400
M204 P800
G1 F1200
G1 X86.311 Y76.682 E.00671
G1 X85.882 Y76.252 E.03066
G1 X86.311 Y75.823 E.03063
G1 X86.741 Y76.252 E.03066
G1 X87.508 Y75.485 E.05475
M204 P1250
G1 X87.079 Y75.056 F9000
M204 P800
G1 F1200
G1 X86.741 Y75.394 E.02413
G1 X85.882 Y74.535 E.06132
G1 X86.22 Y74.197 E.02413
M204 P1250
G1 X85.791 Y73.768 F9000
M204 P800
G1 F1200
G1 X85.453 Y74.106 E.02413
G1 X85.024 Y73.677 E.03063
G1 X84.594 Y73.248 E.03066
G1 X84.932 Y72.91 E.02413
M204 P1250
G1 X84.503 Y72.48 F9000
M204 P800
G1 F1200
G1 X84.165 Y72.818 E.02413
G1 X83.736 Y72.389 E.03063
G1 X84.074 Y72.051 E.02413
M204 P1250
G1 X83.339 Y71.927 F9000
M204 P800
G1 F1200
G1 X83.307 Y71.96 E.00232
G1 X83.274 Y71.927 E.00236
M204 P1250
G1 E-2.24 F4200
;WIPE_START
G1 F7200
G1 X83.307 Y71.96 E-.02586
G1 X83.339 Y71.927 E-.02547
;WIPE_END
G1 E-.90867 F4200
G1 Z.4 F720
G1 X80.807 Y73.753 F9000
G1 Z.2 F720
G1 E3.2 F2400
M204 P800
G1 F1200
G1 X80.731 Y73.677 E.00543
G1 X80.655 Y73.753 E.00543
M204 P1250
G1 X79.948 Y73.753 F9000
M204 P800
G1 F1200
G1 X79.872 Y73.677 E.00543
G1 X81.16 Y72.389 E.09195
G1 X81.59 Y72.818 E.03066
G1 X81.16 Y73.248 E.0307
G1 X81.665 Y73.753 E.03605
M204 P1250
G1 X82.372 Y73.753 F9000
M204 P800
G1 F1200
G1 X82.448 Y73.677 E.00543
G1 X82.019 Y73.248 E.03063
G1 X82.448 Y72.818 E.03066
G1 X82.877 Y73.248 E.03066
G1 X83.307 Y72.818 E.0307
G1 X82.448 Y71.96 E.06129
G1 X82.019 Y72.389 E.03063
G1 X81.59 Y71.96 E.03063
G1 X81.622 Y71.927 E.00232
M204 P1250
G1 X80.763 Y71.927 F9000
M204 P800
G1 F1200
G1 X80.302 Y72.389 E.03295
G1 X79.872 Y71.96 E.03066
G1 X79.905 Y71.927 E.00236
M204 P1250
G1 E-2.24 F4200
;WIPE_START
G1 F7200
G1 X79.872 Y71.96 E-.02586
G1 X80.302 Y72.389 E-.3366
G1 X80.763 Y71.927 E-.36168
;WIPE_END
G1 E-.23586 F4200
G1 Z.4 F720
G1 X78.231 Y73.753 F9000
G1 Z.2 F720
G1 E3.2 F2400
M204 P800
G1 F1200
G1 X78.155 Y73.677 E.00543
G1 X78.585 Y73.248 E.03066
G1 X79.014 Y73.677 E.03063
G1 X79.872 Y72.818 E.06129
G1 X79.443 Y72.389 E.03063
G1 X79.014 Y72.818 E.03063
G1 X78.585 Y72.389 E.03063
G1 X79.014 Y71.96 E.03063
G1 X78.982 Y71.927 E.00232
M204 P1250
G1 X78.188 Y71.927 F9000
M204 P800
G1 F1200
G1 X77.726 Y72.389 E.03298
G1 X78.155 Y72.818 E.03063
G1 X77.726 Y73.248 E.03066
G1 X76.868 Y72.389 E.06129
G1 X77.297 Y71.96 E.03063
G1 X77.265 Y71.927 E.00232
M204 P1250
G1 X76.471 Y71.927 F9000
M204 P800
G1 F1200
G1 X76.438 Y71.96 E.00236
G1 X76.406 Y71.927 E.00232
M204 P1250
G1 E-2.24 F4200
;WIPE_START
G1 F7200
G1 X76.438 Y71.96 E-.02547
G1 X76.471 Y71.927 E-.02586
;WIPE_END
G1 E-.90867 F4200
G1 Z.4 F720
G1 X76.362 Y73.753 F9000
G1 Z.2 F720
G1 E3.2 F2400
M204 P800
G1 F1200
G1 X76.438 Y73.677 E.00543
G1 X76.514 Y73.753 E.00543
M204 P1250
G1 X77.221 Y73.753 F9000
M204 P800
G1 F1200
G1 X77.297 Y73.677 E.00543
G1 X76.438 Y72.818 E.06132
G1 X76.009 Y73.248 E.03066
G1 X75.58 Y72.818 E.03066
G1 X76.009 Y72.389 E.03063
G1 X75.547 Y71.927 E.03298
M204 P1250
G1 X74.753 Y71.927 F9000
M204 P800
G1 F1200
G1 X74.721 Y71.96 E.00232
G1 X75.15 Y72.389 E.03063
G1 X74.721 Y72.818 E.03063
G1 X74.292 Y72.389 E.03063
G1 X73.863 Y72.818 E.03063
G1 X74.721 Y73.677 E.06129
G1 X75.15 Y73.248 E.03063
G1 X75.58 Y73.677 E.03066
G1 X75.504 Y73.753 E.00543
M204 P1250
G1 E-2.24 F4200
;WIPE_START
G1 F7200
G1 X75.58 Y73.677 E-.05956
G1 X75.15 Y73.248 E-.3366
G1 X74.721 Y73.677 E-.33621
G1 X74.431 Y73.386 E-.22763
;WIPE_END
G1 Z.4 F720
G1 X73.83 Y71.927 F9000
G1 Z.2 F720
G1 E3.2 F2400
M204 P800
G1 F1200
G1 X73.863 Y71.96 E.00236
G1 X73.433 Y72.389 E.03066
G1 X72.972 Y71.927 E.03295
M204 P1250
G1 X72.113 Y71.927 F9000
M204 P800
G1 F1200
G1 X72.146 Y71.96 E.00236
G1 X71.716 Y72.389 E.03066
G1 X71.287 Y71.96 E.03063
G1 X70.428 Y72.818 E.06129
G1 X70.858 Y73.248 E.0307
G1 X71.287 Y72.818 E.03066
G1 X71.716 Y73.248 E.03066
G1 X71.287 Y73.677 E.03063
G1 X71.363 Y73.753 E.00543
M204 P1250
G1 X72.07 Y73.753 F9000
M204 P800
G1 F1200
G1 X72.575 Y73.248 E.03605
G1 X72.146 Y72.818 E.03066
G1 X72.575 Y72.389 E.03063
G1 X73.863 Y73.677 E.09195
G1 X73.787 Y73.753 E.00543
M204 P1250
G1 X73.08 Y73.753 F9000
M204 P800
G1 F1200
G1 X73.004 Y73.677 E.00543
G1 X72.928 Y73.753 E.00543
M204 P1250
G1 E-2.24 F4200
;WIPE_START
G1 F7200
G1 X73.004 Y73.677 E-.05956
G1 X73.08 Y73.753 E-.05956
;WIPE_END
G1 E-.84088 F4200
G1 Z.4 F720
G1 X69.494 Y73.753 F9000
G1 Z.2 F720
G1 E3.2 F2400
M204 P800
G1 F1200
G1 X69.999 Y73.248 E.03605
G1 X70.428 Y73.677 E.03063
G1 X70.353 Y73.753 E.00539
M204 P1250
G1 E-2.24 F4200
;WIPE_START
G1 F7200
G1 X70.428 Y73.677 E-.05917
G1 X69.999 Y73.248 E-.33621
G1 X69.494 Y73.753 E-.39577
;WIPE_END
G1 E-.16885 F4200
G1 Z.4 F720
G1 X70.461 Y71.927 F9000
G1 Z.2 F720
G1 E3.2 F2400
M204 P800
G1 F1200
G1 X70.428 Y71.96 E.00236
G1 X70.396 Y71.927 E.00232
M204 P1250
G1 X69.602 Y71.927 F9000
M204 P800
G1 F1200
G1 X69.57 Y71.96 E.00232
G1 X69.999 Y72.389 E.03063
G1 X69.57 Y72.818 E.03063
G1 X69.141 Y72.389 E.03063
G1 X68.711 Y72.818 E.03066
G1 X69.141 Y73.248 E.0307
G1 X68.636 Y73.753 E.03605
M204 P1250
G1 X67.929 Y73.753 F9000
M204 P800
G1 F1200
G1 X67.853 Y73.677 E.00543
G1 X68.282 Y73.248 E.03063
G1 X67.853 Y72.818 E.03066
G1 X67.424 Y73.248 E.03066
G1 X66.994 Y72.818 E.0307
G1 X67.853 Y71.96 E.06129
G1 X68.282 Y72.389 E.03063
G1 X68.711 Y71.96 E.03063
G1 X68.679 Y71.927 E.00232
M204 P1250
G1 E-2.24 F4200
;WIPE_START
G1 F7200
G1 X68.711 Y71.96 E-.02547
G1 X68.282 Y72.389 E-.33621
G1 X67.853 Y71.96 E-.33621
M73 P3 R31
G1 X67.518 Y72.294 E-.26211
;WIPE_END
G1 Z.4 F720
G1 X66.918 Y73.753 F9000
G1 Z.2 F720
G1 E3.2 F2400
M204 P800
G1 F1200
G1 X66.994 Y73.677 E.00543
G1 X66.565 Y73.248 E.03063
G1 X66.06 Y73.753 E.03605
M204 P1250
G1 X65.201 Y73.753 F9000
M204 P800
G1 F1200
G1 X65.277 Y73.677 E.00543
G1 X64.848 Y73.248 E.03063
G1 X64.419 Y73.677 E.03063
G1 X63.56 Y72.818 E.06132
G1 X63.989 Y72.389 E.03063
G1 X64.419 Y72.818 E.03066
G1 X64.848 Y72.389 E.03063
G1 X64.419 Y71.96 E.03063
G1 X64.451 Y71.927 E.00232
M204 P1250
G1 X65.245 Y71.927 F9000
M204 P800
G1 F1200
G1 X65.707 Y72.389 E.03298
G1 X65.277 Y72.818 E.03066
G1 X65.707 Y73.248 E.0307
G1 X66.994 Y71.96 E.09191
G1 X66.962 Y71.927 E.00232
M204 P1250
G1 X66.168 Y71.927 F9000
M204 P800
G1 F1200
G1 X66.136 Y71.96 E.00232
G1 X66.104 Y71.927 E.00232
M204 P1250
G1 E-2.24 F4200
;WIPE_START
G1 F7200
G1 X66.136 Y71.96 E-.02547
G1 X66.168 Y71.927 E-.02547
;WIPE_END
G1 E-.90906 F4200
G1 Z.4 F720
G1 X63.528 Y71.927 F9000
G1 Z.2 F720
G1 E3.2 F2400
M204 P800
G1 F1200
G1 X63.56 Y71.96 E.00232
G1 X63.131 Y72.389 E.03063
G1 X62.669 Y71.927 E.03298
M204 P1250
G1 E-2.24 F4200
;WIPE_START
G1 F7200
G1 X63.131 Y72.389 E-.36207
G1 X63.56 Y71.96 E-.33621
G1 X63.528 Y71.927 E-.02547
;WIPE_END
G1 E-.23625 F4200
G1 Z.4 F720
G1 X62.778 Y73.753 F9000
G1 Z.2 F720
G1 E3.2 F2400
M204 P800
G1 F1200
G1 X62.702 Y73.677 E.00543
G1 X63.131 Y73.248 E.03063
G1 X63.636 Y73.753 E.03605
M204 P1250
G1 E-2.24 F4200
;WIPE_START
G1 F7200
G1 X63.131 Y73.248 E-.39577
G1 X62.702 Y73.677 E-.33621
G1 X62.778 Y73.753 E-.05956
;WIPE_END
G1 E-.16846 F4200
G1 Z.4 F720
G1 X60.202 Y73.753 F9000
G1 Z.2 F720
G1 E3.2 F2400
M204 P800
G1 F1200
G1 X60.126 Y73.677 E.00543
G1 X60.05 Y73.753 E.00543
M204 P1250
G1 X59.343 Y73.753 F9000
M204 P800
G1 F1200
G1 X59.267 Y73.677 E.00543
G1 X60.555 Y72.389 E.09195
G1 X60.985 Y72.818 E.03066
G1 X60.555 Y73.248 E.0307
G1 X61.06 Y73.753 E.03605
M204 P1250
G1 X61.767 Y73.753 F9000
M204 P800
G1 F1200
G1 X61.843 Y73.677 E.00543
G1 X61.414 Y73.248 E.03063
G1 X61.843 Y72.818 E.03066
G1 X62.272 Y73.248 E.03066
G1 X62.702 Y72.818 E.0307
G1 X61.843 Y71.96 E.06129
G1 X61.414 Y72.389 E.03063
G1 X60.985 Y71.96 E.03063
G1 X61.017 Y71.927 E.00232
M204 P1250
G1 X60.158 Y71.927 F9000
M204 P800
G1 F1200
G1 X59.697 Y72.389 E.03295
G1 X59.267 Y71.96 E.03066
G1 X59.3 Y71.927 E.00236
M204 P1250
G1 E-2.24 F4200
;WIPE_START
G1 F7200
G1 X59.267 Y71.96 E-.02586
G1 X59.697 Y72.389 E-.3366
G1 X60.158 Y71.927 E-.36168
;WIPE_END
G1 E-.23586 F4200
G1 Z.4 F720
G1 X57.626 Y73.753 F9000
G1 Z.2 F720
G1 E3.2 F2400
M204 P800
G1 F1200
G1 X57.55 Y73.677 E.00543
G1 X57.98 Y73.248 E.03066
G1 X58.409 Y73.677 E.03063
G1 X59.267 Y72.818 E.06129
G1 X58.838 Y72.389 E.03063
G1 X58.409 Y72.818 E.03063
G1 X57.98 Y72.389 E.03063
G1 X58.409 Y71.96 E.03063
G1 X58.377 Y71.927 E.00232
M204 P1250
G1 X57.583 Y71.927 F9000
M204 P800
G1 F1200
G1 X57.121 Y72.389 E.03298
G1 X57.55 Y72.818 E.03063
G1 X57.121 Y73.248 E.03066
G1 X56.692 Y72.818 E.03066
G1 X56.263 Y73.248 E.03066
G1 X56.692 Y73.677 E.03063
G1 X56.616 Y73.753 E.00543
M204 P1250
G1 X55.909 Y73.753 F9000
M204 P800
G1 F1200
G1 X55.833 Y73.677 E.00543
G1 X55.757 Y73.753 E.00543
M204 P1250
G1 E-2.24 F4200
;WIPE_START
G1 F7200
G1 X55.833 Y73.677 E-.05956
G1 X55.909 Y73.753 E-.05956
;WIPE_END
G1 E-.84088 F4200
G1 Z.4 F720
G1 X55.866 Y71.927 F9000
G1 Z.2 F720
G1 E3.2 F2400
M204 P800
G1 F1200
G1 X55.833 Y71.96 E.00236
G1 X56.263 Y72.389 E.03066
G1 X56.724 Y71.927 E.03295
M204 P1250
G1 E-2.24 F4200
;WIPE_START
G1 F7200
G1 X56.263 Y72.389 E-.36168
G1 X55.833 Y71.96 E-.3366
G1 X55.866 Y71.927 E-.02586
;WIPE_END
G1 E-.23586 F4200
G1 Z.4 F720
G1 X53.29 Y71.927 F9000
G1 Z.2 F720
G1 E3.2 F2400
M204 P800
G1 F1200
G1 X53.258 Y71.96 E.00232
G1 X53.225 Y71.927 E.00236
M204 P1250
G1 X52.431 Y71.927 F9000
M204 P800
G1 F1200
G1 X52.399 Y71.96 E.00232
G1 X53.687 Y73.248 E.09195
G1 X54.116 Y72.818 E.03066
G1 X53.687 Y72.389 E.03063
G1 X54.148 Y71.927 E.03295
M204 P1250
G1 X54.943 Y71.927 F9000
M204 P800
G1 F1200
G1 X54.975 Y71.96 E.00232
G1 X54.545 Y72.389 E.03066
G1 X54.975 Y72.818 E.03066
G1 X55.404 Y72.389 E.03063
G1 X55.833 Y72.818 E.03063
G1 X54.975 Y73.677 E.06129
G1 X54.545 Y73.248 E.03066
G1 X54.116 Y73.677 E.03063
G1 X54.192 Y73.753 E.00543
M204 P1250
G1 X53.334 Y73.753 F9000
M204 P800
G1 F1200
G1 X52.828 Y73.248 E.03609
G1 X52.399 Y73.677 E.03063
G1 X52.475 Y73.753 E.00543
M204 P1250
G1 X51.465 Y73.753 F9000
M204 P800
G1 F1200
G1 X51.541 Y73.677 E.00543
G1 X51.261 Y73.397 E.01999
M204 P1250
G1 X51.261 Y73.098 F9000
M204 P800
G1 F1200
G1 X51.541 Y72.818 E.01999
G1 X51.97 Y73.248 E.03066
G1 X52.399 Y72.818 E.03066
G1 X51.541 Y71.96 E.06125
G1 X51.261 Y72.24 E.01999
M204 P1250
G1 E-2.24 F4200
;WIPE_START
G1 F7200
G1 X51.541 Y71.96 E-.21944
G1 X52.399 Y72.818 E-.67242
G1 X52.312 Y72.905 E-.06814
;WIPE_END
