; generated by PrusaSlicer 2.6.0-alpha6 on 2023-05-07 at 20:47:59 UTC


;
;

;
;
; 

; external perimeters extrusion width = 0.68mm
; perimeters extrusion width = 0.68mm
; infill extrusion width = 0.68mm
; solid infill extrusion width = 0.68mm
; top infill extrusion width = 0.60mm
; support material extrusion width = 0.55mm
; first layer extrusion width = 0.65mm

M73 P0 R38
M201 X2500 Y2500 Z400 E5000 ; sets maximum accelerations, mm/sec^2
M203 X180 Y180 Z12 E80 ; sets maximum feedrates, mm / sec
M204 P1250 R1250 T2500 ; sets acceleration (P, T) and retract acceleration (R), mm/sec^2
M205 X8.00 Y8.00 Z2.00 E10.00 ; sets the jerk limits, mm/sec
M205 S0 T0 ; sets the minimum extruding and travel feed rate, mm/sec
;TYPE:Custom
M862.3 P "MINI" ; printer model check
G90 ; use absolute coordinates
M83 ; extruder relative mode
M104 S170 ; set extruder temp for bed leveling
M140 S60 ; set bed temp
M109 R170 ; wait for bed leveling temp
M190 S60 ; wait for bed temp
M204 T1250 ; set travel acceleration
G28 ; home all without mesh bed level
G29 ; mesh bed leveling 
M204 T2500 ; restore travel acceleration
M104 S215 ; set extruder temp
G92 E0
G1 Y-2 X179 F2400
G1 Z3 F720
M109 S215 ; wait for extruder temp

; intro line
G1 X170 F1000
G1 Z0.2 F720
G1 X110 E8 F900
G1 X40 E10 F700
G92 E0

M221 S95 ; set flow
G21 ; set units to millimeters
G90 ; use absolute coordinates
M83 ; use relative distances for extrusion
M900 K0.12 ; Filament gcode LA 1.5
; ; Filament gcode LA 1.0
M107
;LAYER_CHANGE
;Z:0.2
;HEIGHT:0.2
;BEFORE_LAYER_CHANGE
G92 E0.0
;0.2


G1 E-3.2 F4200
G1 Z.2 F720
;AFTER_LAYER_CHANGE
;0.2
G1 Z.4
G1 X53.844 Y72.663 F9000
G1 Z.2 F720
G1 E3.2 F2400
M204 P800
;TYPE:Skirt/Brim
;WIDTH:0.65
G1 F1200
G1 X55 Y72.393 E.05992
G1 X125 Y72.393 E3.53352
G1 X126.375 Y72.785 E.07217
G1 X127.337 Y73.844 E.07222
G1 X127.607 Y75 E.05992
G1 X127.607 Y84 E.45431
G1 X127.205 Y85.391 E.07309
G1 X115.198 Y104.409 E1.13533
G1 X114.424 Y105.333 E.06084
G1 X113.677 Y105.999 E.05052
G1 X112.764 Y106.61 E.05546
G1 X111.859 Y107.049 E.05077
G1 X110.376 Y107.481 E.07797
G1 X109 Y107.607 E.06975
G1 X59.395 Y107.583 E2.504
G1 X58.298 Y107.414 E.05603
M73 P1 R38
G1 X57.344 Y107.128 E.05027
G1 X56.436 Y106.72 E.05025
G1 X55.422 Y106.075 E.06066
G1 X54.664 Y105.421 E.05054
G1 X53.931 Y104.585 E.05612
G1 X53.387 Y103.759 E.04993
G1 X52.951 Y102.858 E.05053
G1 X52.522 Y101.391 E.07715
G1 X52.394 Y100.073 E.06684
G1 X52.393 Y75 E1.26566
G1 X52.785 Y73.625 E.07217
G1 X53.778 Y72.724 E.06768
M204 P1250
; printing object cake_cover_front.stl id:0 copy 0
G1 E-2.24 F4200
;WIPE_START
G1 F7200
G1 X55 Y72.393 E-.70159
G1 X55.466 Y72.393 E-.25841
;WIPE_END
G1 Z.4 F720
G1 X62.682 Y77.346 F9000
G1 Z.2 F720
G1 E3.2 F2400
M204 P800
;TYPE:Perimeter
;WIDTH:0.649999
G1 F1200
G1 X86.317 Y77.346 E1.19307
G1 X86.055 Y78.117 E.0411
G1 X85.96 Y78.945 E.04207
G1 X86.016 Y79.688 E.03761
G1 X86.246 Y80.496 E.04241
G1 X86.585 Y81.164 E.03781
G1 X86.96 Y81.654 E.03115
G1 X81.719 Y81.654 E.26456
G1 X81.165 Y81.362 E.03161
G1 X80.543 Y81.082 E.03443
G1 X79.525 Y80.694 E.05499
G1 X78.743 Y80.452 E.04132
G1 X77.684 Y80.198 E.05497
G1 X76.921 Y80.064 E.0391
G1 X76.236 Y79.98 E.03484
G1 X74.977 Y79.907 E.06366
G1 X73.888 Y79.93 E.05498
G1 X73.073 Y80 E.04129
G1 X71.995 Y80.163 E.05503
G1 X71.196 Y80.337 E.04128
G1 X70.149 Y80.636 E.05496
G1 X69.377 Y80.912 E.04139
G1 X68.377 Y81.343 E.05497
G1 X67.781 Y81.654 E.03394
G1 X62.045 Y81.654 E.28955
G1 X62.306 Y81.327 E.02112
G1 X62.713 Y80.592 E.04241
G1 X62.945 Y79.883 E.03766
G1 X63.02 Y79.361 E.02662
G1 X63.027 Y78.645 E.03614
G1 X62.888 Y77.901 E.03821
G1 X62.713 Y77.431 E.02532
M204 P1250
G1 X61.792 Y77.015 F9000
M204 P800
G1 F1200
G1 X61.577 Y76.739 E.01766
G1 X87.415 Y76.739 E1.30427
G1 X87.016 Y77.3 E.03475
G1 X86.729 Y77.95 E.03587
G1 X86.593 Y78.569 E.03199
G1 X86.575 Y79.277 E.03575
G1 X86.687 Y79.904 E.03215
G1 X86.944 Y80.571 E.03608
G1 X87.284 Y81.103 E.03187
G1 X87.804 Y81.641 E.03777
G1 X88.398 Y82.04 E.03612
G1 X88.928 Y82.261 E.02899
G1 X81.567 Y82.261 E.37157
G1 X80.912 Y81.914 E.03742
G1 X80.326 Y81.65 E.03244
G1 X79.309 Y81.262 E.05495
G1 X78.601 Y81.043 E.03741
G1 X77.542 Y80.788 E.05498
G1 X76.844 Y80.666 E.03577
G1 X76.197 Y80.586 E.03291
G1 X74.99 Y80.514 E.06104
G1 X73.901 Y80.537 E.05498
G1 X73.163 Y80.601 E.03739
G1 X72.086 Y80.763 E.05498
G1 X71.363 Y80.921 E.03736
G1 X70.315 Y81.22 E.05501
G1 X69.618 Y81.469 E.03736
G1 X68.618 Y81.9 E.05497
G1 X67.933 Y82.261 E.03909
G1 X60.075 Y82.261 E.39666
G1 X60.332 Y82.167 E.01381
G1 X60.956 Y81.823 E.03597
G1 X61.443 Y81.416 E.03204
G1 X61.824 Y80.957 E.03011
G1 X62.168 Y80.325 E.03632
G1 X62.358 Y79.726 E.03172
G1 X62.434 Y79.015 E.03609
G1 X62.382 Y78.39 E.03166
G1 X62.179 Y77.7 E.03631
G1 X61.848 Y77.086 E.03521
M204 P1250
G1 E-2.24 F4200
;WIPE_START
G1 F7200
G1 X61.577 Y76.739 E-.24399
G1 X62.869 Y76.739 E-.71601
;WIPE_END
G1 Z.4 F720
G1 X58.231 Y82.3 F9000
G1 Z.2 F720
G1 E3.2 F2400
M204 P800
;WIDTH:0.571118
G1 F1200
G1 X56.7 Y82.3 E.06724
G1 X56.7 Y81.491 E.03553
G1 X57.164 Y81.855 E.0259
G1 X57.72 Y82.146 E.02756
G1 X58.145 Y82.274 E.01949
M204 P1250
G1 E-2.24 F4200
;WIPE_START
G1 F7200
G1 X56.7 Y82.3 E-.8009
G1 X56.7 Y82.013 E-.1591
;WIPE_END
G1 Z.4 F720
G1 X58.335 Y76.19 F9000
G1 Z.2 F720
G1 E3.2 F2400
M204 P800
;WIDTH:0.80401
G1 F1200
G1 X58.089 Y76.251 E.01604
;WIDTH:0.842338
G1 X57.843 Y76.313 E.01686
;WIDTH:0.855131
G1 X57.306 Y76.609 E.04141
G1 X56.898 Y76.956 E.03617
G1 X56.575 Y77.351 E.03446
G1 X56.29 Y77.9 E.04178
;WIDTH:0.84426
G1 X56.235 Y78.159 E.01764
;WIDTH:0.795958
G1 X56.181 Y78.419 E.01663
;WIDTH:0.777966
G1 X56.196 Y78.251 E.01031
;WIDTH:0.808275
G1 X56.211 Y78.083 E.01073
;WIDTH:0.855131
G1 X56.235 Y77.468 E.04157
G1 X56.235 Y76.235 E.08327
G1 X57.828 Y76.228 E.10759
;WIDTH:0.842338
G1 X58.082 Y76.209 E.01693
;WIDTH:0.80401
G1 X58.246 Y76.197 E.01041
M204 P1250
G1 E-2.24 F4200
;WIPE_START
G1 F7200
G1 X58.089 Y76.251 E-.09201
G1 X57.843 Y76.313 E-.14059
G1 X57.306 Y76.609 E-.3398
G1 X56.898 Y76.956 E-.29681
G1 X56.794 Y77.083 E-.09079
;WIPE_END
G1 Z.4 F720
G1 X93.682 Y77.346 F9000
G1 Z.2 F720
G1 E3.2 F2400
M204 P800
;WIDTH:0.649999
G1 F1200
G1 X117.317 Y77.346 E1.19307
G1 X117.055 Y78.117 E.0411
G1 X116.96 Y78.945 E.04207
G1 X117.016 Y79.688 E.03761
G1 X117.246 Y80.496 E.04241
G1 X117.585 Y81.164 E.03781
G1 X117.96 Y81.654 E.03115
G1 X113.779 Y81.654 E.21105
G1 X113.411 Y81.686 E.01865
G1 X112.961 Y81.817 E.02366
G1 X112.609 Y82.005 E.02014
G1 X112.313 Y82.24 E.01908
G1 X112.079 Y82.504 E.01781
G1 X111.789 Y83.032 E.03041
G1 X111.69 Y83.387 E.0186
G1 X111.654 Y83.779 E.01987
G1 X111.654 Y87.166 E.17097
G1 X110.992 Y86.622 E.04325
G1 X110.328 Y86.268 E.03798
G1 X109.532 Y86.031 E.04192
G1 X108.784 Y85.957 E.03794
G1 X108.082 Y86.017 E.03557
G1 X107.346 Y86.224 E.03859
G1 X107.346 Y84.121 E.10616
G1 X107.31 Y83.387 E.0371
G1 X107.211 Y83.032 E.0186
G1 X107.073 Y82.737 E.01644
G1 X106.687 Y82.24 E.03177
G1 X106.391 Y82.005 E.01908
G1 X106.039 Y81.817 E.02014
G1 X105.642 Y81.696 E.02095
G1 X105.221 Y81.654 E.02136
G1 X93.045 Y81.654 E.61463
G1 X93.306 Y81.327 E.02112
G1 X93.713 Y80.592 E.04241
G1 X93.945 Y79.883 E.03766
G1 X94.02 Y79.361 E.02662
G1 X94.027 Y78.645 E.03614
G1 X93.888 Y77.901 E.03821
G1 X93.713 Y77.431 E.02532
M204 P1250
G1 X92.792 Y77.015 F9000
M204 P800
G1 F1200
G1 X92.577 Y76.739 E.01766
G1 X118.415 Y76.739 E1.30427
G1 X118.016 Y77.3 E.03475
G1 X117.729 Y77.95 E.03587
G1 X117.593 Y78.569 E.03199
G1 X117.575 Y79.277 E.03575
G1 X117.687 Y79.904 E.03215
G1 X117.944 Y80.571 E.03608
G1 X118.284 Y81.103 E.03187
G1 X118.804 Y81.641 E.03777
G1 X119.398 Y82.04 E.03612
G1 X119.928 Y82.261 E.02899
G1 X113.779 Y82.261 E.31039
G1 X113.516 Y82.284 E.01333
G1 X113.195 Y82.378 E.01688
G1 X112.943 Y82.511 E.01438
G1 X112.564 Y82.868 E.02628
G1 X112.357 Y83.246 E.02175
G1 X112.261 Y83.779 E.02734
G1 X112.261 Y88.649 E.24583
;WIDTH:0.684904
G1 X112.243 Y88.894 E.01311
;WIDTH:0.719809
G1 X112.226 Y89.138 E.01377
;WIDTH:0.754714
G1 X112.208 Y89.383 E.01454
G1 X112.16 Y89.235 E.00921
;WIDTH:0.72701
G1 X112.112 Y89.088 E.0088
;WIDTH:0.699305
G1 X111.831 Y88.429 E.0391
;WIDTH:0.649999
G1 X111.491 Y87.897 E.03187
G1 X110.971 Y87.359 E.03777
G1 X110.377 Y86.96 E.03612
G1 X109.792 Y86.72 E.03192
G1 X109.092 Y86.579 E.03604
G1 X108.493 Y86.576 E.03024
G1 X107.87 Y86.687 E.03194
G1 X107.177 Y86.96 E.0376
G1 X106.739 Y87.237 E.02616
G1 X106.739 Y83.779 E.17456
G1 X106.643 Y83.246 E.02734
G1 X106.436 Y82.868 E.02175
G1 X106.057 Y82.511 E.02628
G1 X105.805 Y82.378 E.01438
G1 X105.522 Y82.291 E.01495
G1 X105.221 Y82.261 E.01527
G1 X91.075 Y82.261 E.71407
G1 X91.332 Y82.167 E.01381
G1 X91.956 Y81.823 E.03597
G1 X92.443 Y81.416 E.03204
G1 X92.824 Y80.957 E.03011
G1 X93.168 Y80.325 E.03632
G1 X93.358 Y79.726 E.03172
G1 X93.434 Y79.015 E.03609
G1 X93.382 Y78.39 E.03166
G1 X93.179 Y77.7 E.03631
G1 X92.848 Y77.086 E.03521
M204 P1250
G1 E-2.24 F4200
;WIPE_START
G1 F7200
G1 X92.577 Y76.739 E-.24399
G1 X93.869 Y76.739 E-.71601
;WIPE_END
G1 Z.4 F720
G1 X107.346 Y93.777 F9000
G1 Z.2 F720
G1 E3.2 F2400
M204 P800
G1 F1200
G1 X107.892 Y93.945 E.02884
G1 X108.42 Y94.02 E.02692
G1 X109.066 Y94.034 E.03262
G1 X109.614 Y93.953 E.02796
G1 X110.315 Y93.738 E.03701
G1 X111.045 Y93.342 E.04192
G1 X111.654 Y92.836 E.03997
G1 X111.654 Y97.166 E.21857
G1 X111.329 Y96.869 E.02222
G1 X110.633 Y96.41 E.04209
G1 X109.937 Y96.13 E.03787
G1 X109.235 Y95.98 E.03624
G1 X108.668 Y95.956 E.02865
G1 X108.082 Y96.017 E.02974
G1 X107.346 Y96.224 E.03859
G1 X107.346 Y93.867 E.11898
M204 P1250
G1 X106.739 Y92.758 F9000
M204 P800
G1 F1200
G1 X106.919 Y92.89 E.01127
G1 X107.478 Y93.182 E.03184
G1 X108.049 Y93.358 E.03016
G1 X108.46 Y93.415 E.02095
G1 X109.007 Y93.43 E.02762
G1 X109.516 Y93.354 E.02598
G1 X110.107 Y93.167 E.03129
G1 X110.731 Y92.823 E.03597
G1 X111.218 Y92.416 E.03204
G1 X111.599 Y91.957 E.03011
G1 X111.943 Y91.325 E.03632
;WIDTH:0.699637
G1 X112.077 Y90.964 E.02103
;WIDTH:0.749274
G1 X112.211 Y90.603 E.02262
G1 X112.223 Y90.743 E.00825
;WIDTH:0.726056
G1 X112.242 Y91.071 E.01866
;WIDTH:0.688028
G1 X112.261 Y91.399 E.01762
;WIDTH:0.649999
G1 X112.261 Y98.649 E.36597
;WIDTH:0.684905
G1 X112.243 Y98.894 E.01311
;WIDTH:0.719811
G1 X112.226 Y99.138 E.01377
;WIDTH:0.754716
G1 X112.208 Y99.383 E.01454
G1 X112.16 Y99.235 E.00921
;WIDTH:0.727012
G1 X112.112 Y99.088 E.0088
;WIDTH:0.699308
G1 X111.831 Y98.429 E.0391
;WIDTH:0.649999
G1 X111.491 Y97.897 E.03187
G1 X110.971 Y97.359 E.03777
G1 X110.377 Y96.96 E.03612
G1 X109.792 Y96.72 E.03192
G1 X109.092 Y96.579 E.03604
G1 X108.493 Y96.576 E.03024
G1 X107.87 Y96.687 E.03194
G1 X107.177 Y96.96 E.0376
G1 X106.739 Y97.237 E.02616
G1 X106.739 Y92.848 E.22155
M204 P1250
G1 E-2.24 F4200
;WIPE_START
G1 F7200
G1 X106.919 Y92.89 E-.10243
G1 X107.478 Y93.182 E-.3495
G1 X108.049 Y93.358 E-.33112
G1 X108.365 Y93.402 E-.17695
;WIPE_END
G1 Z.4 F720
G1 X123.3 Y81.493 F9000
G1 Z.2 F720
M73 P1 R37
G1 E3.2 F2400
M204 P800
;WIDTH:0.57085
G1 F1200
G1 X123.3 Y82.3 E.03543
G1 X121.796 Y82.3 E.06602
G1 X122.319 Y82.13 E.02414
G1 X122.9 Y81.811 E.0291
G1 X123.23 Y81.549 E.0185
M204 P1250
G1 E-2.24 F4200
;WIPE_START
G1 F7200
G1 X123.3 Y82.3 E-.41798
G1 X122.322 Y82.3 E-.54202
;WIPE_END
M73 P2 R37
G1 Z.4 F720
G1 X121.477 Y76.172 F9000
G1 Z.2 F720
G1 E3.2 F2400
M204 P800
;WIDTH:0.771233
G1 F1200
G1 X121.683 Y76.193 E.01254
;WIDTH:0.813061
G1 X121.888 Y76.214 E.0132
;WIDTH:0.854889
G1 X122.093 Y76.235 E.01391
G1 X123.765 Y76.235 E.11289
G1 X123.765 Y77.851 E.10911
G1 X123.785 Y78.055 E.01384
;WIDTH:0.816192
G1 X123.804 Y78.258 E.01311
;WIDTH:0.777494
G1 X123.824 Y78.462 E.01252
G1 X123.783 Y78.262 E.01247
;WIDTH:0.816192
G1 X123.742 Y78.062 E.01313
;WIDTH:0.854889
G1 X123.701 Y77.862 E.01378
G1 X123.452 Y77.391 E.03597
G1 X123.056 Y76.91 E.04206
G1 X122.56 Y76.519 E.04264
G1 X122.084 Y76.276 E.03608
G1 X121.882 Y76.241 E.01384
;WIDTH:0.813061
G1 X121.679 Y76.206 E.01319
;WIDTH:0.771233
G1 X121.566 Y76.187 E.00694
M204 P1250
G1 E-2.24 F4200
;WIPE_START
G1 F7200
G1 X121.683 Y76.193 E-.06492
G1 X121.888 Y76.214 E-.1142
G1 X122.093 Y76.235 E-.1142
G1 X123.296 Y76.235 E-.66668
;WIPE_END
G1 Z.4 F720
G1 X61.305 Y77.372 F9000
G1 Z.2 F720
G1 E3.2 F2400
M204 P800
;WIDTH:0.649999
G1 F1200
G1 X60.984 Y76.983 E.02546
G1 X60.499 Y76.601 E.03116
G1 X60.041 Y76.369 E.02592
;WIDTH:0.689703
G1 X59.759 Y76.27 E.01607
;WIDTH:0.729406
G1 X59.477 Y76.172 E.01704
G1 X59.785 Y76.152 E.01762
;WIDTH:0.689703
G1 X60.093 Y76.132 E.0166
;WIDTH:0.649999
G1 X88.201 Y76.132 E1.41886
;WIDTH:0.666545
G1 X88.828 Y76.14 E.03252
;WIDTH:0.716113
G1 X89.082 Y76.165 E.01429
;WIDTH:0.76568
G1 X89.335 Y76.19 E.01528
G1 X89.104 Y76.293 E.0152
;WIDTH:0.716113
G1 X88.873 Y76.395 E.01413
;WIDTH:0.666545
G1 X88.359 Y76.696 E.03089
;WIDTH:0.649999
G1 X87.968 Y77.031 E.02599
G1 X87.657 Y77.413 E.02487
G1 X87.377 Y77.942 E.03021
G1 X87.228 Y78.431 E.0258
G1 X87.172 Y79.024 E.03007
G1 X87.221 Y79.533 E.02581
G1 X87.396 Y80.105 E.03019
G1 X87.637 Y80.557 E.02586
G1 X88.016 Y81.017 E.03009
G1 X88.501 Y81.399 E.03116
G1 X88.959 Y81.631 E.02592
;WIDTH:0.69869
G1 X89.068 Y81.687 E.00668
;WIDTH:0.747381
G1 X89.177 Y81.742 E.00715
;WIDTH:0.796071
G1 X89.286 Y81.797 E.00765
;WIDTH:0.844762
G1 X89.394 Y81.853 E.00811
;WIDTH:0.893452
G1 X89.503 Y81.908 E.00863
G1 X90.084 Y81.938 E.04114
;WIDTH:0.908085
G1 X90.677 Y81.88 E.04286
G1 X90.751 Y81.833 E.00631
;WIDTH:0.865071
G1 X90.826 Y81.786 E.00605
;WIDTH:0.822057
G1 X90.901 Y81.739 E.00573
;WIDTH:0.779042
G1 X90.975 Y81.691 E.0054
;WIDTH:0.736028
G1 X91.05 Y81.644 E.0051
;WIDTH:0.693014
G1 X91.124 Y81.597 E.00474
;WIDTH:0.649999
G1 X91.641 Y81.304 E.03
G1 X92.032 Y80.969 E.02599
G1 X92.343 Y80.587 E.02487
G1 X92.623 Y80.058 E.03021
G1 X92.772 Y79.569 E.0258
G1 X92.828 Y78.976 E.03007
G1 X92.779 Y78.467 E.02581
G1 X92.604 Y77.895 E.03019
G1 X92.363 Y77.443 E.02586
G1 X91.984 Y76.983 E.03009
G1 X91.499 Y76.601 E.03116
G1 X91.041 Y76.369 E.02592
;WIDTH:0.689702
G1 X90.759 Y76.27 E.01607
;WIDTH:0.729404
G1 X90.477 Y76.172 E.01704
G1 X90.785 Y76.152 E.01762
;WIDTH:0.689702
G1 X91.093 Y76.132 E.0166
;WIDTH:0.649999
G1 X119.201 Y76.132 E1.41886
;WIDTH:0.666543
G1 X119.828 Y76.14 E.03252
;WIDTH:0.716113
G1 X120.082 Y76.165 E.01429
;WIDTH:0.765682
G1 X120.335 Y76.19 E.01528
G1 X120.104 Y76.293 E.0152
;WIDTH:0.716113
G1 X119.873 Y76.395 E.01413
;WIDTH:0.666543
G1 X119.359 Y76.696 E.03089
;WIDTH:0.649999
G1 X118.968 Y77.031 E.02599
G1 X118.657 Y77.413 E.02487
G1 X118.377 Y77.942 E.03021
G1 X118.228 Y78.431 E.0258
G1 X118.172 Y79.024 E.03007
G1 X118.221 Y79.533 E.02581
G1 X118.396 Y80.105 E.03019
G1 X118.637 Y80.557 E.02586
G1 X119.016 Y81.017 E.03009
G1 X119.501 Y81.399 E.03116
G1 X119.959 Y81.631 E.02592
;WIDTH:0.698689
G1 X120.068 Y81.687 E.00668
;WIDTH:0.747379
G1 X120.177 Y81.742 E.00715
;WIDTH:0.796069
G1 X120.286 Y81.797 E.00765
;WIDTH:0.844759
G1 X120.394 Y81.853 E.00811
;WIDTH:0.893449
G1 X120.503 Y81.908 E.00863
G1 X121.084 Y81.938 E.04114
;WIDTH:0.905561
G1 X121.655 Y81.883 E.04115
G1 X121.681 Y81.854 E.00279
;WIDTH:0.862968
G1 X121.707 Y81.826 E.00261
;WIDTH:0.820374
G1 X121.732 Y81.797 E.00248
;WIDTH:0.77778
G1 X121.758 Y81.769 E.00233
;WIDTH:0.735187
G1 X121.784 Y81.74 E.00224
;WIDTH:0.692593
G1 X121.809 Y81.712 E.00203
;WIDTH:0.649999
G1 X122.124 Y81.597 E.01693
G1 X122.641 Y81.304 E.03
G1 X123.032 Y80.969 E.02599
G1 X123.343 Y80.587 E.02487
G1 X123.623 Y80.058 E.03021
;WIDTH:0.68957
G1 X123.726 Y79.777 E.01609
;WIDTH:0.72914
G1 X123.828 Y79.497 E.017
G1 X123.834 Y79.581 E.00481
;WIDTH:0.717914
G1 X123.851 Y79.848 E.01502
;WIDTH:0.683957
G1 X123.868 Y80.114 E.01421
;WIDTH:0.649999
G1 X123.868 Y82.868 E.13902
G1 X122.014 Y82.868 E.09359
;WIDTH:0.692593
G1 X121.965 Y82.847 E.00288
;WIDTH:0.735187
G1 X121.916 Y82.825 E.00309
;WIDTH:0.77778
G1 X121.867 Y82.804 E.00326
;WIDTH:0.820374
G1 X121.818 Y82.783 E.00345
;WIDTH:0.862968
G1 X121.77 Y82.761 E.0036
;WIDTH:0.905561
G1 X121.721 Y82.74 E.00382
G1 X121.022 Y82.76 E.05016
;WIDTH:0.893449
G1 X120.402 Y82.746 E.04386
G1 X120.259 Y82.771 E.01027
;WIDTH:0.844759
G1 X120.115 Y82.795 E.00973
;WIDTH:0.796069
