; generated by PrusaSlicer 2.6.0-alpha6 on 2023-05-09 at 19:20:14 UTC


;
;

;
;
; 

; external perimeters extrusion width = 0.68mm
; perimeters extrusion width = 0.68mm
; infill extrusion width = 0.68mm
; solid infill extrusion width = 0.68mm
; top infill extrusion width = 0.60mm
; support material extrusion width = 0.55mm
; first layer extrusion width = 0.65mm

M73 P0 R38
M201 X2500 Y2500 Z400 E5000 ; sets maximum accelerations, mm/sec^2
M203 X180 Y180 Z12 E80 ; sets maximum feedrates, mm / sec
M204 P1250 R1250 T2500 ; sets acceleration (P, T) and retract acceleration (R), mm/sec^2
M205 X8.00 Y8.00 Z2.00 E10.00 ; sets the jerk limits, mm/sec
M205 S0 T0 ; sets the minimum extruding and travel feed rate, mm/sec
;TYPE:Custom
M862.3 P "MINI" ; printer model check
G90 ; use absolute coordinates
M83 ; extruder relative mode
M104 S170 ; set extruder temp for bed leveling
M140 S60 ; set bed temp
M109 R170 ; wait for bed leveling temp
M190 S60 ; wait for bed temp
M204 T1250 ; set travel acceleration
G28 ; home all without mesh bed level
G29 ; mesh bed leveling 
M204 T2500 ; restore travel acceleration
M104 S215 ; set extruder temp
G92 E0
G1 Y-2 X179 F2400
G1 Z3 F720
M109 S215 ; wait for extruder temp

; intro line
G1 X170 F1000
G1 Z0.2 F720
G1 X110 E8 F900
G1 X40 E10 F700
G92 E0

M221 S95 ; set flow
G21 ; set units to millimeters
G90 ; use absolute coordinates
M83 ; use relative distances for extrusion
M900 K0.12 ; Filament gcode LA 1.5
; ; Filament gcode LA 1.0
M107
;LAYER_CHANGE
;Z:0.2
;HEIGHT:0.2
;BEFORE_LAYER_CHANGE
G92 E0.0
;0.2


G1 E-3.2 F4200
G1 Z.2 F720
;AFTER_LAYER_CHANGE
;0.2
G1 Z.4
G1 X53.844 Y72.663 F9000
G1 Z.2 F720
G1 E3.2 F2400
M204 P800
;TYPE:Skirt/Brim
;WIDTH:0.65
G1 F1200
G1 X55 Y72.393 E.05992
G1 X125 Y72.393 E3.53352
G1 X126.375 Y72.785 E.07217
G1 X127.337 Y73.844 E.07222
G1 X127.607 Y75 E.05992
G1 X127.607 Y84 E.45431
G1 X127.205 Y85.391 E.07309
G1 X115.198 Y104.409 E1.13533
G1 X114.424 Y105.333 E.06084
G1 X113.677 Y105.999 E.05052
G1 X112.764 Y106.61 E.05546
G1 X111.859 Y107.049 E.05077
G1 X110.376 Y107.481 E.07797
G1 X109 Y107.607 E.06975
G1 X59.395 Y107.583 E2.504
G1 X58.298 Y107.414 E.05603
M73 P1 R38
G1 X57.344 Y107.128 E.05027
G1 X56.436 Y106.72 E.05025
G1 X55.422 Y106.075 E.06066
G1 X54.664 Y105.421 E.05054
G1 X53.931 Y104.585 E.05612
G1 X53.387 Y103.759 E.04993
G1 X52.951 Y102.858 E.05053
G1 X52.522 Y101.391 E.07715
G1 X52.394 Y100.073 E.06684
G1 X52.393 Y75 E1.26566
G1 X52.785 Y73.625 E.07217
G1 X53.778 Y72.724 E.06768
M204 P1250
; printing object cake_cover_front.stl id:0 copy 0
G1 E-2.24 F4200
;WIPE_START
G1 F7200
G1 X55 Y72.393 E-.70159
G1 X55.466 Y72.393 E-.25841
;WIPE_END
G1 Z.4 F720
G1 X111.654 Y96.71 F9000
G1 Z.2 F720
G1 E3.2 F2400
M204 P800
;TYPE:Perimeter
;WIDTH:0.649999
G1 F1200
G1 X111.217 Y96.372 E.02789
G1 X110.553 Y96.018 E.03798
G1 X109.739 Y95.777 E.04285
G1 X109.009 Y95.707 E.03702
G1 X108.501 Y95.744 E.02571
G1 X107.775 Y95.898 E.03746
G1 X107.346 Y96.067 E.02328
G1 X107.346 Y93.435 E.13286
G1 X108.117 Y93.695 E.04107
G1 X108.645 Y93.77 E.02692
G1 X109.291 Y93.784 E.03262
G1 X109.839 Y93.703 E.02796
G1 X110.54 Y93.488 E.03701
G1 X111.27 Y93.092 E.04192
G1 X111.654 Y92.797 E.02444
G1 X111.654 Y96.62 E.19298
M204 P1250
G1 E-2.24 F4200
;WIPE_START
G1 F7200
G1 X111.217 Y96.372 E-.27845
G1 X110.553 Y96.018 E-.41699
G1 X110.095 Y95.882 E-.26456
;WIPE_END
G1 Z.4 F720
G1 X112.261 Y98.691 F9000
G1 Z.2 F720
G1 E3.2 F2400
M204 P800
G1 F1200
G1 X112.056 Y98.179 E.02784
G1 X111.716 Y97.647 E.03187
G1 X111.196 Y97.109 E.03777
G1 X110.602 Y96.71 E.03612
G1 X110.017 Y96.47 E.03192
G1 X109.4 Y96.335 E.03188
G1 X108.899 Y96.313 E.02531
G1 X108.272 Y96.394 E.03191
G1 X107.668 Y96.583 E.03195
G1 X107.044 Y96.927 E.03597
G1 X106.739 Y97.167 E.01959
G1 X106.739 Y92.331 E.24412
G1 X107.144 Y92.64 E.02571
G1 X107.703 Y92.932 E.03184
G1 X108.274 Y93.108 E.03016
G1 X108.685 Y93.165 E.02095
G1 X109.315 Y93.17 E.0318
G1 X110.017 Y93.032 E.03611
G1 X110.598 Y92.789 E.03179
G1 X111.196 Y92.393 E.0362
G1 X111.619 Y91.974 E.03005
G1 X111.984 Y91.45 E.03224
G1 X112.261 Y90.828 E.03437
G1 X112.261 Y98.601 E.39237
M204 P1250
G1 E-2.24 F4200
;WIPE_START
G1 F7200
G1 X112.056 Y98.179 E-.25999
G1 X111.716 Y97.647 E-.34988
G1 X111.277 Y97.193 E-.35013
;WIPE_END
G1 Z.4 F720
G1 X108.254 Y103.182 F9000
G1 Z.2 F720
G1 E3.2 F2400
M204 P800
;WIDTH:0.801462
G1 F1200
G1 X108.046 Y103.206 E.01321
;WIDTH:0.752913
G1 X107.839 Y103.231 E.01231
;WIDTH:0.704364
G1 X107.631 Y103.255 E.01152
;WIDTH:0.655814
G1 X106.742 Y103.256 E.04531
G1 X106.742 Y102.338 E.04678
G1 X107.215 Y102.692 E.03011
G1 X107.702 Y102.934 E.02771
;WIDTH:0.704364
G1 X107.886 Y103.017 E.0111
;WIDTH:0.752913
G1 X108.07 Y103.099 E.01189
;WIDTH:0.801462
G1 X108.172 Y103.145 E.00706
M204 P1250
G1 E-2.24 F4200
;WIPE_START
G1 F7200
G1 X108.046 Y103.206 E-.07758
G1 X107.839 Y103.231 E-.11555
G1 X107.631 Y103.255 E-.11603
G1 X106.742 Y103.256 E-.49265
G1 X106.742 Y102.971 E-.15819
;WIPE_END
G1 Z.4 F720
G1 X110.322 Y85.949 F9000
G1 Z.2 F720
G1 E3.2 F2400
M204 P800
;WIDTH:0.649999
G1 F1200
G1 X109.757 Y85.781 E.02975
G1 X109.201 Y85.716 E.02826
G1 X108.593 Y85.73 E.0307
G1 X107.775 Y85.898 E.04215
G1 X107.346 Y86.067 E.02328
G1 X107.346 Y83.971 E.1058
G1 X107.295 Y83.313 E.03331
G1 X107.064 Y82.72 E.03212
G1 X106.687 Y82.24 E.03081
G1 X106.391 Y82.005 E.01908
G1 X106.039 Y81.817 E.02014
G1 X105.642 Y81.696 E.02095
G1 X105.221 Y81.654 E.02136
G1 X93.045 Y81.654 E.61463
G1 X93.306 Y81.327 E.02112
G1 X93.713 Y80.592 E.04241
G1 X93.945 Y79.883 E.03766
G1 X94.02 Y79.361 E.02662
G1 X94.027 Y78.645 E.03614
G1 X93.888 Y77.901 E.03821
G1 X93.682 Y77.346 E.02988
G1 X117.317 Y77.346 E1.19307
G1 X117.055 Y78.117 E.0411
G1 X116.96 Y78.945 E.04207
G1 X117.016 Y79.688 E.03761
G1 X117.246 Y80.496 E.04241
G1 X117.585 Y81.164 E.03781
G1 X117.96 Y81.654 E.03115
G1 X113.779 Y81.654 E.21105
G1 X113.411 Y81.686 E.01865
G1 X112.961 Y81.817 E.02366
G1 X112.609 Y82.005 E.02014
G1 X112.313 Y82.24 E.01908
G1 X111.936 Y82.72 E.03081
G1 X111.705 Y83.313 E.03212
G1 X111.654 Y83.779 E.02366
G1 X111.654 Y86.71 E.14795
G1 X111.217 Y86.372 E.02789
G1 X110.553 Y86.018 E.03798
G1 X110.408 Y85.975 E.00763
M204 P1250
G1 X110.139 Y86.523 F9000
M204 P800
G1 F1200
G1 X109.612 Y86.371 E.02769
G1 X108.982 Y86.314 E.03193
G1 X108.272 Y86.394 E.03607
G1 X107.668 Y86.583 E.03195
G1 X107.044 Y86.927 E.03597
G1 X106.739 Y87.167 E.01959
G1 X106.737 Y83.704 E.17481
G1 X106.631 Y83.215 E.02526
G1 X106.436 Y82.868 E.02009
G1 X106.057 Y82.511 E.02628
G1 X105.805 Y82.378 E.01438
G1 X105.522 Y82.291 E.01495
G1 X105.221 Y82.261 E.01527
G1 X91.075 Y82.261 E.71407
G1 X91.332 Y82.167 E.01381
G1 X91.956 Y81.823 E.03597
G1 X92.443 Y81.416 E.03204
G1 X92.824 Y80.957 E.03011
G1 X93.168 Y80.325 E.03632
G1 X93.358 Y79.726 E.03172
G1 X93.434 Y79.015 E.03609
G1 X93.382 Y78.39 E.03166
G1 X93.179 Y77.7 E.03631
G1 X92.889 Y77.139 E.03188
G1 X92.577 Y76.739 E.02561
G1 X118.415 Y76.739 E1.30427
G1 X118.016 Y77.3 E.03475
G1 X117.729 Y77.95 E.03587
G1 X117.593 Y78.569 E.03199
G1 X117.575 Y79.277 E.03575
G1 X117.687 Y79.904 E.03215
G1 X117.944 Y80.571 E.03608
G1 X118.284 Y81.103 E.03187
G1 X118.804 Y81.641 E.03777
G1 X119.398 Y82.04 E.03612
G1 X119.928 Y82.261 E.02899
G1 X113.779 Y82.261 E.31039
G1 X113.516 Y82.284 E.01333
G1 X113.195 Y82.378 E.01688
G1 X112.943 Y82.511 E.01438
G1 X112.732 Y82.68 E.01365
G1 X112.463 Y83.022 E.02196
G1 X112.298 Y83.446 E.02297
G1 X112.261 Y83.779 E.01691
G1 X112.261 Y88.691 E.24795
G1 X112.179 Y88.45 E.01285
G1 X111.889 Y87.889 E.03188
G1 X111.44 Y87.333 E.03608
G1 X110.858 Y86.862 E.03779
G1 X110.297 Y86.568 E.03197
G1 X110.225 Y86.547 E.00379
M204 P1250
G1 E-2.24 F4200
;WIPE_START
G1 F7200
G1 X109.612 Y86.371 E-.35343
G1 X108.982 Y86.314 E-.35055
G1 X108.523 Y86.366 E-.25602
;WIPE_END
G1 Z.4 F720
G1 X123.3 Y81.493 F9000
G1 Z.2 F720
G1 E3.2 F2400
M204 P800
;WIDTH:0.57085
G1 F1200
G1 X123.3 Y82.3 E.03543
G1 X121.796 Y82.3 E.06602
G1 X122.319 Y82.13 E.02414
G1 X122.9 Y81.811 E.0291
G1 X123.23 Y81.549 E.0185
M204 P1250
G1 E-2.24 F4200
;WIPE_START
G1 F7200
G1 X123.3 Y82.3 E-.41798
G1 X122.322 Y82.3 E-.54202
;WIPE_END
G1 Z.4 F720
G1 X123.384 Y77.309 F9000
G1 Z.2 F720
G1 E3.2 F2400
M204 P800
;WIDTH:0.854889
G1 F1200
G1 X123.056 Y76.91 E.03487
G1 X122.56 Y76.519 E.04264
G1 X122.084 Y76.276 E.03608
G1 X121.882 Y76.241 E.01384
;WIDTH:0.813061
G1 X121.679 Y76.206 E.01319
;WIDTH:0.771233
G1 X121.477 Y76.172 E.01241
G1 X121.683 Y76.193 E.01254
;WIDTH:0.813061
G1 X121.888 Y76.214 E.0132
;WIDTH:0.854889
G1 X122.093 Y76.235 E.01391
G1 X123.765 Y76.235 E.11289
G1 X123.765 Y77.851 E.10911
G1 X123.785 Y78.055 E.01384
;WIDTH:0.816192
G1 X123.804 Y78.258 E.01311
;WIDTH:0.777494
G1 X123.824 Y78.462 E.01252
G1 X123.783 Y78.262 E.01247
;WIDTH:0.816192
G1 X123.742 Y78.062 E.01313
;WIDTH:0.854889
G1 X123.701 Y77.862 E.01378
G1 X123.442 Y77.379 E.037
M204 P1250
G1 E-2.24 F4200
;WIPE_START
G1 F7200
G1 X123.056 Y76.91 E-.33661
G1 X122.56 Y76.519 E-.35
G1 X122.121 Y76.295 E-.27339
;WIPE_END
G1 Z.4 F720
G1 X86.317 Y77.346 F9000
G1 Z.2 F720
G1 E3.2 F2400
M204 P800
;WIDTH:0.649999
G1 F1200
G1 X86.055 Y78.117 E.0411
G1 X85.96 Y78.945 E.04207
G1 X86.016 Y79.688 E.03761
G1 X86.246 Y80.496 E.04241
G1 X86.585 Y81.164 E.03781
G1 X86.96 Y81.654 E.03115
G1 X81.719 Y81.654 E.26456
G1 X81.165 Y81.362 E.03161
G1 X80.543 Y81.082 E.03443
G1 X79.525 Y80.694 E.05499
G1 X78.743 Y80.452 E.04132
G1 X77.684 Y80.198 E.05497
G1 X76.921 Y80.064 E.0391
G1 X76.236 Y79.98 E.03484
G1 X74.977 Y79.907 E.06366
G1 X73.888 Y79.93 E.05498
G1 X73.073 Y80 E.04129
G1 X71.995 Y80.163 E.05503
G1 X71.196 Y80.337 E.04128
M73 P1 R37
G1 X70.149 Y80.636 E.05496
G1 X69.377 Y80.912 E.04139
G1 X68.377 Y81.343 E.05497
G1 X67.781 Y81.654 E.03394
G1 X62.045 Y81.654 E.28955
G1 X62.306 Y81.327 E.02112
G1 X62.713 Y80.592 E.04241
G1 X62.945 Y79.883 E.03766
G1 X63.02 Y79.361 E.02662
G1 X63.027 Y78.645 E.03614
G1 X62.888 Y77.901 E.03821
G1 X62.682 Y77.346 E.02988
G1 X86.227 Y77.346 E1.18852
M204 P1250
G1 X87.415 Y76.739 F9000
M204 P800
G1 F1200
G1 X87.016 Y77.3 E.03475
G1 X86.729 Y77.95 E.03587
G1 X86.593 Y78.569 E.03199
G1 X86.575 Y79.277 E.03575
G1 X86.687 Y79.904 E.03215
G1 X86.944 Y80.571 E.03608
G1 X87.284 Y81.103 E.03187
G1 X87.804 Y81.641 E.03777
G1 X88.398 Y82.04 E.03612
G1 X88.928 Y82.261 E.02899
G1 X81.567 Y82.261 E.37157
G1 X80.912 Y81.914 E.03742
G1 X80.326 Y81.65 E.03244
G1 X79.309 Y81.262 E.05495
G1 X78.601 Y81.043 E.03741
G1 X77.542 Y80.788 E.05498
G1 X76.844 Y80.666 E.03577
G1 X76.197 Y80.586 E.03291
G1 X74.99 Y80.514 E.06104
G1 X73.901 Y80.537 E.05498
G1 X73.163 Y80.601 E.03739
G1 X72.086 Y80.763 E.05498
G1 X71.363 Y80.921 E.03736
G1 X70.315 Y81.22 E.05501
G1 X69.618 Y81.469 E.03736
G1 X68.618 Y81.9 E.05497
G1 X67.933 Y82.261 E.03909
G1 X60.075 Y82.261 E.39666
G1 X60.332 Y82.167 E.01381
G1 X60.956 Y81.823 E.03597
G1 X61.443 Y81.416 E.03204
G1 X61.824 Y80.957 E.03011
G1 X62.168 Y80.325 E.03632
G1 X62.358 Y79.726 E.03172
G1 X62.434 Y79.015 E.03609
G1 X62.382 Y78.39 E.03166
G1 X62.179 Y77.7 E.03631
G1 X61.889 Y77.139 E.03188
G1 X61.577 Y76.739 E.02561
G1 X87.325 Y76.739 E1.29973
M204 P1250
G1 E-2.24 F4200
;WIPE_START
M73 P2 R37
G1 F7200
G1 X87.016 Y77.3 E-.35493
G1 X86.729 Y77.95 E-.39376
G1 X86.647 Y78.322 E-.21131
;WIPE_END
G1 Z.4 F720
G1 X58.335 Y76.19 F9000
G1 Z.2 F720
G1 E3.2 F2400
M204 P800
;WIDTH:0.80401
G1 F1200
G1 X58.089 Y76.251 E.01604
;WIDTH:0.842338
G1 X57.843 Y76.313 E.01686
;WIDTH:0.855131
G1 X57.306 Y76.609 E.04141
G1 X56.898 Y76.956 E.03617
G1 X56.575 Y77.351 E.03446
G1 X56.29 Y77.9 E.04178
;WIDTH:0.84426
G1 X56.235 Y78.159 E.01764
;WIDTH:0.795958
G1 X56.181 Y78.419 E.01663
;WIDTH:0.777966
G1 X56.196 Y78.251 E.01031
;WIDTH:0.808275
G1 X56.211 Y78.083 E.01073
;WIDTH:0.855131
G1 X56.235 Y77.468 E.04157
G1 X56.235 Y76.235 E.08327
G1 X57.828 Y76.228 E.10759
;WIDTH:0.842338
G1 X58.082 Y76.209 E.01693
;WIDTH:0.80401
G1 X58.246 Y76.197 E.01041
M204 P1250
G1 E-2.24 F4200
;WIPE_START
G1 F7200
G1 X58.089 Y76.251 E-.09201
G1 X57.843 Y76.313 E-.14059
G1 X57.306 Y76.609 E-.3398
G1 X56.898 Y76.956 E-.29681
G1 X56.794 Y77.083 E-.09079
;WIPE_END
G1 Z.4 F720
G1 X58.231 Y82.3 F9000
G1 Z.2 F720
G1 E3.2 F2400
M204 P800
;WIDTH:0.571118
G1 F1200
G1 X56.7 Y82.3 E.06724
G1 X56.7 Y81.491 E.03553
G1 X57.164 Y81.855 E.0259
G1 X57.72 Y82.146 E.02756
G1 X58.145 Y82.274 E.01949
M204 P1250
G1 E-2.24 F4200
;WIPE_START
G1 F7200
G1 X56.7 Y82.3 E-.8009
G1 X56.7 Y82.013 E-.1591
;WIPE_END
G1 Z.4 F720
G1 X106.077 Y83.493 F9000
G1 Z.2 F720
G1 E3.2 F2400
M204 P800
;WIDTH:0.649999
G1 F1200
G1 X106.067 Y83.441 E.00267
G1 X105.849 Y83.119 E.01963
G1 X105.572 Y82.938 E.0167
G1 X105.221 Y82.868 E.01807
G1 X91.349 Y82.868 E.70024
;WIDTH:0.692593
G1 X91.244 Y82.847 E.00578
;WIDTH:0.735187
G1 X91.139 Y82.825 E.00618
;WIDTH:0.777781
G1 X91.035 Y82.804 E.00648
;WIDTH:0.820375
G1 X90.93 Y82.783 E.00692
;WIDTH:0.862969
G1 X90.825 Y82.761 E.00732
;WIDTH:0.905562
G1 X90.721 Y82.74 E.00761
G1 X90.022 Y82.76 E.05016
;WIDTH:0.893452
G1 X89.402 Y82.746 E.04386
G1 X89.259 Y82.771 E.01027
;WIDTH:0.844762
G1 X89.115 Y82.795 E.00973
;WIDTH:0.796071
G1 X88.972 Y82.819 E.00908
;WIDTH:0.747381
G1 X88.829 Y82.844 E.0085
;WIDTH:0.69869
G1 X88.685 Y82.868 E.00796
;WIDTH:0.649999
G1 X81.415 Y82.868 E.36698
G1 X80.66 Y82.466 E.04318
G1 X80.11 Y82.217 E.03048
G1 X79.093 Y81.829 E.05495
G1 X78.459 Y81.633 E.0335
G1 X77.4 Y81.379 E.05497
G1 X76.766 Y81.268 E.03249
G1 X76.159 Y81.192 E.03088
G1 X75.003 Y81.121 E.05846
G1 X73.914 Y81.144 E.05498
G1 X73.254 Y81.201 E.03344
G1 X72.177 Y81.364 E.05498
G1 X71.53 Y81.504 E.03342
G1 X70.482 Y81.804 E.05503
G1 X69.858 Y82.027 E.03345
G1 X68.858 Y82.458 E.05497
G1 X68.085 Y82.868 E.04417
G1 X60.349 Y82.868 E.3905
;WIDTH:0.692593
G1 X60.244 Y82.847 E.00578
;WIDTH:0.735187
G1 X60.139 Y82.825 E.00618
;WIDTH:0.77778
G1 X60.035 Y82.804 E.00648
;WIDTH:0.820374
G1 X59.93 Y82.783 E.00692
;WIDTH:0.862968
G1 X59.825 Y82.761 E.00732
;WIDTH:0.905561
G1 X59.721 Y82.74 E.00761
G1 X59.022 Y82.76 E.05016
;WIDTH:0.893451
G1 X58.402 Y82.746 E.04386
G1 X58.319 Y82.771 E.00613
;WIDTH:0.844761
G1 X58.235 Y82.795 E.00582
;WIDTH:0.796071
G1 X58.152 Y82.819 E.00541
;WIDTH:0.74738
G1 X58.068 Y82.844 E.00513
;WIDTH:0.69869
G1 X57.985 Y82.868 E.00471
;WIDTH:0.649999
G1 X56.132 Y82.868 E.09354
G1 X56.132 Y80.693 E.10979
;WIDTH:0.654127
G1 X56.134 Y80.149 E.02765
;WIDTH:0.699734
G1 X56.157 Y79.865 E.01556
;WIDTH:0.74534
G1 X56.18 Y79.582 E.01658
G1 X56.287 Y79.844 E.01653
;WIDTH:0.699734
G1 X56.394 Y80.106 E.01546
;WIDTH:0.654127
G1 X56.637 Y80.557 E.02604
;WIDTH:0.649999
G1 X57.018 Y81.018 E.03019
G1 X57.5 Y81.398 E.03098
G1 X57.959 Y81.631 E.02598
;WIDTH:0.69869
G1 X58.068 Y81.687 E.00668
;WIDTH:0.74738
G1 X58.177 Y81.742 E.00715
;WIDTH:0.796071
G1 X58.286 Y81.797 E.00765
;WIDTH:0.844761
G1 X58.394 Y81.853 E.00811
;WIDTH:0.893451
G1 X58.503 Y81.908 E.00863
G1 X59.084 Y81.938 E.04114
;WIDTH:0.908085
G1 X59.677 Y81.88 E.04286
G1 X59.751 Y81.833 E.00631
;WIDTH:0.865071
G1 X59.826 Y81.786 E.00605
;WIDTH:0.822057
G1 X59.901 Y81.739 E.00573
;WIDTH:0.779042
G1 X59.975 Y81.691 E.0054
;WIDTH:0.736028
G1 X60.05 Y81.644 E.0051
;WIDTH:0.693014
G1 X60.124 Y81.597 E.00474
;WIDTH:0.649999
G1 X60.641 Y81.304 E.03
G1 X61.032 Y80.969 E.02599
G1 X61.343 Y80.587 E.02487
G1 X61.623 Y80.058 E.03021
G1 X61.772 Y79.569 E.0258
G1 X61.828 Y78.976 E.03007
G1 X61.779 Y78.467 E.02581
G1 X61.604 Y77.895 E.03019
G1 X61.363 Y77.443 E.02586
G1 X60.984 Y76.983 E.03009
G1 X60.499 Y76.601 E.03116
G1 X60.041 Y76.369 E.02592
;WIDTH:0.689703
G1 X59.759 Y76.27 E.01607
;WIDTH:0.729406
G1 X59.477 Y76.172 E.01704
G1 X59.785 Y76.152 E.01762
;WIDTH:0.689703
G1 X60.093 Y76.132 E.0166
;WIDTH:0.649999
G1 X88.201 Y76.132 E1.41886
;WIDTH:0.666545
G1 X88.828 Y76.14 E.03252
;WIDTH:0.716113
G1 X89.082 Y76.165 E.01429
;WIDTH:0.76568
G1 X89.335 Y76.19 E.01528
G1 X89.104 Y76.293 E.0152
;WIDTH:0.716113
G1 X88.873 Y76.395 E.01413
;WIDTH:0.666545
G1 X88.359 Y76.696 E.03089
;WIDTH:0.649999
G1 X87.968 Y77.031 E.02599
G1 X87.657 Y77.413 E.02487
G1 X87.377 Y77.942 E.03021
G1 X87.228 Y78.431 E.0258
G1 X87.172 Y79.024 E.03007
G1 X87.221 Y79.533 E.02581
