; generated by PrusaSlicer 2.6.0-alpha6 on 2023-04-10 at 19:24:30 UTC


;
;

;
;
; 

; external perimeters extrusion width = 0.68mm
; perimeters extrusion width = 0.68mm
; infill extrusion width = 0.68mm
; solid infill extrusion width = 0.68mm
; top infill extrusion width = 0.60mm
; support material extrusion width = 0.55mm
; first layer extrusion width = 0.65mm

M73 P0 R35
M201 X2500 Y2500 Z400 E5000 ; sets maximum accelerations, mm/sec^2
M203 X180 Y180 Z12 E80 ; sets maximum feedrates, mm / sec
M204 P1250 R1250 T2500 ; sets acceleration (P, T) and retract acceleration (R), mm/sec^2
M205 X8.00 Y8.00 Z2.00 E10.00 ; sets the jerk limits, mm/sec
M205 S0 T0 ; sets the minimum extruding and travel feed rate, mm/sec
;TYPE:Custom
M862.3 P "MINI" ; printer model check
G90 ; use absolute coordinates
M83 ; extruder relative mode
M104 S170 ; set extruder temp for bed leveling
M140 S60 ; set bed temp
M109 R170 ; wait for bed leveling temp
M190 S60 ; wait for bed temp
M204 T1250 ; set travel acceleration
G28 ; home all without mesh bed level
G29 ; mesh bed leveling 
M204 T2500 ; restore travel acceleration
M104 S215 ; set extruder temp
G92 E0
G1 Y-2 X179 F2400
G1 Z3 F720
M109 S215 ; wait for extruder temp

; intro line
G1 X170 F1000
G1 Z0.2 F720
G1 X110 E8 F900
G1 X40 E10 F700
G92 E0

M221 S95 ; set flow
G21 ; set units to millimeters
G90 ; use absolute coordinates
M83 ; use relative distances for extrusion
M900 K0.12 ; Filament gcode LA 1.5
; ; Filament gcode LA 1.0
M107
;LAYER_CHANGE
;Z:0.2
;HEIGHT:0.2
;BEFORE_LAYER_CHANGE
G92 E0.0
;0.2


G1 E-3.2 F4200
G1 Z.2 F720
;AFTER_LAYER_CHANGE
;0.2
G1 Z.4
G1 X54.295 Y68.531 F9000
G1 Z.2 F720
G1 E3.2 F2400
M204 P800
;TYPE:Skirt/Brim
;WIDTH:0.65
G1 F1200
G1 X55.28 Y67.956 E.05757
G1 X56.783 Y67.369 E.08145
G1 X58.735 Y67.033 E.09998
G1 X117.647 Y66.312 E2.97403
G1 X119.221 Y66.386 E.07954
G1 X120.793 Y66.751 E.08146
G1 X122.23 Y67.373 E.07904
G1 X123.288 Y68.047 E.06332
G1 X124.567 Y69.196 E.08679
G1 X129.566 Y74.522 E.36872
G1 X130.493 Y75.844 E.0815
G1 X130.996 Y76.867 E.05754
G1 X131.474 Y78.409 E.08149
G1 X131.664 Y80.487 E.10533
G1 X131.56 Y81.623 E.05758
G1 X131.165 Y83.188 E.08148
G1 X130.493 Y84.656 E.0815
G1 X129.348 Y86.231 E.09829
G1 X106.276 Y109.823 E1.66573
G1 X104.412 Y110.607 E.10208
M73 P1 R35
G1 X75.588 Y110.607 E1.455
G1 X73.701 Y109.8 E.1036
G1 X53.294 Y88.403 E1.49257
G1 X52.187 Y86.965 E.09161
G1 X51.549 Y85.732 E.07008
G1 X51.115 Y84.407 E.07038
G1 X50.876 Y82.806 E.08171
G1 X50.395 Y76.137 E.33752
G1 X50.494 Y74.536 E.08097
G1 X50.88 Y72.979 E.08097
G1 X51.226 Y72.125 E.04651
G1 X51.737 Y71.178 E.05432
G1 X53.044 Y69.552 E.10531
G1 X54.225 Y68.588 E.07695
M204 P1250
; printing object carriage_skel.stl id:0 copy 0
G1 E-2.24 F4200
;WIPE_START
G1 F7200
G1 X55.28 Y67.956 E-.68152
G1 X55.748 Y67.773 E-.27848
;WIPE_END
G1 Z.4 F720
G1 X59.419 Y69.64 F9000
G1 Z.2 F720
G1 E3.2 F2400
M204 P800
;TYPE:Support material
G1 F1200
G1 X59.966 Y69.664 E.02764
G1 X61.049 Y69.886 E.05581
G1 X62.106 Y70.313 E.05755
G1 X63.068 Y70.926 E.05758
G1 X63.895 Y71.695 E.05701
G1 X64.155 Y72.039 E.02177
G1 X64.616 Y71.521 E.035
G1 X65.452 Y70.827 E.05485
G1 X66.431 Y70.274 E.05676
G1 X67.494 Y69.905 E.0568
G1 X68.585 Y69.736 E.05573
G1 X69.769 Y69.769 E.05979
G1 X70.838 Y69.992 E.05512
G1 X71.886 Y70.418 E.05711
G1 X72.841 Y71.027 E.05718
G1 X73.669 Y71.796 E.05704
G1 X74.36 Y72.728 E.05857
G1 X74.855 Y73.731 E.05646
G1 X75.149 Y74.772 E.0546
G1 X75.149 Y85.539 E.54351
G1 X75.038 Y85.64 E.00758
G1 X74.068 Y86.241 E.0576
G1 X73.003 Y86.653 E.05764
G1 X71.881 Y86.863 E.05762
G1 X70.739 Y86.863 E.05765
G1 X69.617 Y86.653 E.05762
G1 X68.552 Y86.241 E.05764
G1 X67.582 Y85.64 E.0576
G1 X66.738 Y84.871 E.05764
G1 X65.808 Y83.639 E.07792
G1 X65.555 Y84.537 E.04709
G1 X65.053 Y85.561 E.05757
G1 X64.373 Y86.476 E.05755
G1 X63.538 Y87.253 E.05758
G1 X62.576 Y87.865 E.05755
G1 X61.519 Y88.293 E.05756
G1 X60.435 Y88.514 E.05584
G1 X59.888 Y88.539 E.02764
G1 X59.236 Y88.539 E.03291
G1 X58.136 Y88.357 E.05628
G1 X57.064 Y87.971 E.05751
G1 X56.079 Y87.396 E.05757
G1 X55.257 Y86.688 E.05476
G1 X54.887 Y86.264 E.02841
G1 X54.482 Y85.727 E.03395
G1 X53.99 Y84.816 E.05226
G1 X53.79 Y84.283 E.02874
G1 X53.622 Y83.693 E.03097
G1 X53.528 Y83.177 E.02648
G1 X53.472 Y82.566 E.03097
G1 X53.472 Y82.041 E.0265
G1 X53.528 Y81.43 E.03097
G1 X53.622 Y80.914 E.02648
G1 X53.79 Y80.324 E.03097
G1 X53.99 Y79.791 E.02874
G1 X54.144 Y79.506 E.01635
G1 X53.779 Y78.896 E.03588
G1 X53.505 Y78.346 E.03102
G1 X53.321 Y77.855 E.02647
G1 X53.153 Y77.265 E.03097
G1 X53.059 Y76.748 E.02653
G1 X53.002 Y76.137 E.03098
G1 X53.002 Y75.613 E.02645
G1 X53.059 Y75.002 E.03098
G1 X53.153 Y74.485 E.02653
G1 X53.321 Y73.895 E.03097
G1 X53.52 Y73.363 E.02867
G1 X54.032 Y72.415 E.05439
G1 X54.746 Y71.527 E.05752
G1 X55.61 Y70.783 E.05756
G1 X56.594 Y70.208 E.05753
G1 X57.667 Y69.821 E.05758
G1 X58.766 Y69.64 E.05622
G1 X59.328 Y69.64 E.02837
M204 P1250
G1 X74.486 Y85.661 F9000
M204 P800
G1 F1200
G1 X74.486 Y74.434 E.56673
G1 X74.343 Y73.928 E.02654
G1 X73.891 Y73.011 E.05161
G1 X73.811 Y72.901 E.00687
G1 X73.811 Y85.754 E.6488
G1 X73.137 Y86.015 E.03648
G1 X73.137 Y72.047 E.70509
G1 X72.462 Y71.433 E.04606
G1 X72.462 Y86.198 E.74532
G1 X71.788 Y86.317 E.03455
G1 X71.788 Y71.003 E.77303
G1 X71.634 Y70.905 E.00921
G1 X71.113 Y70.694 E.02837
G1 X71.113 Y86.317 E.78863
G1 X70.79 Y86.317 E.0163
G1 X70.439 Y86.251 E.01803
G1 X70.439 Y70.467 E.79676
G1 X69.764 Y70.326 E.03481
G1 X69.764 Y86.124 E.79747
G1 X69.09 Y85.863 E.03648
G1 X69.09 Y70.287 E.78626
G1 X68.625 Y70.283 E.02347
G1 X68.415 Y70.315 E.01072
G1 X68.415 Y85.513 E.76718
G1 X67.912 Y85.202 E.02985
G1 X67.74 Y85.045 E.01176
G1 X67.74 Y70.42 E.73825
G1 X67.626 Y70.438 E.00583
G1 X67.066 Y70.632 E.02992
G1 X67.066 Y84.398 E.69489
G1 X66.391 Y83.505 E.05651
G1 X66.391 Y70.924 E.63507
G1 X65.717 Y71.317 E.03938
G1 X65.717 Y82.612 E.57016
G1 X65.58 Y82.43 E.0115
G1 X65.042 Y84.342 E.10026
G1 X65.042 Y71.877 E.62922
G1 X64.368 Y72.623 E.05075
M73 P1 R34
G1 X64.368 Y85.567 E.6534
G1 X63.964 Y86.11 E.03416
M73 P2 R34
G1 X63.693 Y86.362 E.01868
G1 X63.693 Y72.334 E.70812
G1 X63.488 Y72.063 E.01715
G1 X63.019 Y71.626 E.03236
G1 X63.019 Y86.936 E.77283
G1 X62.344 Y87.365 E.04037
G1 X62.344 Y71.112 E.82043
G1 X61.855 Y70.801 E.02925
G1 X61.67 Y70.726 E.01008
G1 X61.67 Y87.642 E.8539
G1 X61.36 Y87.767 E.01687
G1 X60.995 Y87.842 E.01881
G1 X60.995 Y70.453 E.87778
G1 X60.891 Y70.411 E.00566
G1 X60.321 Y70.295 E.02936
G1 X60.321 Y87.972 E.89232
G1 X59.646 Y87.992 E.03409
G1 X59.646 Y70.197 E.89827
G1 X58.972 Y70.186 E.03403
G1 X58.972 Y87.941 E.89625
G1 X58.297 Y87.83 E.03453
G1 X58.297 Y70.271 E.88636
G1 X57.805 Y70.352 E.02517
G1 X57.622 Y70.418 E.00982
G1 X57.622 Y87.591 E.86687
G1 X57.296 Y87.474 E.01748
G1 X56.948 Y87.271 E.02034
G1 X56.948 Y70.661 E.83845
G1 X56.827 Y70.705 E.0065
G1 X56.273 Y71.028 E.03237
G1 X56.273 Y86.842 E.79827
G1 X55.599 Y86.249 E.04532
G1 X55.599 Y71.513 E.74386
G1 X55.14 Y71.908 E.03057
G1 X54.924 Y72.177 E.01741
G1 X54.924 Y85.397 E.66733
G1 X54.488 Y84.589 E.04635
G1 X54.25 Y83.903 E.03665
G1 X54.25 Y80.704 E.16148
G1 X54.488 Y80.018 E.03665
G1 X54.772 Y79.493 E.03013
G1 X54.25 Y78.616 E.05152
G1 X54.25 Y73.162 E.27531
G1 X54.019 Y73.59 E.02455
G1 X53.84 Y74.066 E.02567
G1 X53.686 Y74.609 E.02849
G1 X53.601 Y75.076 E.02396
G1 X53.575 Y75.352 E.01399
G1 X53.575 Y77.752 E.12115
M204 P1250
G1 E-2.24 F4200
;WIPE_START
G1 F7200
G1 X53.575 Y76.02 E-.96
;WIPE_END
G1 Z.4 F720
G1 X118.699 Y68.94 F9000
G1 Z.2 F720
G1 E3.2 F2400
M204 P800
G1 F1200
G1 X119.816 Y69.168 E.05755
G1 X120.858 Y69.589 E.05673
G1 X121.852 Y70.223 E.05951
G1 X122.67 Y70.985 E.05643
G1 X123.35 Y71.9 E.05755
G1 X123.853 Y72.924 E.05759
G1 X124.204 Y74.176 E.06564
G1 X124.599 Y74.257 E.02035
G1 X125.698 Y74.702 E.05985
G1 X126.638 Y75.3 E.05624
G1 X127.473 Y76.077 E.05758
G1 X128.153 Y76.993 E.05759
G1 X128.655 Y78.016 E.05752
G1 X128.964 Y79.114 E.05758
G1 X129.068 Y80.25 E.05758
G1 X128.964 Y81.385 E.05753
G1 X128.655 Y82.483 E.05758
G1 X128.153 Y83.507 E.05757
G1 X127.484 Y84.408 E.05665
G1 X126.626 Y85.207 E.05918
G1 X125.676 Y85.812 E.05685
G1 X124.619 Y86.239 E.05755
G1 X123.501 Y86.467 E.0576
G1 X122.361 Y86.489 E.05756
G1 X121.236 Y86.304 E.05755
G1 X120.164 Y85.917 E.05753
G1 X119.203 Y85.356 E.05617
G1 X118.051 Y86.09 E.06895
G1 X116.994 Y86.517 E.05755
G1 X115.877 Y86.745 E.05755
G1 X114.737 Y86.767 E.05756
G1 X113.612 Y86.582 E.05755
G1 X112.539 Y86.195 E.05758
G1 X111.841 Y85.788 E.04079
G1 X111.507 Y86.039 E.02109
G1 X111.003 Y86.338 E.02958
G1 X110.193 Y86.685 E.04448
G1 X109.092 Y86.935 E.05699
G1 X107.955 Y86.982 E.05744
G1 X106.821 Y86.82 E.05782
G1 X105.726 Y86.449 E.05836
G1 X104.851 Y85.953 E.05077
G1 X104.851 Y74.64 E.57107
G1 X104.342 Y74.131 E.03634
G1 X104.17 Y74.131 E.00868
G1 X104.214 Y73.889 E.01242
G1 X104.382 Y73.299 E.03097
G1 X104.582 Y72.767 E.02869
G1 X105.093 Y71.819 E.05436
G1 X105.807 Y70.931 E.05752
G1 X106.671 Y70.187 E.05756
G1 X107.656 Y69.612 E.05757
G1 X108.728 Y69.225 E.05753
G1 X109.853 Y69.04 E.05755
G1 X110.993 Y69.061 E.05756
G1 X112.111 Y69.29 E.05761
G1 X113.152 Y69.711 E.05668
G1 X114.087 Y70.306 E.05594
G1 X114.42 Y70.039 E.02155
G1 X115.361 Y69.49 E.05499
G1 X116.406 Y69.113 E.05608
G1 X117.052 Y68.993 E.03317
G1 X117.597 Y68.919 E.02776
G1 X118.608 Y68.938 E.05104
M204 P1250
G1 X128.448 Y82.21 F9000
M204 P800
G1 F1200
G1 X128.448 Y79.477 E.13796
G1 X128.424 Y79.214 E.01333
G1 X128.143 Y78.212 E.05253
G1 X127.774 Y77.46 E.04228
G1 X127.774 Y83.039 E.28162
G1 X127.684 Y83.221 E.01025
G1 X127.099 Y84.009 E.04954
G1 X127.099 Y76.491 E.3795
G1 X126.425 Y75.848 E.04702
G1 X126.425 Y84.651 E.44437
G1 X126.293 Y84.771 E.00901
G1 X125.75 Y85.117 E.0325
G1 X125.75 Y75.383 E.49136
G1 X125.442 Y75.187 E.01843
G1 X125.076 Y75.03 E.0201
G1 X125.076 Y85.465 E.52675
G1 X124.401 Y85.726 E.03653
G1 X124.401 Y74.774 E.55284
G1 X123.768 Y74.644 E.03262
M73 P3 R34
G1 X123.727 Y74.496 E.00775
G1 X123.727 Y85.864 E.57384
G1 X123.441 Y85.922 E.01473
G1 X123.052 Y85.93 E.01964
G1 X123.052 Y72.533 E.67627
G1 X122.882 Y72.186 E.01951
G1 X122.378 Y71.507 E.04269
G1 X122.378 Y85.938 E.72846
G1 X121.703 Y85.827 E.03453
G1 X121.703 Y70.831 E.75698
G1 X121.513 Y70.654 E.01311
G1 X121.028 Y70.338 E.02922
G1 X121.028 Y85.648 E.77283
G1 X120.354 Y85.395 E.03634
G1 X120.354 Y69.975 E.77838
G1 X119.679 Y69.702 E.03675
G1 X119.679 Y85.002 E.77233
G1 X119.191 Y84.716 E.02855
G1 X119.005 Y84.835 E.01115
G1 X119.005 Y69.56 E.77106
G1 X118.638 Y69.485 E.01891
G1 X118.33 Y69.479 E.01555
G1 X118.33 Y85.264 E.79681
G1 X117.8 Y85.602 E.03173
G1 X117.656 Y85.66 E.00784
G1 X117.656 Y69.466 E.81745
G1 X116.981 Y69.562 E.03442
G1 X116.981 Y85.933 E.82639
G1 X116.836 Y85.992 E.0079
G1 X116.307 Y86.1 E.02725
G1 X116.307 Y69.73 E.82634
G1 X115.632 Y69.973 E.03621
G1 X115.632 Y86.204 E.81932
G1 X114.958 Y86.217 E.03403
G1 X114.958 Y70.358 E.80054
G1 X114.73 Y70.491 E.01332
G1 X114.283 Y70.848 E.02888
G1 X114.283 Y86.139 E.77187
G1 X113.75 Y86.051 E.02727
G1 X113.609 Y86 E.00757
G1 X113.609 Y70.645 E.7751
G1 X112.934 Y70.219 E.04029
G1 X112.934 Y85.757 E.78434
G1 X112.772 Y85.698 E.0087
G1 X112.26 Y85.399 E.02993
G1 X112.26 Y69.939 E.7804
G1 X111.952 Y69.815 E.01676
G1 X111.585 Y69.74 E.01891
G1 X111.585 Y85.297 E.7853
G1 X111.202 Y85.584 E.02416
G1 X110.91 Y85.757 E.01713
G1 X110.91 Y69.606 E.81528
G1 X110.236 Y69.593 E.03403
G1 X110.236 Y86.072 E.83184
G1 X110.023 Y86.163 E.01169
G1 X109.561 Y86.268 E.02392
G1 X109.561 Y69.641 E.83931
G1 X108.887 Y69.753 E.03449
G1 X108.887 Y86.397 E.84017
G1 X108.212 Y86.425 E.0341
G1 X108.212 Y69.992 E.82952
G1 X107.888 Y70.109 E.01739
G1 X107.538 Y70.313 E.02045
G1 X107.538 Y86.37 E.81054
G1 X106.949 Y86.286 E.03003
G1 X106.863 Y86.257 E.00458
G1 X106.863 Y70.742 E.78318
G1 X106.189 Y71.328 E.04508
M73 P4 R34
G1 X106.189 Y86.029 E.74209
G1 X105.951 Y85.948 E.01269
G1 X105.514 Y85.701 E.02534
G1 X105.514 Y72.189 E.68207
G1 X105.08 Y72.994 E.04616
G1 X104.901 Y73.47 E.02567
G1 X104.84 Y73.687 E.01138
G1 X104.84 Y74.242 E.02802
M204 P1250
G1 E-2.24 F4200
;WIPE_START
G1 F7200
G1 X104.84 Y73.687 E-.30756
G1 X104.901 Y73.47 E-.12492
G1 X105.08 Y72.994 E-.28182
G1 X105.29 Y72.604 E-.2457
;WIPE_END
G1 Z.4 F720
G1 X77.15 Y76.132 F9000
G1 Z.2 F720
G1 E3.2 F2400
M204 P800
;TYPE:Perimeter
;WIDTH:0.649999
G1 F1200
G1 X102.85 Y76.132 E1.29731
G1 X102.85 Y106.868 E1.55152
G1 X77.15 Y106.868 E1.29731
G1 X77.15 Y76.222 E1.54697
M204 P1250
G1 X76.543 Y75.525 F9000
M204 P800
;TYPE:External perimeter
G1 F1200
G1 X103.457 Y75.525 E1.35859
G1 X103.457 Y107.475 E1.6128
G1 X76.543 Y107.475 E1.35859
G1 X76.543 Y75.615 E1.60826
M204 P1250
G1 X77.118 Y75.697 F9000
G1 E-2.24 F4200
;WIPE_START
G1 F7200
G1 X78.275 Y75.609 E-.96
;WIPE_END
G1 Z.4 F720
G1 X77.605 Y77.114 F9000
G1 Z.2 F720
G1 E3.2 F2400
M204 P800
;TYPE:Solid infill
;WIDTH:0.65
G1 F1200
G1 X78.132 Y76.587 E.03762
M204 P1250
G1 X78.356 Y76.587 F9000
M204 P800
G1 F1200
G1 X78.673 Y76.905 E.02267
G1 X78.244 Y77.334 E.03063
G1 X78.673 Y77.763 E.03063
G1 X79.102 Y77.334 E.03063
G1 X79.532 Y77.763 E.03066
G1 X78.673 Y78.622 E.06132
G1 X78.244 Y78.193 E.03063
G1 X77.814 Y78.622 E.03066
G1 X78.673 Y79.48 E.06129
G1 X79.102 Y79.051 E.03063
G1 X79.532 Y79.48 E.03066
G1 X79.102 Y79.91 E.0307
G1 X79.961 Y80.768 E.06129
G1 X80.39 Y80.339 E.03063
G1 X79.961 Y79.91 E.03063
G1 X80.39 Y79.48 E.03066
G1 X80.819 Y79.91 E.03066
G1 X81.249 Y79.48 E.0307
G1 X80.39 Y78.622 E.06129
G1 X79.961 Y79.051 E.03063
G1 X79.532 Y78.622 E.03063
G1 X80.819 Y77.334 E.09191
G1 X81.249 Y77.763 E.03066
G1 X80.819 Y78.193 E.0307
G1 X81.678 Y79.051 E.06129
G1 X82.107 Y78.622 E.03063
G1 X81.678 Y78.193 E.03063
G1 X82.107 Y77.763 E.03066
G1 X82.536 Y78.193 E.03066
G1 X82.966 Y77.763 E.0307
G1 X82.107 Y76.905 E.06129
G1 X81.678 Y77.334 E.03063
G1 X81.249 Y76.905 E.03063
G1 X81.566 Y76.587 E.02267
M204 P1250
G1 X80.708 Y76.587 F9000
M204 P800
G1 F1200
G1 X79.961 Y77.334 E.05333
G1 X79.532 Y76.905 E.03063
G1 X79.849 Y76.587 E.02267
M204 P1250
G1 E-2.24 F4200
;WIPE_START
G1 F7200
G1 X79.532 Y76.905 E-.24883
G1 X79.961 Y77.334 E-.33621
G1 X80.439 Y76.856 E-.37496
;WIPE_END
G1 Z.4 F720
G1 X77.605 Y77.554 F9000
G1 Z.2 F720
G1 E3.2 F2400
M204 P800
G1 F1200
G1 X77.814 Y77.763 E.01492
G1 X77.605 Y77.972 E.01492
M204 P1250
G1 X77.605 Y79.271 F9000
M204 P800
G1 F1200
G1 X77.814 Y79.48 E.01492
G1 X77.605 Y79.689 E.01492
M204 P1250
G1 E-2.24 F4200
;WIPE_START
G1 F7200
G1 X77.814 Y79.48 E-.1638
G1 X77.605 Y79.271 E-.1638
;WIPE_END
G1 E-.6324 F4200
G1 Z.4 F720
G1 X77.605 Y82.706 F9000
G1 Z.2 F720
M73 P4 R33
G1 E3.2 F2400
M204 P800
G1 F1200
G1 X77.814 Y82.915 E.01492
G1 X78.673 Y82.056 E.06132
G1 X78.244 Y81.627 E.03063
G1 X77.814 Y82.056 E.03066
G1 X77.605 Y81.847 E.01492
M204 P1250
G1 X77.605 Y80.988 F9000
M204 P800
G1 F1200
G1 X77.814 Y81.198 E.01496
G1 X78.244 Y80.768 E.0307
G1 X77.814 Y80.339 E.03066
G1 X78.244 Y79.91 E.03066
G1 X79.102 Y80.768 E.06125
G1 X78.673 Y81.198 E.03066
G1 X79.102 Y81.627 E.03063
G1 X79.532 Y81.198 E.03066
G1 X80.39 Y82.056 E.06125
G1 X79.961 Y82.485 E.03063
G1 X79.532 Y82.056 E.03063
G1 X78.673 Y82.915 E.06132
G1 X79.102 Y83.344 E.03063
G1 X79.532 Y82.915 E.03066
G1 X79.961 Y83.344 E.03063
G1 X79.532 Y83.773 E.03063
G1 X79.961 Y84.202 E.03063
G1 X80.819 Y83.344 E.06125
G1 X80.39 Y82.915 E.03063
G1 X80.819 Y82.485 E.03066
G1 X81.678 Y83.344 E.06132
G1 X81.249 Y83.773 E.03063
G1 X81.678 Y84.202 E.03063
G1 X82.107 Y83.773 E.03063
G1 X82.966 Y84.632 E.06132
G1 X82.536 Y85.061 E.03066
G1 X82.107 Y84.632 E.03063
G1 X81.678 Y85.061 E.03063
G1 X82.107 Y85.49 E.03063
G1 X81.678 Y85.919 E.03063
G1 X80.819 Y85.061 E.06129
G1 X81.249 Y84.632 E.03066
G1 X80.819 Y84.202 E.0307
G1 X80.39 Y84.632 E.03066
G1 X79.532 Y85.49 E.06125
G1 X79.961 Y85.919 E.03063
G1 X80.39 Y85.49 E.03063
G1 X81.249 Y86.349 E.06132
G1 X80.819 Y86.778 E.03066
G1 X80.39 Y86.349 E.03063
G1 X79.961 Y86.778 E.03063
G1 X80.39 Y87.207 E.03063
G1 X79.961 Y87.637 E.03066
G1 X79.102 Y86.778 E.06132
G1 X79.532 Y86.349 E.03066
G1 X79.102 Y85.919 E.0307
G1 X78.673 Y86.349 E.03066
