; generated by PrusaSlicer 2.6.0-alpha6 on 2023-04-11 at 18:47:37 UTC


;
;

;
;
; 

; external perimeters extrusion width = 0.68mm
; perimeters extrusion width = 0.68mm
; infill extrusion width = 0.68mm
; solid infill extrusion width = 0.68mm
; top infill extrusion width = 0.60mm
; support material extrusion width = 0.55mm
; first layer extrusion width = 0.65mm

M73 P0 R41
M201 X2500 Y2500 Z400 E5000 ; sets maximum accelerations, mm/sec^2
M203 X180 Y180 Z12 E80 ; sets maximum feedrates, mm / sec
M204 P1250 R1250 T2500 ; sets acceleration (P, T) and retract acceleration (R), mm/sec^2
M205 X8.00 Y8.00 Z2.00 E10.00 ; sets the jerk limits, mm/sec
M205 S0 T0 ; sets the minimum extruding and travel feed rate, mm/sec
;TYPE:Custom
M862.3 P "MINI" ; printer model check
G90 ; use absolute coordinates
M83 ; extruder relative mode
M104 S170 ; set extruder temp for bed leveling
M140 S60 ; set bed temp
M109 R170 ; wait for bed leveling temp
M190 S60 ; wait for bed temp
M204 T1250 ; set travel acceleration
G28 ; home all without mesh bed level
G29 ; mesh bed leveling 
M204 T2500 ; restore travel acceleration
M104 S215 ; set extruder temp
G92 E0
G1 Y-2 X179 F2400
G1 Z3 F720
M109 S215 ; wait for extruder temp

; intro line
G1 X170 F1000
G1 Z0.2 F720
G1 X110 E8 F900
G1 X40 E10 F700
G92 E0

M221 S95 ; set flow
G21 ; set units to millimeters
G90 ; use absolute coordinates
M83 ; use relative distances for extrusion
M900 K0.12 ; Filament gcode LA 1.5
; ; Filament gcode LA 1.0
M107
;LAYER_CHANGE
;Z:0.2
;HEIGHT:0.2
;BEFORE_LAYER_CHANGE
G92 E0.0
;0.2


G1 E-3.2 F4200
M73 P0 R40
G1 Z.2 F720
;AFTER_LAYER_CHANGE
;0.2
G1 Z.4
G1 X53.621 Y69.275 F9000
G1 Z.2 F720
G1 E3.2 F2400
M204 P800
;TYPE:Skirt/Brim
;WIDTH:0.65
G1 F1200
G1 X54.255 Y68.84 E.03881
G1 X55.404 Y68.281 E.0645
G1 X57.202 Y67.727 E.09497
G1 X58.557 Y67.482 E.06951
G1 X111.043 Y66.464 E2.64993
G1 X119.689 Y66.994 E.43726
G1 X121.207 Y67.342 E.07861
G1 X122.389 Y67.821 E.06438
G1 X124.079 Y68.908 E.10143
G1 X125.211 Y70.015 E.07992
G1 X125.934 Y70.989 E.06123
G1 X126.831 Y72.828 E.10328
G1 X127.191 Y74.146 E.06897
G1 X128.315 Y80.105 E.30611
G1 X128.453 Y81.481 E.06981
G1 X128.263 Y83.559 E.10533
G1 X127.785 Y85.101 E.08149
G1 X114.286 Y111.682 E1.50489
G1 X113.313 Y112.73 E.07219
G1 X111.962 Y113.107 E.0708
G1 X68.038 Y113.107 E2.21723
G1 X66.662 Y112.715 E.07222
G1 X65.674 Y111.601 E.07516
G1 X50.67 Y79.3 E1.79784
M73 P1 R40
G1 X50.334 Y78.015 E.06705
G1 X50.21 Y77.07 E.04811
G1 X50.186 Y76.16 E.04595
G1 X50.315 Y74.822 E.06785
G1 X50.67 Y73.428 E.07261
G1 X51.089 Y72.409 E.05562
G1 X51.906 Y71.087 E.07845
G1 X52.701 Y70.142 E.06234
G1 X53.555 Y69.337 E.05924
M204 P1250
; printing object carriage_skel.stl id:0 copy 0
G1 E-2.24 F4200
;WIPE_START
G1 F7200
G1 X54.255 Y68.84 E-.47575
G1 X55.041 Y68.458 E-.48425
;WIPE_END
G1 Z.4 F720
G1 X61.199 Y70.329 F9000
G1 Z.2 F720
G1 E3.2 F2400
M204 P800
;TYPE:Support material
G1 F1200
G1 X62.2 Y70.776 E.05534
G1 X63.129 Y71.39 E.05621
G1 X63.918 Y72.126 E.05447
G1 X64.544 Y72.954 E.0524
G1 X64.956 Y73.756 E.04551
G1 X65.997 Y73.383 E.05582
G1 X67.096 Y73.201 E.05623
G1 X68.287 Y73.226 E.06013
G1 X69.36 Y73.443 E.05526
G1 X70.405 Y73.862 E.05683
G1 X71.398 Y74.493 E.05939
G1 X72.214 Y75.246 E.05605
G1 X72.689 Y75.881 E.04003
G1 X73.302 Y75.997 E.03149
G1 X74.371 Y76.407 E.05779
G1 X75.149 Y76.882 E.04601
G1 X75.149 Y86.999 E.51069
G1 X74.369 Y87.474 E.0461
G1 X73.302 Y87.883 E.05768
G1 X72.178 Y88.095 E.05774
G1 X71.034 Y88.105 E.05775
G1 X69.903 Y87.909 E.05794
G1 X69.121 Y87.622 E.04205
G1 X68.547 Y87.319 E.03276
G1 X67.676 Y86.665 E.05498
G1 X66.93 Y85.893 E.05419
G1 X66.743 Y85.622 E.01662
G1 X66.021 Y85.499 E.03697
G1 X64.981 Y85.138 E.05557
G1 X64.023 Y84.594 E.05561
G1 X63.494 Y84.173 E.03413
G1 X63.085 Y83.801 E.02791
G1 X62.392 Y82.959 E.05505
G1 X61.881 Y82.035 E.0533
G1 X61.02 Y82.35 E.04628
G1 X60.751 Y82.404 E.01385
G1 X60.154 Y82.583 E.03146
G1 X59.059 Y82.731 E.05578
G1 X58.456 Y82.712 E.03045
G1 X57.418 Y82.508 E.0534
G1 X56.218 Y82.04 E.06502
G1 X55.119 Y81.328 E.0661
G1 X54.249 Y80.447 E.0625
G1 X53.598 Y79.498 E.05809
G1 X53.164 Y78.538 E.05318
G1 X53.005 Y78.019 E.0274
G1 X52.879 Y77.45 E.02942
G1 X52.814 Y76.946 E.02565
G1 X52.786 Y76.353 E.02997
G1 X52.857 Y75.402 E.04814
G1 X53.08 Y74.421 E.05078
G1 X53.5 Y73.403 E.05559
G1 X53.972 Y72.676 E.04375
G1 X54.279 Y72.277 E.02541
G1 X54.62 Y71.907 E.0254
G1 X55.397 Y71.184 E.05358
G1 X56.545 Y70.624 E.06448
G1 X57.915 Y70.235 E.07189
G1 X58.648 Y70.088 E.03774
G1 X59.992 Y70.041 E.06789
G1 X61.11 Y70.308 E.05802
M204 P1250
G1 X74.486 Y87.083 F9000
M204 P800
G1 F1200
G1 X74.486 Y77.117 E.50307
G1 X74.129 Y76.9 E.02109
G1 X73.811 Y76.778 E.01719
G1 X73.811 Y87.102 E.52114
G1 X73.137 Y87.358 E.03639
G1 X73.137 Y76.522 E.54699
G1 X72.462 Y76.394 E.03468
G1 X72.462 Y87.486 E.55991
G1 X72.125 Y87.549 E.01731
G1 X71.788 Y87.552 E.01701
G1 X71.788 Y75.596 E.60353
G1 X71.113 Y74.973 E.04637
G1 X71.113 Y87.558 E.63528
G1 X70.439 Y87.447 E.03448
G1 X70.439 Y74.526 E.65224
G1 X70.158 Y74.352 E.01668
G1 X69.764 Y74.194 E.02143
G1 X69.764 Y87.276 E.66036
G1 X69.344 Y87.122 E.02258
G1 X69.09 Y86.988 E.0145
G1 X69.09 Y73.946 E.65835
G1 X68.415 Y73.81 E.03476
G1 X68.415 Y86.537 E.64244
G1 X68.039 Y86.254 E.02376
G1 X67.74 Y85.945 E.0217
G1 X67.74 Y73.75 E.61559
G1 X67.066 Y73.76 E.03403
G1 X67.066 Y85.129 E.57389
G1 X67.054 Y85.112 E.00105
G1 X66.391 Y85.012 E.03385
G1 X66.391 Y73.871 E.56239
G1 X66.135 Y73.914 E.0131
G1 X65.717 Y74.064 E.02242
G1 X65.717 Y84.815 E.5427
G1 X65.208 Y84.638 E.0272
G1 X65.042 Y84.544 E.00963
G1 X65.042 Y74.306 E.5168
G1 X64.689 Y74.433 E.01894
G1 X64.368 Y73.807 E.03551
G1 X64.368 Y84.161 E.52266
G1 X63.693 Y83.616 E.04379
G1 X63.693 Y72.735 E.54926
G1 X63.511 Y72.493 E.01529
G1 X63.019 Y72.034 E.03397
G1 X63.019 Y82.861 E.54653
G1 X62.846 Y82.65 E.01377
G1 X62.344 Y81.744 E.05229
G1 X62.344 Y71.52 E.5161
G1 X61.939 Y71.258 E.02435
G1 X61.67 Y71.138 E.01487
G1 X61.67 Y81.531 E.52463
G1 X60.995 Y81.778 E.03628
G1 X60.995 Y70.842 E.55204
G1 X60.321 Y70.681 E.03498
G1 X60.321 Y81.962 E.56945
G1 X60.038 Y82.047 E.01492
G1 X59.646 Y82.1 E.01997
G1 X59.646 Y70.6 E.58051
G1 X58.972 Y70.623 E.03404
G1 X58.972 Y82.182 E.58349
G1 X58.518 Y82.168 E.02293
G1 X58.297 Y82.124 E.01137
G1 X58.297 Y70.715 E.57591
G1 X58.044 Y70.766 E.01303
G1 X57.622 Y70.886 E.02215
G1 X57.622 Y81.991 E.56057
G1 X56.948 Y81.739 E.03632
G1 X56.948 Y71.078 E.53816
G1 X56.741 Y71.137 E.01087
G1 X56.273 Y71.365 E.02628
G1 X56.273 Y81.425 E.50782
G1 X55.599 Y80.988 E.04055
G1 X55.599 Y71.742 E.46673
G1 X54.924 Y72.383 E.04699
G1 X54.924 Y80.353 E.40232
G1 X54.672 Y80.098 E.0181
G1 X54.25 Y79.483 E.03765
G1 X54.25 Y73.252 E.31453
G1 X53.986 Y73.658 E.02445
M73 P2 R40
G1 X53.603 Y74.587 E.05072
G1 X53.575 Y74.707 E.00622
G1 X53.575 Y78.785 E.20585
M204 P1250
G1 E-2.24 F4200
;WIPE_START
G1 F7200
G1 X53.575 Y77.053 E-.96
;WIPE_END
G1 Z.4 F720
G1 X90.052 Y101.57 F9000
G1 Z.2 F720
G1 E3.2 F2400
M204 P800
G1 F1200
G1 X90.255 Y101.597 E.01034
G1 X90.499 Y101.68 E.01301
G1 X90.677 Y101.783 E.01038
G1 X90.87 Y101.952 E.01295
G1 X90.996 Y102.116 E.01044
G1 X91.11 Y102.346 E.01296
G1 X91.163 Y102.545 E.0104
G1 X91.18 Y102.802 E.013
G1 X91.141 Y103.056 E.01297
G1 X91.07 Y103.249 E.01038
G1 X90.967 Y103.427 E.01038
G1 X90.835 Y103.585 E.01039
G1 X90.634 Y103.746 E.013
G1 X90.452 Y103.841 E.01036
G1 X90.205 Y103.913 E.01299
G1 X90 Y103.931 E.01039
G1 X89.795 Y103.913 E.01039
G1 X89.548 Y103.841 E.01299
G1 X89.366 Y103.746 E.01036
G1 X89.165 Y103.585 E.013
G1 X89.004 Y103.384 E.013
G1 X88.909 Y103.202 E.01036
G1 X88.837 Y102.955 E.01299
G1 X88.819 Y102.75 E.01039
G1 X88.847 Y102.494 E.013
G1 X88.909 Y102.298 E.01038
G1 X89.004 Y102.116 E.01036
G1 X89.165 Y101.915 E.013
G1 X89.366 Y101.754 E.013
G1 X89.548 Y101.659 E.01036
G1 X89.745 Y101.597 E.01043
G1 X89.961 Y101.57 E.01099
M204 P1250
G1 X90 Y103.658 F9000
M204 P800
G1 F1200
G1 X90 Y101.843 E.09162
M204 P1250
G1 E-2.24 F4200
;WIPE_START
G1 F7200
G1 X90 Y103.575 E-.96
;WIPE_END
G1 Z.4 F720
G1 X110.993 Y69.07 F9000
G1 Z.2 F720
G1 E3.2 F2400
M204 P800
G1 F1200
G1 X112.111 Y69.299 E.05761
G1 X113.168 Y69.726 E.05755
G1 X114.13 Y70.338 E.05755
G1 X114.627 Y70.801 E.03429
G1 X115.802 Y70.115 E.06868
G1 X116.418 Y69.876 E.03335
G1 X116.944 Y69.705 E.02792
G1 X118.027 Y69.527 E.0554
G1 X119.167 Y69.548 E.05756
G1 X120.265 Y69.773 E.05658
G1 X121.364 Y70.219 E.05987
G1 X122.304 Y70.817 E.05624
G1 X123.131 Y71.586 E.05701
G1 X123.825 Y72.522 E.05882
G1 X124.321 Y73.533 E.05685
G1 X124.629 Y74.629 E.05747
G1 X124.733 Y75.768 E.05773
G1 X124.629 Y76.902 E.05748
G1 X124.397 Y77.728 E.04331
G1 X124.942 Y78.461 E.04611
G1 X125.443 Y79.481 E.05736
G1 X125.753 Y80.589 E.05808
G1 X125.857 Y81.718 E.05723
G1 X125.753 Y82.854 E.05758
G1 X125.445 Y83.952 E.05757
G1 X124.942 Y84.976 E.05759
G1 X124.262 Y85.891 E.05755
G1 X123.427 Y86.668 E.05758
G1 X122.465 Y87.28 E.05755
G1 X121.408 Y87.707 E.05755
G1 X120.291 Y87.936 E.05756
G1 X119.189 Y87.957 E.05564
G1 X118.644 Y87.883 E.02776
G1 X117.998 Y87.762 E.03318
G1 X116.953 Y87.386 E.05606
G1 X115.968 Y86.811 E.05757
G1 X115.105 Y86.067 E.05752
G1 X114.427 Y85.224 E.05461
G1 X114.06 Y84.609 E.03615
G1 X113.14 Y85.821 E.07681
G1 X112.291 Y86.589 E.05779
G1 X111.318 Y87.187 E.05765
G1 X110.249 Y87.597 E.05779
G1 X109.126 Y87.803 E.05763
G1 X107.985 Y87.8 E.0576
G1 X106.864 Y87.588 E.05759
G1 X105.801 Y87.174 E.05758
G1 X104.851 Y86.584 E.05645
G1 X104.851 Y74.64 E.60292
G1 X104.342 Y74.131 E.03634
G1 X104.172 Y74.131 E.00858
G1 X104.214 Y73.898 E.01195
G1 X104.382 Y73.308 E.03097
G1 X104.582 Y72.776 E.02869
G1 X105.093 Y71.828 E.05436
G1 X105.784 Y70.969 E.05565
G1 X106.278 Y70.519 E.03373
G1 X106.715 Y70.17 E.02823
G1 X107.656 Y69.621 E.05499
G1 X108.701 Y69.244 E.05608
G1 X109.346 Y69.123 E.03313
G1 X109.892 Y69.049 E.02781
G1 X110.902 Y69.069 E.05099
M204 P1250
G1 X125.076 Y84.083 F9000
M204 P800
G1 F1200
G1 X125.076 Y80.188 E.19662
G1 X124.93 Y79.677 E.02683
G1 X124.474 Y78.747 E.05228
G1 X124.401 Y78.649 E.00617
G1 X124.401 Y84.787 E.30984
G1 X123.853 Y85.525 E.0464
G1 X123.727 Y85.643 E.00871
G1 X123.727 Y73.561 E.60989
G1 X123.355 Y72.805 E.04253
G1 X123.052 Y72.389 E.02598
G1 X123.052 Y86.259 E.70014
G1 X122.378 Y86.688 E.04033
G1 X122.378 Y71.632 E.76001
G1 X121.968 Y71.251 E.02825
G1 X121.703 Y71.082 E.01587
G1 X121.703 Y86.999 E.80347
G1 X121.249 Y87.182 E.02471
G1 X121.028 Y87.227 E.01138
G1 X121.028 Y70.669 E.83583
G1 X120.354 Y70.393 E.03676
G1 X120.354 Y87.365 E.85673
G1 X120.23 Y87.391 E.0064
G1 X119.679 Y87.401 E.02782
G1 X119.679 Y70.211 E.86773
G1 X119.107 Y70.094 E.02947
G1 X119.005 Y70.092 E.00515
G1 X119.005 Y87.381 E.87273
G1 X118.33 Y87.269 E.03454
G1 X118.33 Y70.079 E.86773
G1 X118.067 Y70.074 E.01328
G1 X117.656 Y70.142 E.02103
G1 X117.656 Y87.058 E.8539
G1 X117.185 Y86.889 E.02526
G1 X116.981 Y86.769 E.01195
G1 X116.981 Y70.268 E.83295
G1 X116.307 Y70.505 E.03606
G1 X116.307 Y86.376 E.80115
G1 X115.632 Y85.8 E.04479
G1 X115.632 Y70.847 E.75481
G1 X114.958 Y71.241 E.03941
G1 X114.958 Y85.012 E.69514
G1 X114.877 Y84.911 E.00654
G1 X114.283 Y83.918 E.05841
G1 X114.283 Y71.227 E.64063
G1 X113.794 Y70.773 E.03368
G1 X113.609 Y70.654 E.0111
G1 X113.609 Y84.3 E.68883
G1 X112.934 Y85.188 E.05631
G1 X112.934 Y70.225 E.75532
G1 X112.26 Y69.948 E.03678
G1 X112.26 Y85.881 E.80428
G1 X111.962 Y86.15 E.02026
M73 P2 R39
G1 X111.585 Y86.382 E.02235
G1 X111.585 Y69.749 E.83962
G1 X110.91 Y69.615 E.03474
G1 X110.91 Y86.758 E.86536
G1 X110.236 Y87.017 E.03645
G1 X110.236 Y69.602 E.87909
G1 X109.924 Y69.596 E.01575
G1 X109.561 Y69.645 E.01849
G1 X109.561 Y87.168 E.88454
G1 X109.078 Y87.257 E.02479
M73 P3 R39
G1 X108.887 Y87.256 E.00964
G1 X108.887 Y69.765 E.88293
G1 X108.212 Y70.001 E.0361
G1 X108.212 Y87.254 E.87091
G1 X108.037 Y87.254 E.00883
G1 X107.538 Y87.159 E.02564
G1 X107.538 Y70.322 E.84991
G1 X107.025 Y70.622 E.03
G1 X106.863 Y70.751 E.01045
G1 X106.863 Y87.001 E.82028
G1 X106.189 Y86.738 E.03652
G1 X106.189 Y71.339 E.77732
G1 X105.55 Y72.132 E.05141
G1 X105.514 Y72.198 E.00379
G1 X105.514 Y86.352 E.71448
G1 X105.397 Y86.28 E.00693
G1 X105.397 Y74.414 E.59898
G1 X104.84 Y73.856 E.0398
G1 X104.84 Y72.873 E.04962
M204 P1250
G1 E-2.24 F4200
;WIPE_START
G1 F7200
G1 X104.84 Y73.856 E-.54475
G1 X105.369 Y74.386 E-.41525
;WIPE_END
G1 Z.4 F720
G1 X76.308 Y96.117 F9000
G1 Z.2 F720
G1 E3.2 F2400
M204 P800
;TYPE:Perimeter
;WIDTH:0.649999
G1 F1200
G1 X76.552 Y96.077 E.01248
G1 X76.865 Y95.883 E.01859
G1 X77.075 Y95.584 E.01844
G1 X77.15 Y95.221 E.01871
G1 X77.15 Y76.132 E.96359
G1 X102.85 Y76.132 E1.29731
G1 X102.85 Y94.709 E.93775
G1 X102.863 Y95.378 E.03378
G1 X102.961 Y95.657 E.01493
G1 X103.176 Y95.92 E.01715
G1 X103.447 Y96.076 E.01578
G1 X103.761 Y96.132 E.0161
G1 X110.4 Y96.132 E.33513
G1 X110.4 Y109.368 E.66814
G1 X69.6 Y109.368 E2.05954
G1 X69.6 Y96.132 E.66814
G1 X76.219 Y96.132 E.33412
M204 P1250
G1 X76.218 Y95.525 F9000
M204 P800
;TYPE:External perimeter
G1 F1200
G1 X76.344 Y95.507 E.00642
G1 X76.487 Y95.397 E.00911
G1 X76.543 Y95.221 E.00932
G1 X76.543 Y75.525 E.99423
G1 X103.457 Y75.525 E1.35859
G1 X103.461 Y95.274 E.99691
G1 X103.566 Y95.454 E.01052
G1 X103.761 Y95.525 E.01048
G1 X111.007 Y95.525 E.36577
G1 X111.007 Y109.975 E.72942
G1 X68.993 Y109.975 E2.12082
G1 X68.993 Y95.525 E.72942
G1 X76.128 Y95.525 E.36017
M204 P1250
G1 X76.324 Y95.595 F9000
G1 E-2.24 F4200
;WIPE_START
G1 F7200
G1 X76.344 Y95.507 E-.12011
G1 X76.487 Y95.397 E-.09998
G1 X76.543 Y95.221 E-.10235
G1 X76.543 Y94.071 E-.63756
;WIPE_END
G1 Z.4 F720
G1 X89.306 Y99.656 F9000
G1 Z.2 F720
G1 E3.2 F2400
M204 P800
;TYPE:Perimeter
G1 F1200
G1 X89.782 Y99.578 E.02435
G1 X90.571 Y99.625 E.0399
G1 X91.36 Y99.879 E.04184
G1 X92.056 Y100.329 E.04184
G1 X92.545 Y100.847 E.03596
G1 X92.847 Y101.335 E.02897
G1 X93.106 Y102.082 E.03991
G1 X93.161 Y102.635 E.02805
G1 X93.152 Y103.145 E.02575
G1 X93.024 Y103.724 E.02993
G1 X92.793 Y104.27 E.02993
G1 X92.446 Y104.777 E.03101
G1 X92.027 Y105.196 E.02991
G1 X91.432 Y105.587 E.03594
G1 X90.786 Y105.83 E.03484
G1 X90.218 Y105.922 E.02905
G1 X89.664 Y105.912 E.02797
G1 X89.007 Y105.769 E.03394
G1 X88.48 Y105.543 E.02895
G1 X87.927 Y105.159 E.03398
G1 X87.527 Y104.749 E.02891
G1 X87.163 Y104.183 E.03397
G1 X86.92 Y103.534 E.03498
G1 X86.828 Y102.968 E.02895
G1 X86.838 Y102.414 E.02797
G1 X86.98 Y101.758 E.03388
G1 X87.207 Y101.23 E.02901
G1 X87.495 Y100.788 E.02663
G1 X87.973 Y100.304 E.03434
G1 X88.568 Y99.913 E.03594
G1 X89.217 Y99.67 E.03498
M204 P1250
G1 X89.465 Y100.238 F9000
M204 P800
;TYPE:External perimeter
G1 F1200
G1 X89.91 Y100.177 E.02267
G1 X90.518 Y100.23 E.03081
G1 X91.152 Y100.45 E.03388
G1 X91.708 Y100.826 E.03388
G1 X92.089 Y101.247 E.02866
G1 X92.348 Y101.699 E.0263
G1 X92.527 Y102.265 E.02997
G1 X92.566 Y102.935 E.03388
G1 X92.431 Y103.593 E.03391
G1 X92.22 Y104.054 E.02559
G1 X92.017 Y104.347 E.01799
G1 X91.598 Y104.767 E.02995
G1 X91.117 Y105.068 E.02864
G1 X90.591 Y105.255 E.02818
G1 X90.086 Y105.323 E.02572
G1 X89.632 Y105.297 E.02295
G1 X89.095 Y105.16 E.02798
G1 X88.685 Y104.962 E.02298
G1 X88.241 Y104.63 E.02799
G1 X87.939 Y104.291 E.02292
G1 X87.654 Y103.808 E.02831
G1 X87.481 Y103.281 E.028
G1 X87.43 Y102.889 E.01995
G1 X87.453 Y102.382 E.02562
G1 X87.578 Y101.874 E.02641
G1 X87.78 Y101.446 E.02389
G1 X87.983 Y101.153 E.01799
G1 X88.402 Y100.733 E.02995
G1 X88.883 Y100.432 E.02864
G1 X89.378 Y100.256 E.02652
M204 P1250
G1 X89.593 Y99.807 F9000
M73 P4 R39
G1 X89.667 Y99.142
M204 P800
;TYPE:Solid infill
;WIDTH:0.65
G1 F1200
G1 X90.137 Y98.671 E.03359
G1 X90.566 Y99.101 E.03066
G1 X90.497 Y99.17 E.00493
M204 P1250
G1 E-2.24 F4200
;WIPE_START
G1 F7200
G1 X90.566 Y99.101 E-.05408
G1 X90.137 Y98.671 E-.3366
G1 X89.667 Y99.142 E-.36874
;WIPE_END
G1 E-.20058 F4200
G1 Z.4 F720
G1 X88.388 Y99.498 F9000
G1 Z.2 F720
G1 E3.2 F2400
M204 P800
G1 F1200
G1 X87.991 Y99.101 E.02834
G1 X88.42 Y98.671 E.03066
G1 X88.849 Y99.101 E.03066
G1 X89.708 Y98.242 E.06132
G1 X89.279 Y97.813 E.03063
G1 X88.849 Y98.242 E.03066
G1 X88.42 Y97.813 E.03063
G1 X88.849 Y97.384 E.03063
G1 X88.42 Y96.954 E.03066
