; generated by PrusaSlicer 2.5.0 on 2023-02-02 at 00:02:25 UTC


;
;

;
;
; 

; external perimeters extrusion width = 0.68mm
; perimeters extrusion width = 0.68mm
; infill extrusion width = 0.68mm
; solid infill extrusion width = 0.68mm
; top infill extrusion width = 0.60mm
; support material extrusion width = 0.55mm
; first layer extrusion width = 0.65mm

M73 P0 R25
M201 X2500 Y2500 Z400 E5000 ; sets maximum accelerations, mm/sec^2
M203 X180 Y180 Z12 E80 ; sets maximum feedrates, mm / sec
M204 P1250 R1250 T2500 ; sets acceleration (P, T) and retract acceleration (R), mm/sec^2
M205 X8.00 Y8.00 Z2.00 E10.00 ; sets the jerk limits, mm/sec
M205 S0 T0 ; sets the minimum extruding and travel feed rate, mm/sec
M107
;TYPE:Custom
M862.3 P "MINI" ; printer model check
G90 ; use absolute coordinates
M83 ; extruder relative mode
M104 S170 ; set extruder temp for bed leveling
M140 S60 ; set bed temp
M109 R170 ; wait for bed leveling temp
M190 S60 ; wait for bed temp
M204 T1250 ; set travel acceleration
G28 ; home all without mesh bed level
G29 ; mesh bed leveling 
M204 T2500 ; restore travel acceleration
M104 S215 ; set extruder temp
G92 E0
G1 Y-2 X179 F2400
G1 Z3 F720
M109 S215 ; wait for extruder temp

; intro line
G1 X170 F1000
G1 Z0.2 F720
G1 X110 E8 F900
G1 X40 E10 F700
G92 E0

M221 S95 ; set flow
G21 ; set units to millimeters
G90 ; use absolute coordinates
M83 ; use relative distances for extrusion
M900 K0.12 ; Filament gcode LA 1.5
; ; Filament gcode LA 1.0
M107
;LAYER_CHANGE
;Z:0.2
;HEIGHT:0.2
;BEFORE_LAYER_CHANGE
G92 E0.0
;0.2


G1 E-3.2 F4200
M73 P1 R25
G1 Z.2 F720
;AFTER_LAYER_CHANGE
;0.2
G1 Z.4
G1 X69.857 Y66.319 F9000
G1 Z.2 F720
G1 E3.2 F2400
M204 P800
;TYPE:Skirt/Brim
;WIDTH:0.65
G1 F1200
G1 X70.287 Y65.932 E.02918
G1 X70.774 Y65.621 E.02919
G1 X71.334 Y65.386 E.03066
G1 X72.448 Y65.211 E.05692
G1 X107.587 Y65.212 E1.77379
G1 X108.526 Y65.344 E.04787
G1 X109.363 Y65.697 E.04585
G1 X110.055 Y66.229 E.04405
G1 X110.658 Y67.012 E.04988
G1 X117.753 Y79.338 E.71793
G1 X118.004 Y80.108 E.0409
G1 X118.072 Y80.956 E.04294
G1 X117.935 Y81.789 E.0426
G1 X117.636 Y82.515 E.03964
G1 X100.046 Y112.985 E1.77599
G1 X99.301 Y113.903 E.05971
G1 X98.835 Y114.252 E.02939
G1 X98.234 Y114.551 E.03388
G1 X97.634 Y114.721 E.03146
G1 X97.04 Y114.787 E.0302
G1 X82.986 Y114.787 E.7094
G1 X82.203 Y114.686 E.03988
G1 X81.385 Y114.378 E.04412
G1 X80.589 Y113.802 E.04959
G1 X79.982 Y113.034 E.04939
G1 X62.368 Y82.524 E1.77836
G1 X62.038 Y81.693 E.04513
G1 X61.924 Y80.817 E.0446
G1 X62.029 Y79.96 E.04355
G1 X62.36 Y79.109 E.04611
G1 X69.463 Y66.818 E.71659
G1 X69.801 Y66.389 E.02756
M204 P1250
; printing object center_skirt.stl id:0 copy 0
G1 E-2.24 F4200
;WIPE_START
G1 F7200
G1 X70.287 Y65.932 E-.36961
G1 X70.774 Y65.621 E-.32043
G1 X71.143 Y65.466 E-.22196
;WIPE_END
G1 E-.048 F4200
G1 Z.4 F720
G1 X83.154 Y111.049 F9000
G1 Z.2 F720
G1 E3.2 F2400
M204 P800
;TYPE:Perimeter
;WIDTH:0.649999
G1 F1200
G1 X65.694 Y80.809 E1.76265
G1 X72.541 Y68.951 E.6912
G1 X107.436 Y68.951 E1.7615
G1 X107.469 Y68.968 E.00184
G1 X114.306 Y80.809 E.6902
G1 X96.866 Y111.016 E1.76069
G1 X96.819 Y111.049 E.00293
M73 P2 R25
G1 X83.244 Y111.049 E.68526
M204 P1250
G1 X82.841 Y111.601 F9000
M204 P800
;TYPE:External perimeter
G1 F1200
G1 X82.656 Y111.402 E.01373
G1 X65.153 Y81.086 E1.76705
G1 X65.06 Y80.814 E.01451
G1 X65.134 Y80.565 E.01313
G1 X72.04 Y68.604 E.69716
G1 X72.24 Y68.404 E.01429
G1 X72.487 Y68.344 E.01283
G1 X107.436 Y68.344 E1.7642
G1 X107.781 Y68.413 E.01773
G1 X107.959 Y68.602 E.01313
G1 X114.847 Y80.532 E.69535
G1 X114.94 Y80.804 E.01451
G1 X114.866 Y81.053 E.01313
G1 X97.392 Y111.319 E1.76413
G1 X97.165 Y111.587 E.01771
G1 X96.896 Y111.656 E.01405
G1 X83.131 Y111.657 E.69483
G1 X82.929 Y111.618 E.01035
M204 P1250
G1 X82.848 Y111.329 F9000
G1 E-2.24 F4200
;WIPE_START
G1 F7200
G1 X82.656 Y111.402 E-.19318
G1 X82.007 Y110.278 E-.71882
;WIPE_END
G1 E-.048 F4200
G1 Z.4 F720
G1 X71.989 Y78.704 F9000
G1 Z.2 F720
G1 E3.2 F2400
M204 P800
;TYPE:Perimeter
G1 F1200
G1 X71.948 Y78.557 E.00771
G1 X71.905 Y78.163 E.02001
G1 X71.947 Y77.581 E.02942
G1 X72.08 Y77.095 E.02544
G1 X72.307 Y76.629 E.02617
G1 X72.634 Y76.206 E.027
G1 X73.083 Y75.817 E.02999
G1 X73.661 Y75.512 E.03299
G1 X74.137 Y75.38 E.02494
G1 X74.7 Y75.335 E.02848
G1 X75.204 Y75.396 E.02563
G1 X75.75 Y75.573 E.02898
G1 X76.181 Y75.817 E.02503
G1 X76.618 Y76.19 E.02898
G1 X76.923 Y76.581 E.02505
G1 X77.183 Y77.092 E.02896
G1 X77.316 Y77.571 E.02504
G1 X77.359 Y78.161 E.02988
G1 X77.282 Y78.72 E.0285
G1 X77.114 Y79.199 E.02562
G1 X76.822 Y79.694 E.02899
G1 X76.49 Y80.062 E.02504
G1 X76.032 Y80.408 E.02898
G1 X75.584 Y80.621 E.02504
G1 X75.028 Y80.765 E.02898
G1 X74.533 Y80.791 E.02504
G1 X73.964 Y80.711 E.02898
G1 X73.515 Y80.554 E.02403
G1 X73.083 Y80.31 E.02503
G1 X72.646 Y79.937 E.02903
G1 X72.307 Y79.498 E.02797
G1 X72.081 Y79.035 E.02603
G1 X72.013 Y78.791 E.01278
M204 P1250
G1 X72.557 Y78.492 F9000
M204 P800
;TYPE:External perimeter
G1 F1200
G1 X72.509 Y78.097 E.02012
G1 X72.562 Y77.588 E.02581
G1 X72.68 Y77.226 E.0192
G1 X72.859 Y76.895 E.01903
G1 X73.154 Y76.539 E.02333
G1 X73.513 Y76.258 E.023
G1 X73.844 Y76.091 E.01871
G1 X74.205 Y75.984 E.019
G1 X74.649 Y75.94 E.02252
G1 X75.034 Y75.978 E.01954
G1 X75.469 Y76.111 E.02299
G1 X75.801 Y76.291 E.01905
G1 X76.153 Y76.58 E.02298
G1 X76.391 Y76.873 E.01905
G1 X76.605 Y77.275 E.02298
G1 X76.712 Y77.637 E.01905
G1 X76.756 Y78.096 E.02329
G1 X76.702 Y78.539 E.02253
G1 X76.581 Y78.907 E.01954
G1 X76.357 Y79.303 E.02299
G1 X76.11 Y79.589 E.01905
G1 X75.751 Y79.869 E.02299
G1 X75.414 Y80.038 E.01905
G1 X74.943 Y80.163 E.02458
G1 X74.599 Y80.187 E.01743
G1 X74.147 Y80.132 E.02299
G1 X73.795 Y80.016 E.0187
G1 X73.463 Y79.837 E.01903
G1 X73.107 Y79.542 E.02333
G1 X72.759 Y79.052 E.03032
G1 X72.576 Y78.58 E.02559
M204 P1250
G1 X72.174 Y78.382 F9000
G1 E-2.24 F4200
;WIPE_START
G1 F7200
G1 X72.509 Y78.097 E-.27019
G1 X72.562 Y77.588 E-.28338
G1 X72.68 Y77.226 E-.21082
G1 X72.807 Y76.992 E-.14761
;WIPE_END
G1 E-.048 F4200
G1 Z.4 F720
G1 X81.7 Y78.198 F9000
G1 Z.2 F720
G1 E3.2 F2400
M204 P800
;TYPE:Perimeter
G1 F1200
G1 X81.954 Y78.113 E.01355
G1 X82.079 Y78.104 E.0063
G1 X97.921 Y78.104 E.79973
G1 X98.226 Y78.157 E.01558
G1 X98.516 Y78.325 E.01694
G1 X98.745 Y78.625 E.01906
G1 X98.829 Y78.936 E.01623
G1 X98.832 Y79.648 E.03597
G1 X98.832 Y94.858 E.76775
G1 X98.773 Y95.182 E.01663
G1 X98.595 Y95.471 E.01712
G1 X98.336 Y95.669 E.01647
G1 X98.054 Y95.759 E.01491
G1 X97.921 Y95.768 E.00673
G1 X82.079 Y95.768 E.79973
G1 X81.806 Y95.727 E.01394
G1 X81.528 Y95.583 E.01577
G1 X81.29 Y95.313 E.01817
G1 X81.182 Y95.02 E.01576
G1 X81.168 Y94.858 E.00822
G1 X81.168 Y79.015 E.79973
G1 X81.219 Y78.713 E.01547
G1 X81.369 Y78.444 E.01555
G1 X81.618 Y78.233 E.01645
M204 P1250
G1 X81.775 Y79.015 F9000
M204 P800
;TYPE:External perimeter
G1 F1200
G1 X81.842 Y78.824 E.01019
G1 X81.997 Y78.723 E.00935
G1 X82.079 Y78.711 E.00417
G1 X97.921 Y78.711 E.79973
G1 X98.12 Y78.785 E.01067
M73 P3 R25
G1 X98.217 Y78.947 E.00955
G1 X98.225 Y79.648 E.03542
G1 X98.225 Y94.858 E.76775
G1 X98.154 Y95.053 E.01047
G1 X98.012 Y95.147 E.0086
G1 X97.921 Y95.161 E.00465
G1 X82.079 Y95.161 E.79973
G1 X81.895 Y95.1 E.00977
G1 X81.793 Y94.962 E.00864
G1 X81.775 Y94.858 E.00533
G1 X81.775 Y79.105 E.79519
M204 P1250
G1 X81.627 Y78.877 F9000
G1 E-2.24 F4200
;WIPE_START
G1 F7200
G1 X81.842 Y78.824 E-.15976
G1 X81.997 Y78.723 E-.10263
G1 X82.079 Y78.711 E-.04576
G1 X83.168 Y78.711 E-.60385
;WIPE_END
G1 E-.048 F4200
G1 Z.4 F720
G1 X102.888 Y76.952 F9000
G1 Z.2 F720
G1 E3.2 F2400
M204 P800
;TYPE:Perimeter
G1 F1200
G1 X103.077 Y76.581 E.02102
G1 X103.382 Y76.19 E.02505
G1 X103.819 Y75.817 E.02898
G1 X104.397 Y75.512 E.03298
G1 X104.873 Y75.38 E.02493
G1 X105.416 Y75.333 E.0275
G1 X105.939 Y75.396 E.02661
G1 X106.485 Y75.573 E.02899
G1 X106.917 Y75.817 E.02503
G1 X107.366 Y76.206 E.02999
G1 X107.693 Y76.629 E.027
G1 X107.919 Y77.093 E.02603
G1 X108.052 Y77.571 E.02503
G1 X108.095 Y78.161 E.02988
G1 X108.017 Y78.72 E.0285
G1 X107.858 Y79.181 E.02462
G1 X107.614 Y79.613 E.02502
G1 X107.226 Y80.062 E.02999
G1 X106.767 Y80.408 E.02899
G1 X106.339 Y80.615 E.02404
G1 X105.861 Y80.747 E.02502
G1 X105.289 Y80.792 E.02898
G1 X104.796 Y80.732 E.02504
G1 X104.25 Y80.554 E.02897
G1 X103.819 Y80.31 E.02504
G1 X103.382 Y79.937 E.02898
G1 X103.077 Y79.546 E.02505
G1 X102.817 Y79.035 E.02896
G1 X102.677 Y78.494 E.02818
G1 X102.641 Y78.163 E.01684
G1 X102.682 Y77.581 E.02942
G1 X102.847 Y77.033 E.02893
M204 P1250
G1 X103.483 Y77.107 F9000
M204 P800
;TYPE:External perimeter
G1 F1200
G1 X103.643 Y76.824 E.01642
G1 X103.89 Y76.539 E.01906
G1 X104.249 Y76.258 E.02298
G1 X104.579 Y76.091 E.01871
G1 X104.94 Y75.984 E.019
G1 X105.384 Y75.94 E.02252
G1 X105.769 Y75.978 E.01953
G1 X106.205 Y76.111 E.02299
G1 X106.537 Y76.291 E.01905
G1 X106.893 Y76.586 E.02333
G1 X107.173 Y76.945 E.023
G1 X107.34 Y77.275 E.0187
G1 X107.448 Y77.637 E.01904
G1 X107.491 Y78.096 E.02329
G1 X107.438 Y78.539 E.02253
G1 X107.241 Y79.052 E.02774
G1 X106.893 Y79.542 E.03033
G1 X106.487 Y79.869 E.02632
G1 X106.156 Y80.036 E.01871
G1 X105.795 Y80.144 E.01903
G1 X105.342 Y80.188 E.02299
G1 X104.966 Y80.149 E.01905
G1 X104.531 Y80.016 E.02298
G1 X104.199 Y79.837 E.01905
G1 X103.847 Y79.547 E.02299
G1 X103.609 Y79.254 E.01905
G1 X103.395 Y78.852 E.02298
G1 X103.281 Y78.428 E.02217
G1 X103.244 Y78.097 E.01684
G1 X103.298 Y77.588 E.02581
G1 X103.438 Y77.186 E.02153
M204 P1250
G1 X103.292 Y76.844 F9000
G1 E-2.24 F4200
;WIPE_START
G1 F7200
G1 X103.643 Y76.824 E-.23016
G1 X103.89 Y76.539 E-.20919
G1 X104.249 Y76.258 E-.25231
G1 X104.579 Y76.091 E-.20535
G1 X104.605 Y76.084 E-.01499
;WIPE_END
G1 E-.048 F4200
G1 Z.4 F720
G1 X88.526 Y106.97 F9000
G1 Z.2 F720
G1 E3.2 F2400
M204 P800
;TYPE:Perimeter
G1 F1200
G1 X88.451 Y106.928 E.00436
G1 X88.002 Y106.54 E.02998
G1 X87.675 Y106.116 E.02701
G1 X87.449 Y105.652 E.02604
G1 X87.316 Y105.175 E.02502
G1 X87.273 Y104.781 E.02001
G1 X87.316 Y104.188 E.02998
G1 X87.509 Y103.564 E.03299
G1 X87.754 Y103.133 E.02503
G1 X88.126 Y102.696 E.02897
G1 X88.518 Y102.391 E.02505
G1 X89.029 Y102.13 E.02896
G1 X89.505 Y101.998 E.02495
G1 X90.067 Y101.953 E.02848
M73 P3 R24
G1 X90.571 Y102.013 E.02562
G1 X91.135 Y102.2 E.02997
G1 X91.63 Y102.492 E.029
G1 X91.998 Y102.824 E.02504
G1 X92.339 Y103.273 E.02847
G1 X92.551 Y103.711 E.02455
G1 X92.684 Y104.188 E.02502
G1 X92.727 Y104.781 E.02998
G1 X92.647 Y105.349 E.02899
G1 X92.491 Y105.799 E.02403
G1 X92.246 Y106.23 E.02503
G1 X91.858 Y106.68 E.02998
G1 X91.399 Y107.025 E.02898
G1 X90.971 Y107.233 E.02403
G1 X90.493 Y107.365 E.02503
G1 X89.901 Y107.408 E.02997
G1 X89.332 Y107.328 E.029
G1 X88.882 Y107.172 E.02403
G1 X88.605 Y107.015 E.01612
M204 P1250
G1 X88.796 Y106.425 F9000
M204 P800
;TYPE:External perimeter
G1 F1200
G1 X88.475 Y106.16 E.02103
G1 X88.195 Y105.801 E.023
G1 X88.028 Y105.47 E.0187
G1 X87.92 Y105.109 E.01903
G1 X87.877 Y104.715 E.02001
G1 X87.932 Y104.196 E.02631
G1 X88.048 Y103.844 E.0187
G1 X88.227 Y103.513 E.01903
G1 X88.517 Y103.161 E.02299
G1 X88.809 Y102.923 E.01905
G1 X89.211 Y102.709 E.02298
G1 X89.572 Y102.601 E.01901
G1 X90.016 Y102.558 E.02252
G1 X90.401 Y102.596 E.01954
G1 X90.843 Y102.732 E.02333
G1 X91.24 Y102.957 E.023
G1 X91.525 Y103.204 E.01905
G1 X91.805 Y103.562 E.02299
G1 X91.972 Y103.893 E.0187
G1 X92.08 Y104.254 E.01903
G1 X92.123 Y104.715 E.02333
G1 X92.068 Y105.167 E.023
G1 X91.952 Y105.519 E.0187
G1 X91.773 Y105.85 E.01903
G1 X91.478 Y106.206 E.02333
G1 X91.119 Y106.487 E.023
G1 X90.788 Y106.654 E.0187
G1 X90.427 Y106.762 E.01903
G1 X89.967 Y106.805 E.02333
G1 X89.515 Y106.75 E.023
G1 X89.163 Y106.634 E.0187
G1 X88.87 Y106.476 E.01679
M204 P1250
G1 X88.42 Y106.605 F9000
G1 X87.931 Y107.094
M204 P800
;TYPE:Solid infill
;WIDTH:0.65
G1 F1200
G1 X87.855 Y107.171 E.00545
G1 X87.425 Y106.742 E.03064
G1 X86.996 Y107.171 E.03064
G1 X87.855 Y108.029 E.06129
G1 X88.284 Y107.6 E.03064
G1 X88.713 Y108.029 E.03064
G1 X88.284 Y108.459 E.03064
G1 X89.143 Y109.317 E.06129
G1 X89.572 Y108.888 E.03064
G1 X89.143 Y108.459 E.03064
G1 X89.755 Y107.846 E.04371
M204 P1250
G1 X90.246 Y107.845 F9000
M204 P800
G1 F1200
G1 X90.43 Y108.029 E.01317
G1 X90.001 Y108.459 E.03064
G1 X90.43 Y108.888 E.03064
G1 X90.86 Y108.459 E.03064
G1 X91.289 Y108.888 E.03064
G1 X90.43 Y109.746 E.06129
G1 X90.001 Y109.317 E.03064
G1 X89.572 Y109.746 E.03064
G1 X90.001 Y110.176 E.03064
G1 X89.583 Y110.594 E.02987
M204 P1250
G1 X88.724 Y110.594 F9000
M204 P800
G1 F1200
G1 X89.143 Y110.176 E.02987
G1 X88.284 Y109.317 E.06129
G1 X87.855 Y109.746 E.03064
G1 X88.284 Y110.176 E.03064
G1 X87.866 Y110.594 E.02987
M204 P1250
G1 X87.844 Y110.594 F9000
M204 P800
G1 F1200
G1 X87.425 Y110.176 E.02987
G1 X87.007 Y110.594 E.02987
M204 P1250
G1 X86.127 Y110.594 F9000
M204 P800
G1 F1200
G1 X85.708 Y110.176 E.02987
G1 X85.29 Y110.594 E.02987
M204 P1250
G1 E-2.24 F4200
;WIPE_START
G1 F7200
G1 X85.708 Y110.176 E-.32793
G1 X86.127 Y110.594 E-.32792
;WIPE_END
G1 E-.30415 F4200
G1 Z.4 F720
G1 X82.531 Y109.06 F9000
G1 Z.2 F720
G1 E3.2 F2400
M204 P800
G1 F1200
G1 X82.703 Y108.888 E.01232
G1 X82.274 Y108.459 E.03064
G1 X83.133 Y107.6 E.06129
G1 X83.562 Y108.029 E.03064
G1 X83.133 Y108.459 E.03064
G1 X83.562 Y108.888 E.03064
G1 X83.991 Y108.459 E.03064
G1 X84.421 Y108.888 E.03064
G1 X83.562 Y109.746 E.06129
G1 X83.133 Y109.317 E.03064
G1 X82.845 Y109.605 E.02053
M204 P1250
G1 X83.573 Y110.594 F9000
M204 P800
G1 F1200
G1 X84.421 Y109.746 E.06052
G1 X84.85 Y110.176 E.03064
G1 X85.279 Y109.746 E.03064
G1 X84.85 Y109.317 E.03064
G1 X85.708 Y108.459 E.06129
G1 X86.138 Y108.888 E.03064
G1 X85.708 Y109.317 E.03064
G1 X86.567 Y110.176 E.06129
G1 X86.996 Y109.746 E.03064
G1 X86.567 Y109.317 E.03064
G1 X86.996 Y108.888 E.03064
G1 X87.425 Y109.317 E.03064
G1 X87.855 Y108.888 E.03064
G1 X86.996 Y108.029 E.06129
G1 X86.567 Y108.459 E.03064
G1 X86.138 Y108.029 E.03064
G1 X86.567 Y107.6 E.03064
G1 X85.708 Y106.742 E.06129
G1 X85.279 Y107.171 E.03064
G1 X85.708 Y107.6 E.03064
G1 X84.85 Y108.459 E.06129
G1 X84.421 Y108.029 E.03064
G1 X84.85 Y107.6 E.03064
G1 X84.421 Y107.171 E.03064
G1 X83.991 Y107.6 E.03064
G1 X83.562 Y107.171 E.03064
G1 X84.421 Y106.312 E.06129
G1 X84.85 Y106.742 E.03064
G1 X85.279 Y106.312 E.03064
G1 X84.421 Y105.454 E.06129
G1 X83.991 Y105.883 E.03064
G1 X83.562 Y105.454 E.03064
G1 X83.991 Y105.024 E.03064
G1 X83.133 Y104.166 E.06129
G1 X82.703 Y104.595 E.03064
G1 X83.133 Y105.024 E.03064
G1 X82.703 Y105.454 E.03064
G1 X82.274 Y105.024 E.03064
G1 X81.845 Y105.454 E.03064
G1 X82.703 Y106.312 E.06129
G1 X83.133 Y105.883 E.03064
G1 X83.562 Y106.312 E.03064
G1 X82.274 Y107.6 E.09193
G1 X81.845 Y107.171 E.03064
G1 X82.274 Y106.742 E.03064
G1 X81.416 Y105.883 E.06129
G1 X80.986 Y106.312 E.03064
G1 X81.416 Y106.742 E.03064
G1 X81.274 Y106.883 E.01012
M204 P1250
G1 X80.645 Y105.795 F9000
M204 P800
G1 F1200
G1 X80.986 Y105.454 E.02434
G1 X80.128 Y104.595 E.06129
G1 X80.017 Y104.706 E.00791
M204 P1250
G1 X79.703 Y104.162 F9000
M204 P800
G1 F1200
G1 X80.557 Y103.307 E.06099
G1 X80.986 Y103.737 E.03064
G1 X80.557 Y104.166 E.03064
G1 X81.416 Y105.024 E.06129
G1 X81.845 Y104.595 E.03064
G1 X81.416 Y104.166 E.03064
G1 X81.845 Y103.737 E.03064
G1 X82.274 Y104.166 E.03064
G1 X82.703 Y103.737 E.03064
G1 X81.845 Y102.878 E.06129
G1 X81.416 Y103.307 E.03064
G1 X80.986 Y102.878 E.03064
G1 X81.416 Y102.449 E.03064
G1 X80.557 Y101.59 E.06129
G1 X80.128 Y102.02 E.03064
G1 X80.557 Y102.449 E.03064
G1 X79.699 Y103.307 E.06129
G1 X79.269 Y102.878 E.03064
G1 X79.699 Y102.449 E.03064
G1 X79.269 Y102.02 E.03064
G1 X78.84 Y102.449 E.03064
G1 X78.541 Y102.15 E.02133
M204 P1250
G1 X78.446 Y101.985 F9000
M204 P800
G1 F1200
G1 X79.269 Y101.161 E.05879
G1 X79.699 Y101.59 E.03064
G1 X80.128 Y101.161 E.03064
G1 X79.269 Y100.302 E.06129
G1 X78.84 Y100.732 E.03064
G1 X78.411 Y100.302 E.03064
G1 X78.84 Y99.873 E.03064
G1 X77.982 Y99.015 E.06129
G1 X77.552 Y99.444 E.03064
G1 X77.982 Y99.873 E.03064
G1 X77.552 Y100.302 E.03064
G1 X77.369 Y100.119 E.01312
M204 P1250
G1 X77.817 Y100.896 F9000
M204 P800
G1 F1200
G1 X77.982 Y100.732 E.01173
