; generated by PrusaSlicer 2.5.0 on 2023-02-02 at 00:08:08 UTC


;
;

;
;
; 

; external perimeters extrusion width = 0.68mm
; perimeters extrusion width = 0.68mm
; infill extrusion width = 0.68mm
; solid infill extrusion width = 0.68mm
; top infill extrusion width = 0.60mm
; support material extrusion width = 0.55mm
; first layer extrusion width = 0.65mm

M73 P0 R31
M201 X2500 Y2500 Z400 E5000 ; sets maximum accelerations, mm/sec^2
M203 X180 Y180 Z12 E80 ; sets maximum feedrates, mm / sec
M204 P1250 R1250 T2500 ; sets acceleration (P, T) and retract acceleration (R), mm/sec^2
M205 X8.00 Y8.00 Z2.00 E10.00 ; sets the jerk limits, mm/sec
M205 S0 T0 ; sets the minimum extruding and travel feed rate, mm/sec
M107
;TYPE:Custom
M862.3 P "MINI" ; printer model check
G90 ; use absolute coordinates
M83 ; extruder relative mode
M104 S170 ; set extruder temp for bed leveling
M140 S60 ; set bed temp
M109 R170 ; wait for bed leveling temp
M190 S60 ; wait for bed temp
M204 T1250 ; set travel acceleration
G28 ; home all without mesh bed level
G29 ; mesh bed leveling 
M204 T2500 ; restore travel acceleration
M104 S215 ; set extruder temp
G92 E0
G1 Y-2 X179 F2400
G1 Z3 F720
M109 S215 ; wait for extruder temp

; intro line
G1 X170 F1000
G1 Z0.2 F720
G1 X110 E8 F900
G1 X40 E10 F700
G92 E0

M221 S95 ; set flow
G21 ; set units to millimeters
G90 ; use absolute coordinates
M83 ; use relative distances for extrusion
M900 K0.12 ; Filament gcode LA 1.5
; ; Filament gcode LA 1.0
M107
;LAYER_CHANGE
;Z:0.2
;HEIGHT:0.2
;BEFORE_LAYER_CHANGE
G92 E0.0
;0.2


G1 E-3.2 F4200
G1 Z.2 F720
;AFTER_LAYER_CHANGE
;0.2
G1 Z.4
G1 X70.284 Y65.934 F9000
G1 Z.2 F720
G1 E3.2 F2400
M204 P800
;TYPE:Skirt/Brim
;WIDTH:0.65
G1 F1200
G1 X71.324 Y65.389 E.05929
G1 X72.464 Y65.211 E.05824
G1 X107.551 Y65.211 E1.77116
G1 X108.517 Y65.341 E.04916
G1 X109.346 Y65.687 E.04534
G1 X110.051 Y66.225 E.0448
G1 X110.659 Y67.014 E.05025
G1 X117.767 Y79.369 E.71957
G1 X118.023 Y80.207 E.04419
M73 P1 R30
G1 X118.072 Y80.956 E.03791
G1 X117.932 Y81.799 E.04314
G1 X117.632 Y82.524 E.03959
G1 X100.038 Y113 E1.77638
G1 X99.305 Y113.9 E.05857
G1 X98.759 Y114.298 E.03408
G1 X98.235 Y114.55 E.02937
G1 X97.661 Y114.716 E.03015
G1 X97.042 Y114.786 E.03144
G1 X82.983 Y114.787 E.7097
G1 X82.208 Y114.688 E.03943
G1 X81.402 Y114.387 E.04344
G1 X80.594 Y113.807 E.05018
G1 X79.98 Y113.03 E.05002
G1 X62.37 Y82.528 E1.77788
G1 X62.034 Y81.676 E.04623
G1 X61.924 Y80.805 E.04432
G1 X62.037 Y79.93 E.04451
G1 X62.369 Y79.094 E.04541
G1 X69.47 Y66.807 E.71636
G1 X70.223 Y66 E.05572
M204 P1250
; printing object center_block.stl id:0 copy 0
G1 E-2.24 F4200
;WIPE_START
G1 F7200
G1 X71.324 Y65.389 E-.69815
G1 X71.706 Y65.329 E-.21385
;WIPE_END
G1 E-.048 F4200
G1 Z.4 F720
G1 X74.736 Y75.685 F9000
G1 Z.2 F720
G1 E3.2 F2400
M204 P800
;TYPE:Support material
G1 F1200
G1 X74.943 Y75.703 E.01049
G1 X75.248 Y75.764 E.01572
G1 X75.638 Y75.906 E.02095
G1 X75.822 Y76.002 E.01047
G1 X76.082 Y76.175 E.01573
G1 X76.388 Y76.455 E.02095
G1 X76.582 Y76.698 E.01571
G1 X76.694 Y76.873 E.0105
G1 X76.869 Y77.25 E.02094
G1 X76.932 Y77.448 E.01048
G1 X76.993 Y77.753 E.01572
G1 X77.011 Y78.167 E.02094
G1 X76.993 Y78.374 E.01049
G1 X76.932 Y78.68 E.01572
G1 X76.79 Y79.07 E.02095
G1 X76.582 Y79.429 E.02095
G1 X76.388 Y79.672 E.01571
G1 X76.241 Y79.819 E.01049
G1 X76.082 Y79.952 E.01047
G1 X75.823 Y80.126 E.01573
G1 X75.447 Y80.301 E.02094
G1 X75.046 Y80.408 E.02095
G1 X74.84 Y80.435 E.01048
G1 X74.528 Y80.442 E.01572
G1 X74.117 Y80.388 E.02095
G1 X73.818 Y80.301 E.01572
G1 X73.626 Y80.221 E.01049
G1 X73.442 Y80.126 E.01048
G1 X73.183 Y79.953 E.01572
G1 X72.877 Y79.672 E.02094
G1 X72.743 Y79.513 E.01049
G1 X72.57 Y79.254 E.01573
G1 X72.395 Y78.878 E.02095
G1 X72.333 Y78.68 E.01047
G1 X72.272 Y78.374 E.01573
G1 X72.254 Y77.96 E.02094
G1 X72.272 Y77.753 E.01049
G1 X72.333 Y77.447 E.01573
G1 X72.475 Y77.057 E.02094
G1 X72.57 Y76.873 E.01047
G1 X72.743 Y76.614 E.01574
G1 X73.024 Y76.309 E.02093
G1 X73.183 Y76.175 E.0105
G1 X73.442 Y76.002 E.01573
G1 X73.818 Y75.826 E.02095
G1 X74.219 Y75.719 E.02094
G1 X74.645 Y75.683 E.02159
M204 P1250
G1 X75.835 Y79.794 F9000
M204 P800
G1 F1200
G1 X75.835 Y76.679 E.15724
G1 X75.549 Y76.475 E.01773
G1 X75.16 Y76.307 E.02137
G1 X75.16 Y79.82 E.17731
G1 X74.872 Y79.882 E.01491
G1 X74.552 Y79.896 E.01614
G1 X74.486 Y79.892 E.00336
G1 X74.486 Y76.236 E.18457
G1 X74.158 Y76.292 E.01681
G1 X73.811 Y76.424 E.01871
G1 X73.811 Y79.704 E.16556
G1 X73.647 Y79.611 E.00954
G1 X73.453 Y79.469 E.01212
G1 X73.28 Y79.303 E.0121
G1 X73.137 Y79.125 E.01152
G1 X73.137 Y76.579 E.12854
M204 P1250
G1 E-2.24 F4200
;WIPE_START
G1 F7200
G1 X73.137 Y78.225 E-.912
;WIPE_END
G1 E-.048 F4200
G1 Z.4 F720
G1 X90.104 Y84.558 F9000
G1 Z.2 F720
G1 E3.2 F2400
M204 P800
G1 F1200
G1 X90.413 Y84.592 E.01572
G1 X90.616 Y84.637 E.01048
G1 X91.006 Y84.778 E.02095
G1 X91.366 Y84.986 E.02099
G1 X91.609 Y85.181 E.01572
G1 X91.756 Y85.328 E.01048
G1 X91.889 Y85.487 E.01047
G1 X92.062 Y85.746 E.0157
G1 X92.237 Y86.122 E.02094
G1 X92.3 Y86.32 E.01049
G1 X92.36 Y86.625 E.01572
G1 X92.379 Y87.041 E.02099
G1 X92.324 Y87.452 E.02095
G1 X92.237 Y87.751 E.01572
G1 X92.157 Y87.943 E.01049
G1 X92.008 Y88.215 E.01567
G1 X91.889 Y88.385 E.01049
G1 X91.609 Y88.691 E.02095
G1 X91.366 Y88.886 E.01572
G1 X91.19 Y88.998 E.0105
G1 X90.814 Y89.174 E.02098
G1 X90.413 Y89.281 E.02094
G1 X90.207 Y89.308 E.01049
G1 X89.896 Y89.315 E.01569
G1 X89.587 Y89.281 E.01572
G1 X89.384 Y89.236 E.01048
G1 X88.994 Y89.094 E.02095
G1 X88.81 Y88.998 E.01049
G1 X88.551 Y88.825 E.01573
G1 X88.244 Y88.544 E.02097
G1 X88.111 Y88.385 E.01048
G1 X87.938 Y88.127 E.01569
G1 X87.763 Y87.751 E.02094
G1 X87.7 Y87.553 E.01048
G1 X87.64 Y87.247 E.01572
G1 X87.621 Y86.832 E.02099
G1 X87.676 Y86.421 E.02095
G1 X87.763 Y86.122 E.01571
G1 X87.843 Y85.93 E.0105
G1 X87.992 Y85.657 E.01567
G1 X88.111 Y85.487 E.01048
G1 X88.391 Y85.181 E.02095
G1 X88.634 Y84.986 E.01572
G1 X88.81 Y84.874 E.0105
G1 X89.186 Y84.699 E.02098
G1 X89.587 Y84.592 E.02094
G1 X90.013 Y84.556 E.02155
M204 P1250
G1 X91.349 Y88.555 F9000
M204 P800
G1 F1200
G1 X91.349 Y85.694 E.14445
G1 X91.052 Y85.434 E.0199
G1 X90.847 Y85.309 E.01214
G1 X90.675 Y85.231 E.00955
G1 X90.675 Y88.642 E.17217
G1 X90.318 Y88.743 E.01869
G1 X90 Y88.771 E.01613
G1 X90 Y85.102 E.18519
G1 X89.682 Y85.13 E.01612
G1 X89.325 Y85.231 E.0187
G1 X89.325 Y88.642 E.17217
G1 X89.153 Y88.563 E.00955
G1 X88.948 Y88.439 E.01213
G1 X88.651 Y88.179 E.01992
G1 X88.651 Y85.317 E.14445
M204 P1250
G1 E-2.24 F4200
;WIPE_START
G1 F7200
G1 X88.651 Y86.963 E-.912
;WIPE_END
G1 E-.048 F4200
G1 Z.4 F720
G1 X90.104 Y102.303 F9000
G1 Z.2 F720
G1 E3.2 F2400
M204 P800
G1 F1200
G1 X90.311 Y102.321 E.01049
G1 X90.616 Y102.382 E.01571
G1 X91.006 Y102.524 E.02096
G1 X91.366 Y102.731 E.02095
G1 X91.608 Y102.926 E.01571
G1 X91.755 Y103.073 E.01049
G1 X91.889 Y103.232 E.01048
G1 X92.062 Y103.491 E.01573
G1 X92.237 Y103.867 E.02094
G1 X92.345 Y104.268 E.02095
G1 X92.379 Y104.578 E.01572
G1 X92.379 Y104.785 E.01049
G1 X92.36 Y104.992 E.01049
G1 X92.3 Y105.298 E.01572
G1 X92.158 Y105.688 E.02095
G1 X92.062 Y105.872 E.01048
G1 X91.889 Y106.131 E.01573
G1 X91.609 Y106.437 E.02093
G1 X91.449 Y106.57 E.01049
G1 X91.19 Y106.743 E.01573
G1 X90.814 Y106.919 E.02095
G1 X90.515 Y107.006 E.01572
G1 X90.311 Y107.042 E.01048
G1 X89.896 Y107.06 E.02094
G1 X89.485 Y107.006 E.02095
G1 X89.284 Y106.952 E.0105
G1 X88.994 Y106.839 E.01571
G1 X88.81 Y106.743 E.01048
G1 X88.551 Y106.57 E.01572
G1 X88.245 Y106.29 E.02095
G1 X88.111 Y106.131 E.01048
G1 X87.938 Y105.872 E.01573
G1 X87.763 Y105.496 E.02094
G1 X87.7 Y105.298 E.01048
G1 X87.64 Y104.992 E.01572
G1 X87.621 Y104.578 E.02095
G1 X87.655 Y104.268 E.01572
G1 X87.7 Y104.065 E.01049
G1 X87.842 Y103.675 E.02095
G1 X87.938 Y103.491 E.01048
G1 X88.111 Y103.232 E.01573
G1 X88.392 Y102.926 E.02095
G1 X88.634 Y102.731 E.01571
G1 X88.81 Y102.62 E.01049
G1 X89.186 Y102.444 E.02095
G1 X89.587 Y102.337 E.02094
G1 X90.013 Y102.301 E.02159
M204 P1250
G1 X91.349 Y106.3 F9000
M204 P800
G1 F1200
G1 X91.349 Y103.439 E.14445
G1 X91.052 Y103.179 E.01992
G1 X90.847 Y103.054 E.01211
G1 X90.675 Y102.976 E.00956
G1 X90.675 Y106.387 E.17217
G1 X90.319 Y106.488 E.01867
G1 X90 Y106.516 E.01615
G1 X90 Y102.847 E.18519
G1 X89.681 Y102.875 E.01615
G1 X89.325 Y102.976 E.01867
G1 X89.325 Y106.387 E.17217
G1 X89.153 Y106.309 E.00956
G1 X88.948 Y106.184 E.01211
G1 X88.651 Y105.924 E.01991
G1 X88.651 Y103.062 E.14446
M204 P1250
G1 E-2.24 F4200
;WIPE_START
G1 F7200
G1 X88.651 Y104.708 E-.912
;WIPE_END
G1 E-.048 F4200
G1 Z.4 F720
G1 X105.471 Y75.685 F9000
G1 Z.2 F720
G1 E3.2 F2400
M204 P800
G1 F1200
G1 X105.883 Y75.739 E.02096
G1 X106.182 Y75.826 E.01571
G1 X106.374 Y75.906 E.01049
G1 X106.558 Y76.002 E.01047
G1 X106.817 Y76.175 E.01572
G1 X107.123 Y76.455 E.02095
G1 X107.257 Y76.614 E.01048
G1 X107.43 Y76.873 E.01574
G1 X107.605 Y77.25 E.02095
G1 X107.667 Y77.447 E.01047
G1 X107.728 Y77.753 E.01573
G1 X107.746 Y78.167 E.02095
G1 X107.728 Y78.374 E.01049
G1 X107.667 Y78.68 E.01573
G1 X107.526 Y79.07 E.02094
G1 X107.43 Y79.254 E.01047
G1 X107.257 Y79.513 E.01573
G1 X106.976 Y79.819 E.02094
G1 X106.817 Y79.953 E.0105
G1 X106.558 Y80.126 E.01572
G1 X106.182 Y80.301 E.02095
G1 X105.883 Y80.388 E.01572
G1 X105.679 Y80.424 E.01048
G1 X105.264 Y80.442 E.02095
G1 X104.954 Y80.408 E.01572
G1 X104.752 Y80.363 E.01048
G1 X104.362 Y80.221 E.02095
G1 X104.177 Y80.126 E.01048
G1 X103.918 Y79.952 E.01573
G1 X103.612 Y79.672 E.02095
G1 X103.418 Y79.429 E.01571
G1 X103.306 Y79.254 E.01049
G1 X103.131 Y78.878 E.02095
G1 X103.068 Y78.68 E.01048
G1 X103.007 Y78.374 E.01572
G1 X102.989 Y77.96 E.02094
G1 X103.007 Y77.753 E.01049
G1 X103.068 Y77.448 E.01572
G1 X103.21 Y77.057 E.02096
G1 X103.418 Y76.698 E.02095
G1 X103.612 Y76.455 E.01571
G1 X103.759 Y76.308 E.01049
G1 X103.918 Y76.175 E.01048
G1 X104.178 Y76.002 E.01574
G1 X104.554 Y75.826 E.02095
G1 X104.954 Y75.719 E.02094
G1 X105.38 Y75.683 E.02159
M204 P1250
G1 X106.863 Y79.548 F9000
M204 P800
G1 F1200
G1 X106.863 Y77.002 E.12854
G1 X106.72 Y76.824 E.01152
G1 X106.547 Y76.658 E.01211
G1 X106.353 Y76.517 E.01212
G1 X106.189 Y76.424 E.00952
G1 X106.189 Y79.704 E.16556
G1 X105.843 Y79.835 E.0187
G1 X105.514 Y79.892 E.01681
G1 X105.514 Y76.236 E.18457
G1 X105.448 Y76.231 E.00337
G1 X105.128 Y76.245 E.01613
G1 X104.84 Y76.307 E.01491
G1 X104.84 Y79.82 E.17731
G1 X104.451 Y79.652 E.02138
G1 X104.165 Y79.448 E.01772
G1 X104.165 Y76.333 E.15724
M204 P1250
G1 E-2.24 F4200
;WIPE_START
G1 F7200
G1 X104.165 Y77.979 E-.912
;WIPE_END
G1 E-.048 F4200
G1 Z.4 F720
G1 X96.846 Y111.049 F9000
G1 Z.2 F720
G1 E3.2 F2400
M204 P800
;TYPE:Perimeter
;WIDTH:0.649999
G1 F1200
G1 X83.193 Y111.049 E.68923
G1 X83.138 Y111.022 E.00308
G1 X65.698 Y80.806 E1.7611
G1 X72.54 Y68.951 E.69093
G1 X107.463 Y68.956 E1.76284
M73 P2 R30
G1 X114.306 Y80.809 E.69088
G1 X96.891 Y110.971 E1.75811
M204 P1250
G1 X97.159 Y111.601 F9000
M204 P800
;TYPE:External perimeter
G1 F1200
G1 X96.905 Y111.657 E.01314
G1 X83.193 Y111.656 E.69217
G1 X82.835 Y111.587 E.0184
G1 X82.647 Y111.386 E.01389
G1 X65.18 Y81.133 E1.76339
G1 X65.068 Y80.819 E.01681
G1 X65.132 Y80.571 E.01292
G1 X72.046 Y68.593 E.69815
G1 X72.229 Y68.408 E.01316
G1 X72.451 Y68.344 E.01166
G1 X107.435 Y68.344 E1.76595
G1 X107.777 Y68.407 E.01752
G1 X107.955 Y68.594 E.01305
G1 X114.847 Y80.532 E.69584
G1 X114.94 Y80.814 E.01498
G1 X114.861 Y81.062 E.01315
G1 X97.361 Y111.373 E1.76674
G1 X97.219 Y111.534 E.01085
M204 P1250
G1 X96.938 Y111.464 F9000
G1 E-2.24 F4200
;WIPE_START
G1 F7200
G1 X96.905 Y111.657 E-.18681
G1 X95.596 Y111.656 E-.72519
;WIPE_END
G1 E-.048 F4200
G1 Z.4 F720
G1 X71.553 Y74.967 F9000
G1 Z.2 F720
G1 E3.2 F2400
M204 P800
;TYPE:Perimeter
G1 F1200
G1 X72.197 Y74.426 E.04248
G1 X72.883 Y74.049 E.03952
G1 X73.607 Y73.806 E.03854
G1 X74.187 Y73.724 E.02956
G1 X74.695 Y73.685 E.02574
G1 X75.312 Y73.738 E.03126
G1 X76.215 Y73.982 E.04723
G1 X76.918 Y74.328 E.03954
G1 X77.657 Y74.899 E.04711
G1 X78.174 Y75.487 E.03956
G1 X78.638 Y76.297 E.04712
G1 X78.89 Y77.038 E.03952
G1 X79.009 Y77.965 E.04713
G1 X78.927 Y78.914 E.04811
G1 X78.708 Y79.666 E.03953
G1 X78.378 Y80.303 E.03622
G1 X78.174 Y80.64 E.01989
G1 X77.784 Y81.104 E.03056
G1 X77.068 Y81.702 E.04712
G1 X76.381 Y82.079 E.03955
G1 X75.49 Y82.357 E.04712
G1 X74.712 Y82.442 E.03953
G1 X73.797 Y82.361 E.04634
G1 X73.032 Y82.14 E.0402
G1 X72.346 Y81.799 E.03864
G1 X71.607 Y81.229 E.04713
G1 X70.994 Y80.499 E.04812
G1 X70.617 Y79.813 E.03952
G1 X70.339 Y78.922 E.04712
G1 X70.254 Y78.143 E.03954
G1 X70.306 Y77.381 E.03855
G1 X70.551 Y76.48 E.04712
G1 X70.897 Y75.778 E.03953
G1 X71.484 Y75.025 E.04819
M204 P1250
G1 X71.892 Y75.481 F9000
M204 P800
;TYPE:External perimeter
G1 F1200
G1 X71.941 Y75.419 E.00399
G1 X72.577 Y74.899 E.04147
G1 X73.164 Y74.587 E.03354
G1 X73.79 Y74.385 E.03321
G1 X74.585 Y74.291 E.04041
G1 X75.261 Y74.342 E.03423
G1 X76.045 Y74.565 E.04117
G1 X76.638 Y74.867 E.03355
G1 X77.277 Y75.372 E.04113
G1 X77.709 Y75.878 E.03357
G1 X78.106 Y76.589 E.04113
G1 X78.311 Y77.221 E.03354
G1 X78.405 Y78.031 E.04114
G1 X78.323 Y78.848 E.04147
G1 X78.129 Y79.483 E.03354
G1 X77.709 Y80.25 E.04412
G1 X77.319 Y80.714 E.03056
G1 X76.688 Y81.228 E.04113
G1 X76.101 Y81.54 E.03356
G1 X75.32 Y81.774 E.04113
G1 X74.659 Y81.838 E.03354
G1 X73.862 Y81.758 E.04041
G1 X73.213 Y81.561 E.03423
G1 X72.627 Y81.261 E.03324
G1 X71.987 Y80.755 E.04115
G1 X71.468 Y80.119 E.04147
G1 X71.156 Y79.532 E.03354
G1 X70.922 Y78.752 E.04113
G1 X70.858 Y78.09 E.03355
G1 X70.911 Y77.434 E.03322
G1 X71.134 Y76.65 E.04113
G1 X71.435 Y76.058 E.03354
G1 X71.836 Y75.552 E.0326
M204 P1250
G1 X71.86 Y75.408 F9000
G1 E-2.24 F4200
;WIPE_START
G1 F7200
G1 X71.941 Y75.419 E-.09372
G1 X72.577 Y74.899 E-.4553
G1 X73.155 Y74.592 E-.36298
;WIPE_END
G1 E-.048 F4200
G1 Z.4 F720
G1 X86.312 Y84.591 F9000
G1 Z.2 F720
G1 E3.2 F2400
M204 P800
;TYPE:Perimeter
G1 F1200
G1 X86.718 Y84.037 E.03465
G1 X87.408 Y83.408 E.04712
G1 X88.078 Y83.001 E.03961
G1 X88.955 Y82.685 E.04705
G1 X89.731 Y82.565 E.03962
G1 X90.662 Y82.609 E.04705
G1 X91.423 Y82.794 E.03951
G1 X91.978 Y83.038 E.03064
G1 X92.275 Y83.196 E.01694
G1 X92.883 Y83.642 E.03809
G1 X93.426 Y84.208 E.03959
G1 X93.924 Y84.996 E.04705
G1 X94.209 Y85.726 E.03957
G1 X94.368 Y86.646 E.04712
G1 X94.347 Y87.298 E.03296
G1 X94.298 Y87.775 E.02417
G1 X94.141 Y88.36 E.0306
G1 X93.745 Y89.204 E.04706
G1 X93.282 Y89.836 E.03951
G1 X92.644 Y90.419 E.04364
G1 X91.922 Y90.872 E.04305
G1 X91.375 Y91.076 E.02944
G1 X90.871 Y91.228 E.02659
G1 X90.271 Y91.307 E.03056
G1 X89.693 Y91.287 E.02917
G1 X89.162 Y91.235 E.02693
G1 X88.577 Y91.078 E.03056
G1 X87.91 Y90.782 E.03686
G1 X87.117 Y90.231 E.04876
G1 X86.574 Y89.664 E.03961
G1 X86.075 Y88.876 E.04707
G1 X85.791 Y88.147 E.03953
G1 X85.632 Y87.227 E.04712
G1 X85.672 Y86.274 E.04813
G1 X85.859 Y85.512 E.03958
G1 X86.259 Y84.663 E.04738
M204 P1250
G1 X86.891 Y84.816 F9000
M204 P800
;TYPE:External perimeter
G1 F1200
G1 X87.199 Y84.407 E.02588
G1 X87.808 Y83.865 E.04113
G1 X88.382 Y83.527 E.03362
G1 X89.15 Y83.26 E.04106
G1 X89.81 Y83.167 E.03364
G1 X90.622 Y83.215 E.04106
G1 X91.265 Y83.381 E.03353
G1 X91.916 Y83.685 E.03625
G1 X92.524 Y84.131 E.03808
G1 X92.978 Y84.618 E.03361
G1 X93.405 Y85.311 E.04106
G1 X93.638 Y85.934 E.03358
G1 X93.768 Y86.738 E.04114
G1 X93.712 Y87.618 E.04448
G1 X93.555 Y88.203 E.0306
G1 X93.2 Y88.935 E.04107
G1 X92.801 Y89.466 E.03353
G1 X92.244 Y89.962 E.03765
G1 X91.618 Y90.346 E.03705
G1 X90.85 Y90.613 E.04106
G1 X90.191 Y90.705 E.03355
G1 X89.378 Y90.658 E.04113
G1 X88.735 Y90.492 E.03355
G1 X88.167 Y90.232 E.03153
G1 X87.476 Y89.741 E.04278
G1 X87.022 Y89.254 E.03362
G1 X86.594 Y88.561 E.04108
G1 X86.362 Y87.939 E.03355
G1 X86.232 Y87.134 E.04114
G1 X86.278 Y86.314 E.04149
G1 X86.445 Y85.67 E.03359
G1 X86.837 Y84.888 E.04414
M204 P1250
G1 X86.651 Y84.363 F9000
G1 E-2.24 F4200
;WIPE_START
G1 F7200
G1 X87.199 Y84.407 E-.33395
G1 X87.808 Y83.865 E-.45158
G1 X88.005 Y83.749 E-.12647
;WIPE_END
G1 E-.048 F4200
G1 Z.4 F720
G1 X109.74 Y78.074 F9000
G1 Z.2 F720
G1 E3.2 F2400
M204 P800
;TYPE:Perimeter
G1 F1200
M73 P3 R30
