; generated by PrusaSlicer 2.6.0-alpha6 on 2023-04-17 at 22:26:41 UTC


;
;

;
;
; 

; external perimeters extrusion width = 0.68mm
; perimeters extrusion width = 0.68mm
; infill extrusion width = 0.68mm
; solid infill extrusion width = 0.68mm
; top infill extrusion width = 0.60mm
; support material extrusion width = 0.55mm
; first layer extrusion width = 0.65mm

M73 P0 R120
M201 X2500 Y2500 Z400 E5000 ; sets maximum accelerations, mm/sec^2
M203 X180 Y180 Z12 E80 ; sets maximum feedrates, mm / sec
M204 P1250 R1250 T2500 ; sets acceleration (P, T) and retract acceleration (R), mm/sec^2
M205 X8.00 Y8.00 Z2.00 E10.00 ; sets the jerk limits, mm/sec
M205 S0 T0 ; sets the minimum extruding and travel feed rate, mm/sec
;TYPE:Custom
M862.3 P "MINI" ; printer model check
G90 ; use absolute coordinates
M83 ; extruder relative mode
M104 S170 ; set extruder temp for bed leveling
M140 S60 ; set bed temp
M109 R170 ; wait for bed leveling temp
M190 S60 ; wait for bed temp
M204 T1250 ; set travel acceleration
G28 ; home all without mesh bed level
G29 ; mesh bed leveling 
M204 T2500 ; restore travel acceleration
M104 S215 ; set extruder temp
G92 E0
G1 Y-2 X179 F2400
G1 Z3 F720
M109 S215 ; wait for extruder temp

; intro line
G1 X170 F1000
G1 Z0.2 F720
G1 X110 E8 F900
G1 X40 E10 F700
G92 E0

M221 S95 ; set flow
G21 ; set units to millimeters
G90 ; use absolute coordinates
M83 ; use relative distances for extrusion
M900 K0.12 ; Filament gcode LA 1.5
; ; Filament gcode LA 1.0
M107
;LAYER_CHANGE
;Z:0.2
;HEIGHT:0.2
;BEFORE_LAYER_CHANGE
G92 E0.0
;0.2


M73 P0 R119
G1 E-3.2 F4200
G1 Z.2 F720
;AFTER_LAYER_CHANGE
;0.2
G1 Z.4
G1 X30.364 Y45.503 F9000
G1 Z.2 F720
G1 E3.2 F2400
M204 P800
;TYPE:Skirt/Brim
;WIDTH:0.65
G1 F1200
G1 X39.008 Y39.735 E.52456
G1 X86.758 Y15.556 E2.70177
G1 X87.575 Y15.269 E.04371
G1 X88.397 Y15.2 E.04164
G1 X89.273 Y15.347 E.04484
G1 X90.146 Y15.725 E.04802
G1 X158.799 Y55.362 E4.00165
G1 X159.4 Y55.781 E.03698
G1 X159.852 Y56.231 E.0322
G1 X160.424 Y57.19 E.05637
G1 X160.585 Y57.736 E.02873
G1 X160.652 Y58.389 E.03314
G1 X160.652 Y100.562 E2.12885
G1 X160.579 Y101.244 E.03462
G1 X160.336 Y101.967 E.0385
G1 X159.679 Y102.912 E.0581
G1 X158.799 Y103.591 E.05611
G1 X53.211 Y164.513 E6.15352
G1 X52.235 Y164.776 E.05102
G1 X51.162 Y164.74 E.05419
G1 X22.097 Y158.542 E1.50016
G1 X21.32 Y158.285 E.04131
G1 X20.502 Y157.748 E.04939
G1 X19.885 Y157.014 E.0484
G1 X19.493 Y156.114 E.04955
G1 X19.349 Y155.101 E.05165
G1 X19.348 Y54.831 E5.06152
G1 X19.427 Y54.027 E.04078
G1 X19.696 Y53.205 E.04366
G1 X20.202 Y52.427 E.04685
G1 X20.847 Y51.854 E.04355
G1 X30.289 Y45.553 E.57301
M204 P1250
; printing object control_panel_right.stl id:0 copy 0
G1 E-2.24 F4200
;WIPE_START
G1 F7200
G1 X31.73 Y44.591 E-.96
;WIPE_END
G1 Z.4 F720
G1 X46.91 Y59.495 F9000
G1 Z.2 F720
G1 E3.2 F2400
M204 P800
;TYPE:Support material
G1 F1200
G1 X47.116 Y59.513 E.01044
G1 X47.422 Y59.574 E.01575
G1 X47.812 Y59.716 E.02095
G1 X48.171 Y59.923 E.02092
G1 X48.336 Y60.05 E.01051
G1 X48.561 Y60.265 E.01571
G1 X48.694 Y60.424 E.01046
G1 X48.867 Y60.683 E.01572
G1 X49.043 Y61.06 E.021
G1 X49.105 Y61.257 E.01043
G1 X49.166 Y61.563 E.01575
G1 X49.184 Y61.977 E.02092
G1 X49.13 Y62.389 E.02098
G1 X49.076 Y62.59 E.01051
G1 X48.963 Y62.88 E.01571
G1 X48.867 Y63.064 E.01048
G1 X48.694 Y63.323 E.01572
G1 X48.414 Y63.629 E.02094
G1 X48.255 Y63.762 E.01046
G1 X47.996 Y63.936 E.01575
G1 X47.62 Y64.111 E.02094
G1 X47.422 Y64.173 E.01047
G1 X47.116 Y64.234 E.01575
G1 X46.702 Y64.252 E.02092
G1 X46.495 Y64.234 E.01049
G1 X46.189 Y64.173 E.01575
G1 X45.799 Y64.031 E.02095
G1 X45.615 Y63.936 E.01045
G1 X45.356 Y63.762 E.01575
G1 X45.05 Y63.482 E.02094
G1 X44.917 Y63.323 E.01046
G1 X44.744 Y63.064 E.01572
G1 X44.568 Y62.688 E.02096
G1 X44.481 Y62.389 E.01572
G1 X44.445 Y62.184 E.01051
G1 X44.427 Y61.77 E.02092
G1 X44.445 Y61.563 E.01049
G1 X44.506 Y61.258 E.0157
G1 X44.648 Y60.867 E.021
G1 X44.744 Y60.683 E.01048
G1 X44.917 Y60.424 E.01572
G1 X45.197 Y60.118 E.02094
G1 X45.44 Y59.924 E.0157
G1 X45.615 Y59.812 E.01049
G1 X45.991 Y59.636 E.02096
G1 X46.392 Y59.529 E.02095
G1 X46.819 Y59.493 E.02163
M204 P1250
G1 X48.179 Y63.472 F9000
M204 P800
G1 F1200
G1 X48.179 Y60.659 E.142
G1 X48.045 Y60.521 E.00971
G1 X47.858 Y60.371 E.0121
G1 X47.504 Y60.178 E.02035
G1 X47.504 Y63.57 E.17122
G1 X47.202 Y63.664 E.01597
G1 X46.83 Y63.707 E.0189
G1 X46.83 Y60.04 E.18511
G1 X46.487 Y60.067 E.01737
G1 X46.155 Y60.159 E.01739
G1 X46.155 Y63.589 E.17314
G1 X45.82 Y63.421 E.01892
G1 X45.627 Y63.279 E.0121
G1 X45.481 Y63.142 E.01011
G1 X45.481 Y60.235 E.14674
M204 P1250
G1 E-2.24 F4200
;WIPE_START
G1 F7200
G1 X45.481 Y61.967 E-.96
;WIPE_END
G1 Z.4 F720
G1 X46.91 Y97.899 F9000
G1 Z.2 F720
G1 E3.2 F2400
M204 P800
G1 F1200
G1 X47.219 Y97.933 E.01569
G1 X47.422 Y97.978 E.0105
G1 X47.812 Y98.12 E.02095
G1 X48.171 Y98.327 E.02092
G1 X48.336 Y98.454 E.01051
G1 X48.561 Y98.669 E.01571
G1 X48.813 Y98.998 E.02092
G1 X48.917 Y99.178 E.01049
G1 X49.043 Y99.463 E.01573
G1 X49.13 Y99.762 E.01572
G1 X49.166 Y99.967 E.01051
G1 X49.184 Y100.381 E.02092
G1 X49.13 Y100.793 E.02098
G1 X49.076 Y100.993 E.01046
G1 X48.963 Y101.284 E.01576
G1 X48.867 Y101.468 E.01048
G1 X48.694 Y101.727 E.01572
G1 X48.414 Y102.033 E.02094
G1 X48.255 Y102.166 E.01046
G1 X47.996 Y102.339 E.01572
G1 X47.62 Y102.515 E.02096
G1 X47.422 Y102.577 E.01047
G1 X47.116 Y102.638 E.01575
G1 X46.702 Y102.656 E.02092
G1 X46.495 Y102.638 E.01049
G1 X46.189 Y102.577 E.01575
G1 X45.799 Y102.435 E.02095
G1 X45.615 Y102.339 E.01048
G1 X45.356 Y102.166 E.01572
G1 X45.05 Y101.886 E.02094
G1 X44.917 Y101.727 E.01046
G1 X44.744 Y101.468 E.01572
G1 X44.568 Y101.092 E.02096
G1 X44.481 Y100.793 E.01572
G1 X44.445 Y100.588 E.01051
G1 X44.427 Y100.174 E.02092
G1 X44.481 Y99.762 E.02098
G1 X44.568 Y99.463 E.01572
G1 X44.648 Y99.271 E.0105
G1 X44.744 Y99.087 E.01048
G1 X44.917 Y98.828 E.01572
G1 X45.197 Y98.522 E.02094
G1 X45.526 Y98.27 E.02092
G1 X45.706 Y98.166 E.01049
G1 X45.991 Y98.04 E.01573
G1 X46.392 Y97.933 E.02095
G1 X46.819 Y97.897 E.02163
M204 P1250
G1 X48.179 Y101.875 F9000
M204 P800
G1 F1200
G1 X48.179 Y99.062 E.142
G1 X48.045 Y98.925 E.00967
G1 X47.857 Y98.775 E.01214
G1 X47.504 Y98.582 E.02031
G1 X47.504 Y101.973 E.17117
G1 X47.202 Y102.068 E.01598
G1 X46.83 Y102.111 E.0189
G1 X46.83 Y98.444 E.18511
G1 X46.487 Y98.471 E.01737
G1 X46.155 Y98.563 E.01739
G1 X46.155 Y101.992 E.17309
G1 X45.82 Y101.825 E.0189
G1 X45.627 Y101.683 E.0121
G1 X45.481 Y101.546 E.01011
G1 X45.481 Y98.639 E.14674
M204 P1250
G1 E-2.24 F4200
;WIPE_START
G1 F7200
G1 X45.481 Y100.371 E-.96
;WIPE_END
G1 Z.4 F720
G1 X46.91 Y136.303 F9000
G1 Z.2 F720
G1 E3.2 F2400
M204 P800
G1 F1200
G1 X47.219 Y136.337 E.01569
G1 X47.422 Y136.382 E.0105
G1 X47.812 Y136.524 E.02095
G1 X48.171 Y136.731 E.02092
G1 X48.336 Y136.858 E.01051
G1 X48.561 Y137.073 E.01571
G1 X48.813 Y137.402 E.02092
G1 X48.917 Y137.582 E.01049
G1 X49.043 Y137.867 E.01573
G1 X49.13 Y138.166 E.01572
G1 X49.166 Y138.371 E.01051
G1 X49.184 Y138.785 E.02092
G1 X49.13 Y139.197 E.02098
G1 X49.076 Y139.397 E.01046
G1 X48.963 Y139.687 E.01571
G1 X48.867 Y139.872 E.01052
G1 X48.694 Y140.131 E.01572
G1 X48.414 Y140.437 E.02094
G1 X48.085 Y140.689 E.02092
G1 X47.812 Y140.839 E.01572
G1 X47.62 Y140.918 E.01048
G1 X47.422 Y140.981 E.01049
G1 X47.116 Y141.042 E.01575
G1 X46.702 Y141.06 E.02092
G1 X46.495 Y141.042 E.01049
G1 X46.189 Y140.981 E.01575
G1 X45.799 Y140.839 E.02095
G1 X45.526 Y140.689 E.01572
G1 X45.356 Y140.57 E.01047
G1 X45.05 Y140.29 E.02094
G1 X44.917 Y140.131 E.01046
G1 X44.744 Y139.872 E.01572
G1 X44.568 Y139.495 E.021
G1 X44.481 Y139.197 E.01567
G1 X44.445 Y138.992 E.01051
G1 X44.427 Y138.577 E.02097
G1 X44.481 Y138.166 E.02093
G1 X44.568 Y137.867 E.01572
G1 X44.648 Y137.675 E.0105
G1 X44.744 Y137.491 E.01048
G1 X44.917 Y137.232 E.01572
G1 X45.197 Y136.926 E.02094
G1 X45.526 Y136.673 E.02095
G1 X45.706 Y136.57 E.01047
G1 X45.991 Y136.444 E.01573
G1 X46.392 Y136.337 E.02095
G1 X46.819 Y136.301 E.02163
M204 P1250
G1 X48.179 Y140.279 F9000
M204 P800
G1 F1200
G1 X48.179 Y137.466 E.142
G1 X48.045 Y137.329 E.00967
G1 X47.857 Y137.179 E.01214
G1 X47.504 Y136.985 E.02033
G1 X47.504 Y140.377 E.17122
G1 X47.202 Y140.472 E.01598
G1 X46.83 Y140.515 E.0189
G1 X46.83 Y136.848 E.18511
G1 X46.487 Y136.875 E.01737
G1 X46.155 Y136.966 E.01738
G1 X46.155 Y140.396 E.17314
G1 X45.82 Y140.228 E.01892
G1 X45.627 Y140.087 E.01207
G1 X45.481 Y139.95 E.01011
G1 X45.481 Y137.043 E.14674
M204 P1250
G1 E-2.24 F4200
;WIPE_START
G1 F7200
G1 X45.481 Y138.775 E-.96
;WIPE_END
G1 Z.4 F720
G1 X63.849 Y151.141 F9000
G1 Z.2 F720
G1 E3.2 F2400
M204 P800
;TYPE:Perimeter
;WIDTH:0.694496
G1 F1200
G1 X63.809 Y151.196 E.00368
;WIDTH:0.738992
G1 X63.719 Y151.32 E.00887
;WIDTH:0.783488
G1 X63.628 Y151.444 E.00947
;WIDTH:0.827984
G1 X63.538 Y151.567 E.00995
;WIDTH:0.87248
G1 X63.448 Y151.691 E.01057
;WIDTH:0.900606
G1 X63.42 Y151.735 E.00372
;WIDTH:0.928731
G1 X63.392 Y151.778 E.00378
G1 X62.749 Y152.184 E.05601
;WIDTH:0.937283
G1 X62.217 Y152.441 E.04394
G1 X62.129 Y152.444 E.00655
;WIDTH:0.889403
G1 X62.041 Y152.446 E.0062
;WIDTH:0.841522
G1 X61.953 Y152.449 E.00585
;WIDTH:0.793641
G1 X61.865 Y152.451 E.00549
;WIDTH:0.745761
G1 X61.777 Y152.454 E.00515
;WIDTH:0.69788
G1 X61.688 Y152.456 E.00485
;WIDTH:0.649999
G1 X61.175 Y152.538 E.02622
G1 X60.296 Y152.53 E.04437
G1 X59.561 Y152.376 E.03791
G1 X58.796 Y152.044 E.0421
G1 X58.179 Y151.622 E.03773
G1 X57.598 Y151.022 E.04216
G1 X57.187 Y150.392 E.03797
G1 X56.916 Y149.742 E.03555
G1 X56.812 Y149.338 E.02106
G1 X56.726 Y148.691 E.03295
G1 X56.75 Y148.126 E.02855
G1 X56.823 Y147.635 E.02506
G1 X56.994 Y147.061 E.03023
G1 X57.241 Y146.547 E.02879
G1 X57.666 Y145.926 E.03799
G1 X57.951 Y145.622 E.02103
G1 X58.339 Y145.284 E.02598
G1 X58.894 Y144.936 E.03307
G1 X59.544 Y144.665 E.03555
G1 X60.286 Y144.509 E.03827
G1 X60.777 Y144.475 E.02484
G1 X61.302 Y144.507 E.02655
G1 X61.93 Y144.648 E.03249
G1 X62.323 Y144.786 E.02103
G1 X62.841 Y145.043 E.02919
G1 X63.323 Y145.387 E.02989
G1 X63.664 Y145.7 E.02337
G1 X64.063 Y146.168 E.03104
G1 X64.35 Y146.643 E.02801
G1 X64.621 Y147.294 E.0356
G1 X64.788 Y148.11 E.04204
G1 X64.796 Y148.861 E.03791
G1 X64.638 Y149.68 E.0421
G1 X64.358 Y150.376 E.03787
G1 X63.901 Y151.068 E.04186
M204 P1250
G1 X63.244 Y150.879 F9000
M204 P800
G1 F1200
G1 X62.963 Y151.161 E.0201
G1 X62.368 Y151.557 E.03608
G1 X61.785 Y151.8 E.03188
G1 X61.568 Y151.861 E.01138
G1 X60.753 Y151.952 E.0414
G1 X60.042 Y151.876 E.03609
G1 X59.44 Y151.685 E.03188
G1 X58.813 Y151.343 E.03605
G1 X58.331 Y150.937 E.03181
G1 X57.965 Y150.51 E.02839
G1 X57.601 Y149.849 E.03809
G1 X57.412 Y149.246 E.0319
G1 X57.332 Y148.666 E.02955
G1 X57.356 Y148.165 E.02532
G1 X57.41 Y147.792 E.01902
G1 X57.556 Y147.29 E.02639
G1 X57.786 Y146.815 E.02664
G1 X58.148 Y146.295 E.03198
G1 X58.665 Y145.803 E.03603
G1 X59.198 Y145.462 E.03194
G1 X59.752 Y145.235 E.03022
G1 X60.378 Y145.109 E.03223
G1 X60.75 Y145.082 E.01883
G1 X61.265 Y145.115 E.02605
G1 X61.786 Y145.238 E.02702
G1 X62.37 Y145.478 E.03187
G1 X62.964 Y145.877 E.03612
G1 X63.483 Y146.415 E.03773
G1 X63.824 Y146.947 E.0319
G1 X64.051 Y147.501 E.03022
G1 X64.188 Y148.203 E.0361
G1 X64.19 Y148.835 E.0319
G1 X64.048 Y149.535 E.03605
G1 X63.808 Y150.12 E.03192
G1 X63.409 Y150.713 E.03608
G1 X63.308 Y150.815 E.00725
M204 P1250
G1 X62.857 Y150.414 F9000
M204 P800
G1 F1200
G1 X62.8 Y150.487 E.00468
G1 X62.41 Y150.821 E.02592
G1 X61.892 Y151.115 E.03007
G1 X61.447 Y151.266 E.02372
G1 X60.793 Y151.346 E.03326
G1 X60.199 Y151.29 E.03012
G1 X59.708 Y151.14 E.02592
G1 X59.182 Y150.861 E.03006
G1 X58.787 Y150.537 E.02579
G1 X58.457 Y150.154 E.02552
G1 X58.171 Y149.641 E.02965
G1 X58.012 Y149.153 E.02591
G1 X57.939 Y148.64 E.02616
G1 X57.967 Y148.125 E.02603
G1 X58.082 Y147.627 E.0258
G1 X58.33 Y147.083 E.03018
G1 X58.629 Y146.665 E.02594
G1 X59.065 Y146.259 E.03007
G1 X59.501 Y145.987 E.02594
G1 X59.974 Y145.801 E.02566
G1 X60.47 Y145.71 E.02546
G1 X61.059 Y145.703 E.02973
G1 X61.642 Y145.827 E.03009
G1 X62.114 Y146.028 E.0259
G1 X62.605 Y146.367 E.03012
G1 X63.027 Y146.815 E.03107
G1 X63.298 Y147.25 E.02587
G1 X63.525 Y147.882 E.0339
G1 X63.598 Y148.473 E.03006
G1 X63.558 Y148.985 E.02592
G1 X63.4 Y149.559 E.03005
G1 X63.167 Y150.017 E.02594
G1 X62.913 Y150.343 E.02086
M204 P1250
G1 X62.324 Y150.099 F9000
M204 P800
;TYPE:External perimeter
G1 F1200
G1 X62.095 Y150.302 E.01545
G1 X61.545 Y150.595 E.03146
G1 X61.326 Y150.671 E.0117
G1 X60.832 Y150.74 E.02518
G1 X60.356 Y150.703 E.0241
G1 X59.977 Y150.596 E.01988
G1 X59.551 Y150.379 E.02413
G1 X59.244 Y150.136 E.01976
G1 X58.932 Y149.772 E.0242
G1 X58.742 Y149.434 E.01957
G1 X58.612 Y149.061 E.01994
G1 X58.549 Y148.536 E.02669
G1 X58.583 Y148.106 E.02177
G1 X58.69 Y147.728 E.01983
G1 X58.907 Y147.301 E.02418
G1 X59.152 Y146.991 E.01995
G1 X59.514 Y146.681 E.02406
G1 X59.852 Y146.491 E.01957
G1 X60.225 Y146.361 E.01994
G1 X60.697 Y146.295 E.02406
G1 X61.091 Y146.318 E.01992
G1 X61.553 Y146.437 E.02408
G1 X61.909 Y146.609 E.01996
G1 X62.295 Y146.901 E.02443
G1 X62.605 Y147.264 E.0241
G1 X62.795 Y147.602 E.01957
G1 X62.925 Y147.974 E.01989
G1 X62.991 Y148.447 E.02411
G1 X62.968 Y148.841 E.01992
G1 X62.849 Y149.303 E.02408
G1 X62.677 Y149.658 E.01991
G1 X62.391 Y150.039 E.02405
M204 P1250
G1 X62.411 Y150.392 F9000
G1 E-2.24 F4200
;WIPE_START
G1 F7200
G1 X62.095 Y150.302 E-.21943
G1 X61.545 Y150.595 E-.34534
G1 X61.326 Y150.671 E-.12846
G1 X60.849 Y150.738 E-.26677
;WIPE_END
G1 Z.4 F720
G1 X35.749 Y123.828 F9000
G1 Z.2 F720
G1 E3.2 F2400
M204 P800
;TYPE:Perimeter
G1 F1200
G1 X36.41 Y123.865 E.03342
G1 X36.827 Y123.842 E.02108
G1 X37.437 Y123.723 E.03137
G1 X38.156 Y123.463 E.03859
G1 X38.748 Y123.133 E.03421
G1 X39.242 Y122.742 E.0318
G1 X39.598 Y122.379 E.02567
G1 X39.959 Y121.908 E.02996
G1 X40.218 Y121.47 E.02569
G1 X40.536 Y120.667 E.0436
G1 X40.659 Y120.059 E.03131
G1 X40.694 Y119.294 E.03866
G1 X40.595 Y118.534 E.03869
G1 X40.444 Y118.015 E.02728
G1 X40.267 Y117.588 E.02333
G1 X39.864 Y116.899 E.04029
G1 X39.54 Y116.507 E.02567
G1 X39.242 Y116.216 E.02103
G1 X38.748 Y115.825 E.0318
G1 X38.289 Y115.575 E.02638
G1 X37.617 Y115.283 E.03699
G1 X37.058 Y115.148 E.02903
G1 X36.479 Y115.091 E.02937
G1 X35.749 Y115.124 E.03689
G1 X35.744 Y113.721 E.07082
G1 X35.663 Y113.301 E.02159
G1 X35.438 Y112.797 E.02786
G1 X35.066 Y112.344 E.02959
G1 X34.717 Y112.084 E.02197
G1 X34.197 Y111.861 E.02856
G1 X33.627 Y111.783 E.02904
G1 X24.302 Y111.783 E.47072
G1 X24.302 Y92.749 E.96081
G1 X24.637 Y92.68 E.01727
G1 X25.627 Y92.392 E.05205
G1 X26.59 Y92.02 E.05211
G1 X27.516 Y91.567 E.05204
G1 X28.437 Y91.008 E.05438
G1 X29.632 Y90.099 E.07579
G1 X30.396 Y89.374 E.05317
G1 X31.177 Y88.473 E.06019
G1 X31.683 Y87.791 E.04287
G1 X32.246 Y86.873 E.05436
G1 X32.843 Y85.646 E.06888
G1 X33.211 Y84.63 E.05455
G1 X33.495 Y83.529 E.0574
G1 X33.665 Y82.483 E.05349
G1 X33.75 Y80.984 E.07579
G1 X33.697 Y79.953 E.05211
G1 X33.546 Y78.887 E.05435
G1 X33.217 Y77.543 E.06985
G1 X33.022 Y76.992 E.0295
G1 X32.804 Y76.422 E.03081
G1 X32.135 Y75.078 E.07578
G1 X31.579 Y74.209 E.05208
G1 X30.95 Y73.391 E.05209
G1 X30.253 Y72.631 E.05205
G1 X29.456 Y71.905 E.05442
G1 X28.247 Y71.016 E.07575
G1 X27.354 Y70.498 E.05211
G1 X26.421 Y70.059 E.05205
G1 X25.453 Y69.701 E.0521
G1 X24.302 Y69.399 E.06007
G1 X24.302 Y56.029 E.6749
G1 X25.216 Y55.87 E.04683
G1 X25.919 Y55.71 E.03639
G1 X26.632 Y55.517 E.03729
G1 X27.355 Y55.289 E.03827
G1 X28.092 Y55.025 E.03952
G1 X28.846 Y54.719 E.04108
G1 X29.618 Y54.37 E.04277
G1 X31.231 Y53.518 E.09208
G1 X32.27 Y52.879 E.06157
G1 X33.245 Y52.218 E.05946
G1 X33.883 Y51.759 E.03967
G1 X34.849 Y51.006 E.06183
G1 X35.866 Y50.148 E.06717
G1 X36.942 Y49.165 E.07357
G1 X38.087 Y48.037 E.08113
G1 X39.31 Y46.734 E.09021
G1 X40.574 Y45.283 E.09714
G1 X41.438 Y44.221 E.06911
G1 X72.713 Y44.221 E1.57873
G1 X73.587 Y44.205 E.04413
G1 X74.21 Y44.108 E.03183
G1 X74.71 Y43.925 E.02688
G1 X75.105 Y43.718 E.02251
G1 X75.523 Y43.403 E.02642
G1 X75.878 Y43.034 E.02585
G1 X76.223 Y42.549 E.03004
G1 X88.842 Y20.692 E1.274
G1 X98.483 Y26.258 E.56195
;WIDTH:0.697531
