; generated by PrusaSlicer 2.5.0 on 2023-01-28 at 15:25:30 UTC


;
;

;
;
; 

; external perimeters extrusion width = 0.68mm
; perimeters extrusion width = 0.68mm
; infill extrusion width = 0.68mm
; solid infill extrusion width = 0.68mm
; top infill extrusion width = 0.60mm
; support material extrusion width = 0.55mm
; first layer extrusion width = 0.65mm

M73 P0 R29
M201 X2500 Y2500 Z400 E5000 ; sets maximum accelerations, mm/sec^2
M203 X180 Y180 Z12 E80 ; sets maximum feedrates, mm / sec
M204 P1250 R1250 T2500 ; sets acceleration (P, T) and retract acceleration (R), mm/sec^2
M205 X8.00 Y8.00 Z2.00 E10.00 ; sets the jerk limits, mm/sec
M205 S0 T0 ; sets the minimum extruding and travel feed rate, mm/sec
M107
;TYPE:Custom
M862.3 P "MINI" ; printer model check
G90 ; use absolute coordinates
M83 ; extruder relative mode
M104 S170 ; set extruder temp for bed leveling
M140 S60 ; set bed temp
M109 R170 ; wait for bed leveling temp
M190 S60 ; wait for bed temp
M204 T1250 ; set travel acceleration
G28 ; home all without mesh bed level
G29 ; mesh bed leveling 
M204 T2500 ; restore travel acceleration
M104 S215 ; set extruder temp
G92 E0
G1 Y-2 X179 F2400
G1 Z3 F720
M109 S215 ; wait for extruder temp

; intro line
G1 X170 F1000
G1 Z0.2 F720
G1 X110 E8 F900
G1 X40 E10 F700
G92 E0

M221 S95 ; set flow
G21 ; set units to millimeters
G90 ; use absolute coordinates
M83 ; use relative distances for extrusion
M900 K0.12 ; Filament gcode LA 1.5
; ; Filament gcode LA 1.0
M107
;LAYER_CHANGE
;Z:0.2
;HEIGHT:0.2
;BEFORE_LAYER_CHANGE
G92 E0.0
;0.2


G1 E-3.2 F4200
G1 Z.2 F720
;AFTER_LAYER_CHANGE
;0.2
G1 Z.4
G1 X69.418 Y75.524 F9000
G1 Z.2 F720
G1 E3.2 F2400
M204 P800
;TYPE:Skirt/Brim
;WIDTH:0.65
G1 F1200
G1 X77.861 Y67.764 E.57887
G1 X79.625 Y67.076 E.09558
G1 X97.889 Y67.076 E.92192
G1 X99.521 Y67.65 E.08731
M73 P1 R29
G1 X119.19 Y83.437 E1.27315
G1 X119.872 Y84.226 E.05264
G1 X120.298 Y85.228 E.05494
G1 X120.388 Y85.867 E.03256
G1 X120.357 Y86.499 E.03198
G1 X120.213 Y87.115 E.03192
G1 X119.919 Y87.796 E.03748
G1 X108.698 Y107.213 E1.132
G1 X108.131 Y107.863 E.04354
G1 X107.445 Y108.346 E.04236
G1 X106.732 Y108.632 E.03875
G1 X105.853 Y108.765 E.04488
G1 X74.239 Y108.767 E1.59586
G1 X73.145 Y108.595 E.05587
G1 X72.238 Y108.153 E.05093
G1 X71.651 Y107.649 E.03907
G1 X71.172 Y107.008 E.04038
G1 X60.035 Y87.709 E1.12479
G1 X59.689 Y86.752 E.05136
G1 X59.611 Y85.903 E.04306
G1 X59.77 Y84.989 E.04681
G1 X60.158 Y84.181 E.04525
G1 X60.71 Y83.528 E.04315
G1 X69.352 Y75.585 E.59253
M204 P1250
; printing object corner_block.stl id:0 copy 0
G1 E-2.24 F4200
;WIPE_START
G1 F7200
G1 X70.564 Y74.471 E-.912
;WIPE_END
G1 E-.048 F4200
G1 Z.4 F720
G1 X72.248 Y86.101 F9000
G1 Z.2 F720
G1 E3.2 F2400
M204 P800
;TYPE:Support material
G1 F1200
G1 X72.659 Y86.155 E.02095
G1 X72.86 Y86.208 E.01049
G1 X73.15 Y86.321 E.01571
G1 X73.509 Y86.529 E.02095
G1 X73.674 Y86.655 E.01049
G1 X73.899 Y86.871 E.01571
G1 X74.152 Y87.2 E.02095
G1 X74.302 Y87.473 E.01574
G1 X74.381 Y87.665 E.01046
G1 X74.444 Y87.863 E.01049
G1 X74.504 Y88.168 E.01572
G1 X74.523 Y88.583 E.02095
G1 X74.504 Y88.79 E.01049
G1 X74.444 Y89.095 E.01572
G1 X74.302 Y89.485 E.02094
G1 X74.152 Y89.758 E.01573
G1 X74.033 Y89.928 E.01049
G1 X73.753 Y90.234 E.02093
G1 X73.593 Y90.368 E.0105
G1 X73.334 Y90.541 E.01571
G1 X72.958 Y90.716 E.02096
G1 X72.659 Y90.803 E.01572
G1 X72.455 Y90.839 E.01048
G1 X72.04 Y90.858 E.02095
G1 X71.629 Y90.803 E.02095
G1 X71.428 Y90.75 E.01049
G1 X71.138 Y90.637 E.01571
G1 X70.865 Y90.487 E.01572
G1 X70.695 Y90.368 E.01048
G1 X70.389 Y90.087 E.02096
G1 X70.136 Y89.758 E.02094
G1 X70.032 Y89.578 E.01048
G1 X69.907 Y89.294 E.01571
G1 X69.799 Y88.893 E.02096
G1 X69.772 Y88.687 E.01049
G1 X69.765 Y88.375 E.01573
G1 X69.799 Y88.065 E.01572
G1 X69.844 Y87.863 E.01047
G1 X69.986 Y87.473 E.02094
G1 X70.194 Y87.114 E.02095
G1 X70.32 Y86.949 E.0105
G1 X70.536 Y86.724 E.01572
G1 X70.865 Y86.471 E.02094
G1 X71.138 Y86.321 E.01573
G1 X71.33 Y86.242 E.01048
G1 X71.731 Y86.134 E.02095
G1 X72.157 Y86.099 E.02159
M204 P1250
G1 X73.811 Y89.768 F9000
M204 P800
G1 F1200
G1 X73.811 Y87.715 E.10365
G1 X73.691 Y87.493 E.01272
G1 X73.549 Y87.3 E.0121
G1 X73.383 Y87.127 E.01211
G1 X73.137 Y86.937 E.01572
G1 X73.137 Y90.021 E.1557
G1 X72.846 Y90.174 E.01657
G1 X72.462 Y90.286 E.02018
G1 X72.462 Y86.673 E.18238
G1 X72.144 Y86.645 E.01612
G1 X71.788 Y86.68 E.01808
G1 X71.788 Y90.278 E.18161
G1 X71.442 Y90.174 E.01823
G1 X71.113 Y89.996 E.01887
G1 X71.113 Y86.962 E.15313
G1 X70.905 Y87.127 E.01339
G1 X70.689 Y87.362 E.01614
G1 X70.556 Y87.562 E.0121
G1 X70.439 Y87.805 E.01361
G1 X70.439 Y89.717 E.09651
M204 P1250
G1 E-2.24 F4200
;WIPE_START
G1 F7200
G1 X70.439 Y88.071 E-.912
;WIPE_END
G1 E-.048 F4200
G1 Z.4 F720
G1 X90.104 Y96.282 F9000
G1 Z.2 F720
G1 E3.2 F2400
M204 P800
G1 F1200
G1 X90.31 Y96.3 E.01046
G1 X90.616 Y96.361 E.01573
G1 X91.006 Y96.503 E.02095
G1 X91.366 Y96.71 E.02095
G1 X91.608 Y96.905 E.01571
G1 X91.755 Y97.052 E.01049
G1 X91.889 Y97.211 E.01048
G1 X92.062 Y97.47 E.01573
G1 X92.237 Y97.846 E.02094
G1 X92.345 Y98.247 E.02095
G1 X92.379 Y98.556 E.01572
G1 X92.379 Y98.764 E.01048
G1 X92.324 Y99.176 E.02095
G1 X92.271 Y99.376 E.01049
G1 X92.158 Y99.666 E.01572
G1 X92.062 Y99.851 E.01048
G1 X91.889 Y100.11 E.01572
G1 X91.609 Y100.415 E.02094
G1 X91.449 Y100.549 E.01049
G1 X91.19 Y100.722 E.01573
G1 X90.814 Y100.898 E.02095
G1 X90.616 Y100.96 E.01047
G1 X90.311 Y101.021 E.01573
G1 X89.896 Y101.039 E.02095
G1 X89.689 Y101.021 E.01049
G1 X89.384 Y100.96 E.01573
G1 X88.994 Y100.818 E.02094
G1 X88.81 Y100.722 E.01048
G1 X88.551 Y100.549 E.01573
G1 X88.245 Y100.269 E.02094
G1 X88.111 Y100.11 E.01049
G1 X87.938 Y99.851 E.01572
G1 X87.763 Y99.474 E.02095
G1 X87.7 Y99.276 E.01048
G1 X87.64 Y98.971 E.01572
G1 X87.621 Y98.556 E.02095
G1 X87.655 Y98.247 E.01572
G1 X87.7 Y98.044 E.01049
G1 X87.842 Y97.654 E.02095
G1 X87.938 Y97.47 E.01048
G1 X88.111 Y97.211 E.01573
G1 X88.392 Y96.905 E.02095
G1 X88.634 Y96.71 E.01571
G1 X88.81 Y96.598 E.01049
G1 X89.186 Y96.423 E.02095
G1 X89.586 Y96.316 E.02094
G1 X90.013 Y96.28 E.02161
M204 P1250
G1 X91.349 Y100.279 F9000
M204 P800
G1 F1200
G1 X91.349 Y97.418 E.14445
G1 X91.052 Y97.158 E.01991
G1 X90.847 Y97.033 E.01211
G1 X90.675 Y96.955 E.00956
G1 X90.675 Y100.366 E.17217
G1 X90.318 Y100.467 E.0187
G1 X90 Y100.495 E.01612
G1 X90 Y96.826 E.18519
G1 X89.681 Y96.854 E.01615
G1 X89.325 Y96.955 E.01867
G1 X89.325 Y100.366 E.17217
G1 X89.153 Y100.287 E.00957
G1 X88.948 Y100.163 E.01211
G1 X88.651 Y99.903 E.01991
G1 X88.651 Y97.041 E.14445
M204 P1250
G1 E-2.24 F4200
;WIPE_START
G1 F7200
G1 X88.651 Y98.687 E-.912
;WIPE_END
G1 E-.048 F4200
G1 Z.4 F720
G1 X90.104 Y78.961 F9000
G1 Z.2 F720
G1 E3.2 F2400
M204 P800
G1 F1200
G1 X90.515 Y79.015 E.02093
G1 X90.716 Y79.069 E.01052
G1 X91.006 Y79.182 E.0157
G1 X91.191 Y79.278 E.01055
G1 X91.449 Y79.451 E.01568
G1 X91.756 Y79.732 E.021
G1 X91.95 Y79.974 E.01565
G1 X92.062 Y80.15 E.01051
G1 X92.237 Y80.525 E.02092
G1 X92.345 Y80.926 E.02094
G1 X92.379 Y81.236 E.01572
G1 X92.379 Y81.443 E.01049
G1 X92.345 Y81.753 E.01572
G1 X92.3 Y81.956 E.01048
G1 X92.158 Y82.346 E.02097
G1 X91.95 Y82.706 E.02101
G1 X91.754 Y82.949 E.01572
G1 X91.607 Y83.096 E.0105
G1 X91.365 Y83.29 E.01567
G1 X91.19 Y83.402 E.01048
G1 X90.814 Y83.577 E.02095
G1 X90.413 Y83.684 E.02095
G1 X90.207 Y83.712 E.01048
G1 X89.896 Y83.718 E.01568
G1 X89.587 Y83.684 E.01572
G1 X89.384 Y83.639 E.01049
G1 X88.994 Y83.498 E.02095
G1 X88.81 Y83.402 E.01049
G1 X88.551 Y83.229 E.01571
G1 X88.244 Y82.947 E.02103
G1 X88.11 Y82.788 E.01048
G1 X87.938 Y82.53 E.01567
G1 X87.763 Y82.154 E.02093
G1 X87.655 Y81.753 E.02094
G1 X87.628 Y81.547 E.0105
G1 X87.622 Y81.235 E.01576
G1 X87.655 Y80.927 E.01566
G1 X87.7 Y80.724 E.01048
G1 X87.842 Y80.334 E.02096
G1 X87.992 Y80.061 E.0157
G1 X88.111 Y79.891 E.01048
G1 X88.392 Y79.584 E.02098
G1 X88.721 Y79.332 E.02094
G1 X88.994 Y79.182 E.01571
G1 X89.186 Y79.103 E.01049
G1 X89.587 Y78.995 E.02096
G1 X90.013 Y78.959 E.02159
M204 P1250
G1 X91.349 Y82.959 F9000
M204 P800
G1 F1200
G1 X91.349 Y80.097 E.14445
G1 X91.052 Y79.837 E.01992
G1 X90.847 Y79.713 E.01211
G1 X90.675 Y79.634 E.00956
G1 X90.675 Y83.045 E.17217
G1 X90.318 Y83.146 E.01871
G1 X90 Y83.174 E.01611
G1 X90 Y79.505 E.18519
G1 X89.682 Y79.533 E.01614
G1 X89.325 Y79.634 E.01869
G1 X89.325 Y83.045 E.17217
G1 X89.153 Y82.967 E.00955
G1 X88.948 Y82.842 E.01211
G1 X88.651 Y82.582 E.01993
G1 X88.651 Y79.721 E.14445
M204 P1250
G1 E-2.24 F4200
;WIPE_START
G1 F7200
G1 X88.651 Y81.366 E-.912
;WIPE_END
G1 E-.048 F4200
G1 Z.4 F720
G1 X97.889 Y73.09 F9000
G1 Z.2 F720
G1 E3.2 F2400
M204 P800
G1 F1200
G1 X97.58 Y73.003 E.01617
G1 X97.241 Y72.971 E.01721
G1 X82.62 Y72.976 E.73806
G1 X82.297 Y73.031 E.01655
G1 X81.94 Y73.164 E.01923
G1 X79.625 Y74.496 E.13479
G1 X79.625 Y69.683 E.24295
G1 X97.889 Y69.683 E.92192
G1 X97.889 Y72.998 E.16736
M204 P1250
G1 X96.745 Y72.698 F9000
M204 P800
G1 F1200
G1 X96.745 Y70.229 E.12459
G1 X96.071 Y70.229 E.03405
G1 X96.071 Y72.424 E.1108
G1 X95.396 Y72.424 E.03405
G1 X95.396 Y70.229 E.1108
G1 X94.722 Y70.229 E.03405
G1 X94.722 Y72.424 E.1108
G1 X94.047 Y72.424 E.03405
G1 X94.047 Y70.229 E.1108
G1 X93.373 Y70.229 E.03405
G1 X93.373 Y72.424 E.1108
G1 X92.698 Y72.424 E.03405
G1 X92.698 Y70.229 E.1108
G1 X92.024 Y70.229 E.03405
G1 X92.024 Y72.424 E.1108
G1 X91.349 Y72.424 E.03405
M73 P2 R29
G1 X91.349 Y70.229 E.1108
G1 X90.675 Y70.229 E.03405
G1 X90.675 Y72.424 E.1108
G1 X90 Y72.424 E.03405
G1 X90 Y70.229 E.1108
G1 X89.325 Y70.229 E.03405
G1 X89.325 Y72.424 E.1108
G1 X88.651 Y72.424 E.03405
G1 X88.651 Y70.229 E.1108
G1 X87.976 Y70.229 E.03405
G1 X87.976 Y72.424 E.1108
G1 X87.302 Y72.424 E.03405
G1 X87.302 Y70.229 E.1108
G1 X86.627 Y70.229 E.03405
G1 X86.627 Y72.424 E.1108
G1 X85.953 Y72.424 E.03405
G1 X85.953 Y70.229 E.1108
G1 X85.278 Y70.229 E.03405
G1 X85.278 Y72.424 E.1108
G1 X84.604 Y72.424 E.03405
G1 X84.604 Y70.229 E.1108
G1 X83.929 Y70.229 E.03405
G1 X83.929 Y72.424 E.1108
G1 X83.255 Y72.424 E.03405
G1 X83.255 Y70.229 E.1108
G1 X82.58 Y70.229 E.03405
G1 X82.58 Y72.432 E.11116
G1 X82.253 Y72.479 E.01671
G1 X81.906 Y72.583 E.01828
G1 X81.906 Y70.229 E.11882
G1 X81.231 Y70.229 E.03405
G1 X81.231 Y72.938 E.13673
G1 X80.557 Y73.327 E.03932
G1 X80.557 Y69.956 E.17018
M204 P1250
G1 E-2.24 F4200
;WIPE_START
G1 F7200
G1 X80.557 Y71.602 E-.912
;WIPE_END
G1 E-.048 F4200
G1 Z.4 F720
G1 X107.96 Y86.101 F9000
G1 Z.2 F720
G1 E3.2 F2400
M204 P800
G1 F1200
G1 X108.371 Y86.155 E.02095
G1 X108.67 Y86.242 E.01572
G1 X108.862 Y86.321 E.01048
G1 X109.222 Y86.529 E.02095
G1 X109.464 Y86.724 E.01572
G1 X109.611 Y86.871 E.0105
G1 X109.864 Y87.2 E.02094
G1 X109.968 Y87.38 E.01048
G1 X110.093 Y87.665 E.01571
G1 X110.201 Y88.066 E.02096
G1 X110.228 Y88.271 E.01048
G1 X110.235 Y88.583 E.01573
G1 X110.201 Y88.893 E.01571
G1 X110.156 Y89.095 E.01048
G1 X110.014 Y89.485 E.02094
G1 X109.806 Y89.845 E.02095
G1 X109.68 Y90.01 E.0105
G1 X109.465 Y90.234 E.01571
G1 X109.135 Y90.487 E.02095
G1 X108.862 Y90.637 E.01572
G1 X108.67 Y90.716 E.01049
G1 X108.371 Y90.803 E.01572
G1 X108.167 Y90.839 E.01048
G1 X107.752 Y90.858 E.02095
G1 X107.341 Y90.803 E.02095
G1 X107.14 Y90.75 E.0105
G1 X106.85 Y90.637 E.01571
G1 X106.666 Y90.541 E.01048
G1 X106.407 Y90.368 E.01572
G1 X106.101 Y90.088 E.02095
G1 X105.848 Y89.758 E.02095
G1 X105.698 Y89.485 E.01573
G1 X105.619 Y89.294 E.01047
G1 X105.556 Y89.095 E.01049
G1 X105.496 Y88.79 E.01572
G1 X105.477 Y88.375 E.02094
G1 X105.532 Y87.964 E.02095
G1 X105.619 Y87.665 E.01573
G1 X105.698 Y87.473 E.01046
G1 X105.848 Y87.2 E.01574
G1 X105.967 Y87.03 E.01048
G1 X106.248 Y86.724 E.02094
G1 X106.491 Y86.529 E.01573
G1 X106.666 Y86.417 E.01047
G1 X107.042 Y86.242 E.02096
G1 X107.443 Y86.134 E.02095
G1 X107.869 Y86.099 E.02159
M204 P1250
G1 X109.561 Y89.717 F9000
M204 P800
G1 F1200
G1 X109.561 Y87.805 E.09651
G1 X109.444 Y87.562 E.01361
G1 X109.311 Y87.362 E.0121
G1 X109.095 Y87.127 E.01614
G1 X108.887 Y86.962 E.01339
G1 X108.887 Y89.996 E.15313
G1 X108.558 Y90.174 E.01887
G1 X108.212 Y90.278 E.01823
G1 X108.212 Y86.68 E.18161
G1 X107.856 Y86.645 E.01808
G1 X107.538 Y86.673 E.01612
G1 X107.538 Y90.286 E.18238
G1 X107.154 Y90.174 E.02018
G1 X106.863 Y90.021 E.01657
G1 X106.863 Y86.937 E.1557
G1 X106.617 Y87.127 E.01572
G1 X106.451 Y87.3 E.01211
G1 X106.309 Y87.493 E.01209
G1 X106.189 Y87.715 E.01272
G1 X106.189 Y89.768 E.10365
M204 P1250
G1 E-2.24 F4200
;WIPE_START
G1 F7200
G1 X106.189 Y88.122 E-.912
;WIPE_END
G1 E-.048 F4200
G1 Z.4 F720
G1 X63.446 Y86.148 F9000
G1 Z.2 F720
M73 P2 R28
G1 E3.2 F2400
M204 P800
;TYPE:Perimeter
;WIDTH:0.649999
G1 F1200
G1 X82.126 Y75.363 E1.08885
G1 X82.845 Y74.972 E.04131
G1 X97.048 Y74.972 E.71696
G1 X97.266 Y75.012 E.01119
G1 X116.555 Y86.148 E1.12427
G1 X105.66 Y105.009 E1.09951
G1 X105.632 Y105.028 E.00172
G1 X74.346 Y105.028 E1.57929
G1 X63.491 Y86.226 E1.09593
M204 P1250
G1 X62.754 Y85.957 F9000
M204 P800
;TYPE:External perimeter
G1 F1200
G1 X63.052 Y85.674 E.02076
G1 X82.494 Y74.449 E1.13325
G1 X82.796 Y74.365 E.01583
G1 X97.211 Y74.365 E.72762
G1 X97.505 Y74.449 E.01545
G1 X116.92 Y85.658 E1.13169
G1 X117.172 Y85.844 E.01578
G1 X117.244 Y86.035 E.01031
G1 X117.135 Y86.358 E.01719
G1 X106.159 Y105.361 E1.10776
G1 X105.95 Y105.581 E.01532
G1 X105.696 Y105.635 E.01313
G1 X74.332 Y105.635 E1.58321
G1 X74.123 Y105.612 E.01063
M73 P3 R28
G1 X74.017 Y105.544 E.00634
G1 X73.849 Y105.382 E.01179
G1 X62.857 Y86.342 E1.1098
G1 X62.753 Y86.046 E.01586
M204 P1250
G1 X63.16 Y85.894 F9000
G1 E-2.24 F4200
;WIPE_START
G1 F7200
G1 X63.052 Y85.674 E-.26418
G1 X64.064 Y85.09 E-.64782
;WIPE_END
G1 E-.048 F4200
G1 Z.4 F720
G1 X67.792 Y88.169 F9000
G1 Z.2 F720
G1 E3.2 F2400
M204 P800
;TYPE:Perimeter
G1 F1200
G1 X67.818 Y87.797 E.01881
G1 X68.062 Y86.896 E.04712
G1 X68.408 Y86.193 E.03955
G1 X68.979 Y85.454 E.04713
G1 X69.568 Y84.938 E.03952
G1 X70.377 Y84.473 E.04713
G1 X71.119 Y84.221 E.03952
G1 X72.029 Y84.103 E.04635
G1 X72.824 Y84.153 E.04021
G1 X73.727 Y84.398 E.04723
G1 X74.43 Y84.744 E.03953
G1 X75.169 Y85.314 E.04713
G1 X75.782 Y86.044 E.04811
G1 X76.159 Y86.73 E.03953
G1 X76.411 Y87.532 E.04239
G1 X76.47 Y87.797 E.01372
G1 X76.523 Y88.4 E.03055
G1 X76.47 Y89.161 E.03854
G1 X76.226 Y90.062 E.04711
G1 X75.88 Y90.765 E.03954
G1 X75.309 Y91.504 E.04713
G1 X74.631 Y92.075 E.04474
G1 X73.893 Y92.494 E.04286
G1 X73.169 Y92.737 E.03853
G1 X72.243 Y92.856 E.04713
G1 X71.293 Y92.774 E.04812
G1 X70.542 Y92.555 E.03952
G1 X69.858 Y92.215 E.03854
G1 X69.119 Y91.644 E.04711
G1 X68.506 Y90.915 E.04812
G1 X68.129 Y90.228 E.03955
G1 X67.851 Y89.337 E.04713
G1 X67.765 Y88.558 E.03952
G1 X67.786 Y88.258 E.01517
M204 P1250
G1 X68.378 Y88.593 F9000
M204 P800
;TYPE:External perimeter
G1 F1200
G1 X68.37 Y88.505 E.00441
G1 X68.423 Y87.85 E.0332
G1 X68.645 Y87.066 E.04113
G1 X68.947 Y86.473 E.03356
G1 X69.453 Y85.834 E.04114
G1 X69.958 Y85.403 E.03354
G1 X70.669 Y85.006 E.04114
G1 X71.301 Y84.8 E.03354
G1 X72.096 Y84.706 E.04042
G1 X72.773 Y84.758 E.03424
G1 X73.557 Y84.98 E.04117
G1 X74.15 Y85.282 E.03355
G1 X74.789 Y85.788 E.04115
G1 X75.309 Y86.424 E.04146
G1 X75.621 Y87.011 E.03355
G1 X75.828 Y87.701 E.03641
G1 X75.918 Y88.453 E.03819
G1 X75.865 Y89.108 E.03321
G1 X75.643 Y89.892 E.04113
G1 X75.341 Y90.484 E.03355
G1 X74.835 Y91.124 E.04115
G1 X74.252 Y91.602 E.03809
G1 X73.613 Y91.956 E.03687
G1 X72.987 Y92.158 E.03321
G1 X72.177 Y92.252 E.04115
G1 X71.359 Y92.17 E.04148
G1 X70.724 Y91.976 E.03354
G1 X70.138 Y91.676 E.03321
G1 X69.499 Y91.171 E.04113
G1 X68.979 Y90.535 E.04148
G1 X68.667 Y89.948 E.03356
G1 X68.434 Y89.167 E.04114
G1 X68.387 Y88.682 E.02458
M204 P1250
G1 X68.298 Y88.559 F9000
G1 E-2.24 F4200
;WIPE_START
G1 F7200
G1 X68.37 Y88.505 E-.09832
G1 X68.423 Y87.85 E-.36451
G1 X68.644 Y87.07 E-.44917
;WIPE_END
G1 E-.048 F4200
G1 Z.4 F720
G1 X86.105 Y83.324 F9000
G1 Z.2 F720
G1 E3.2 F2400
M204 P800
;TYPE:Perimeter
G1 F1200
G1 X85.998 Y83.118 E.01169
G1 X85.791 Y82.549 E.03056
G1 X85.632 Y81.63 E.04708
G1 X85.648 Y80.846 E.03958
G1 X85.853 Y79.936 E.0471
G1 X86.202 Y79.18 E.04204
G1 X86.349 Y78.921 E.01504
G1 X86.718 Y78.44 E.03056
G1 X87.408 Y77.812 E.04712
