; generated by PrusaSlicer 2.5.0 on 2023-02-02 at 00:02:08 UTC


;
;

;
;
; 

; external perimeters extrusion width = 0.68mm
; perimeters extrusion width = 0.68mm
; infill extrusion width = 0.68mm
; solid infill extrusion width = 0.68mm
; top infill extrusion width = 0.60mm
; support material extrusion width = 0.55mm
; first layer extrusion width = 0.65mm

M73 P0 R23
M201 X2500 Y2500 Z400 E5000 ; sets maximum accelerations, mm/sec^2
M203 X180 Y180 Z12 E80 ; sets maximum feedrates, mm / sec
M204 P1250 R1250 T2500 ; sets acceleration (P, T) and retract acceleration (R), mm/sec^2
M205 X8.00 Y8.00 Z2.00 E10.00 ; sets the jerk limits, mm/sec
M205 S0 T0 ; sets the minimum extruding and travel feed rate, mm/sec
M107
;TYPE:Custom
M862.3 P "MINI" ; printer model check
G90 ; use absolute coordinates
M83 ; extruder relative mode
M104 S170 ; set extruder temp for bed leveling
M140 S60 ; set bed temp
M109 R170 ; wait for bed leveling temp
M190 S60 ; wait for bed temp
M204 T1250 ; set travel acceleration
G28 ; home all without mesh bed level
G29 ; mesh bed leveling 
M204 T2500 ; restore travel acceleration
M104 S215 ; set extruder temp
G92 E0
G1 Y-2 X179 F2400
G1 Z3 F720
M109 S215 ; wait for extruder temp

; intro line
G1 X170 F1000
G1 Z0.2 F720
G1 X110 E8 F900
G1 X40 E10 F700
G92 E0

M221 S95 ; set flow
G21 ; set units to millimeters
G90 ; use absolute coordinates
M83 ; use relative distances for extrusion
M900 K0.12 ; Filament gcode LA 1.5
; ; Filament gcode LA 1.0
M107
;LAYER_CHANGE
;Z:0.2
;HEIGHT:0.2
;BEFORE_LAYER_CHANGE
G92 E0.0
;0.2


G1 E-3.2 F4200
M73 P1 R23
G1 Z.2 F720
;AFTER_LAYER_CHANGE
;0.2
G1 Z.4
G1 X60.798 Y83.146 F9000
G1 Z.2 F720
G1 E3.2 F2400
M204 P800
;TYPE:Skirt/Brim
;WIDTH:0.65
G1 F1200
G1 X61.429 Y82.692 E.03926
G1 X79.496 Y72.26 E1.05311
G1 X80.511 Y71.803 E.05618
G1 X81.618 Y71.622 E.05663
G1 X98.484 Y71.624 E.85135
G1 X99.483 Y71.801 E.05122
G1 X100.458 Y72.234 E.05385
G1 X118.644 Y82.736 E1.06011
G1 X119.236 Y83.176 E.03722
G1 X119.684 Y83.656 E.03312
G1 X120.049 Y84.24 E.03479
G1 X120.265 Y84.8 E.03027
G1 X120.383 Y85.472 E.03446
G1 X120.364 Y86.145 E.03399
G1 X120.216 Y86.804 E.03408
G1 X119.933 Y87.466 E.03636
G1 X108.625 Y107.012 E1.13988
G1 X108.121 Y107.568 E.03786
G1 X107.415 Y108.058 E.04337
G1 X106.618 Y108.359 E.04302
G1 X105.83 Y108.463 E.04013
G1 X74.178 Y108.463 E1.59774
G1 X73.099 Y108.277 E.05527
G1 X72.106 Y107.755 E.05663
G1 X71.581 Y107.268 E.03618
G1 X71.164 Y106.693 E.03584
G1 X60.003 Y87.342 E1.12764
G1 X59.669 Y86.352 E.05274
G1 X59.62 Y85.443 E.04596
G1 X59.829 Y84.52 E.04779
G1 X60.284 Y83.698 E.04741
G1 X60.736 Y83.211 E.03354
M204 P1250
; printing object corner_skirt.stl id:0 copy 0
G1 E-2.24 F4200
;WIPE_START
G1 F7200
G1 X61.429 Y82.692 E-.48003
G1 X62.104 Y82.302 E-.43197
;WIPE_END
G1 E-.048 F4200
G1 Z.4 F720
G1 X81.864 Y91.062 F9000
G1 Z.2 F720
G1 E3.2 F2400
M204 P800
;TYPE:Perimeter
;WIDTH:0.649999
G1 F1200
G1 X82.079 Y91.083 E.01088
G1 X98.013 Y91.081 E.80436
G1 X98.503 Y91.002 E.02502
G1 X99.011 Y90.782 E.02797
G1 X99.412 Y90.472 E.02557
G1 X99.758 Y90.026 E.02849
G1 X99.973 Y89.51 E.02822
G1 X100.046 Y88.958 E.0281
G1 X100.048 Y77.717 E.56745
G1 X114.896 Y86.289 E.86543
G1 X104.945 Y103.511 E1.00401
G1 X75.047 Y103.511 E1.50923
G1 X65.104 Y86.289 E1.0038
M73 P2 R23
G1 X79.952 Y77.717 E.86545
M73 P2 R22
G1 X79.954 Y88.958 E.56745
G1 X80.001 Y89.401 E.02248
G1 X80.174 Y89.9 E.02667
G1 X80.486 Y90.364 E.02822
G1 X80.912 Y90.734 E.02849
G1 X81.278 Y90.926 E.02089
G1 X81.664 Y91.042 E.02032
G1 X81.775 Y91.053 E.00561
M204 P1250
G1 X81.902 Y90.451 F9000
M204 P800
G1 F1200
G1 X82.079 Y90.476 E.00898
G1 X96.963 Y90.476 E.75137
G1 X98.218 Y90.447 E.06332
G1 X98.622 Y90.304 E.02164
G1 X98.986 Y90.04 E.02272
G1 X99.233 Y89.721 E.02035
G1 X99.387 Y89.353 E.02016
G1 X99.439 Y88.958 E.02007
G1 X99.441 Y76.666 E.62052
G1 X115.725 Y86.067 E.94915
G1 X105.295 Y104.118 E1.05235
G1 X74.696 Y104.118 E1.54461
G1 X64.275 Y86.067 E1.05214
G1 X80.559 Y76.666 E.94916
G1 X80.561 Y88.619 E.6034
G1 X80.594 Y89.275 E.03313
G1 X80.718 Y89.631 E.01905
G1 X80.941 Y89.963 E.02015
G1 X81.245 Y90.227 E.02035
G1 X81.663 Y90.418 E.02321
G1 X81.813 Y90.439 E.00764
M204 P1250
G1 X81.969 Y89.847 F9000
M204 P800
G1 F1200
G1 X82.079 Y89.869 E.00565
G1 X98.012 Y89.864 E.80433
G1 X98.342 Y89.766 E.01735
G1 X98.604 Y89.561 E.01681
G1 X98.772 Y89.283 E.01638
G1 X98.832 Y88.958 E.01667
G1 X98.835 Y75.614 E.67359
G1 X116.555 Y85.845 E1.03287
G1 X105.634 Y104.725 E1.10099
M73 P3 R22
G1 X74.349 Y104.725 E1.57921
G1 X63.445 Y85.845 E1.10057
G1 X81.165 Y75.614 E1.03287
G1 X81.174 Y89.061 E.67879
G1 X81.262 Y89.362 E.01581
G1 X81.44 Y89.607 E.01527
G1 X81.736 Y89.802 E.01788
G1 X81.88 Y89.83 E.00745
M204 P1250
G1 X82.079 Y89.262 F9000
M204 P800
;TYPE:External perimeter
G1 F1200
G1 X96.963 Y89.262 E.75137
G1 X98.004 Y89.25 E.05255
G1 X98.166 Y89.137 E.00996
G1 X98.225 Y88.958 E.00952
G1 X98.228 Y75.412 E.68379
G1 X98.255 Y75.045 E.01858
G1 X98.355 Y74.767 E.01491
G1 X98.534 Y74.797 E.00915
G1 X98.949 Y74.979 E.02286
G1 X116.92 Y85.355 E1.04753
G1 X117.182 Y85.553 E.01656
G1 X117.242 Y85.727 E.0093
G1 X117.136 Y86.053 E.01728
G1 X106.14 Y105.083 E1.10947
G1 X105.95 Y105.279 E.01375
G1 X105.697 Y105.332 E.01305
G1 X74.349 Y105.332 E1.58241
G1 X74.052 Y105.278 E.01525
G1 X73.844 Y105.071 E.0148
G1 X62.873 Y86.068 E1.10766
G1 X62.746 Y85.723 E.01855
G1 X62.758 Y85.642 E.00411
G1 X63.05 Y85.372 E.02006
G1 X81.014 Y75.001 E1.04708
G1 X81.595 Y74.762 E.03173
G1 X81.684 Y74.803 E.00494
G1 X81.772 Y75.269 E.02393
G1 X81.782 Y89.021 E.69423
G1 X81.89 Y89.196 E.01039
M73 P4 R22
G1 X81.994 Y89.232 E.00551
M204 P1250
G1 X82.254 Y89.835 F9000
G1 E-2.24 F4200
;WIPE_START
G1 F7200
G1 X83.639 Y89.235 E-.912
;WIPE_END
G1 E-.048 F4200
G1 Z.4 F720
G1 X71.222 Y91.991 F9000
G1 Z.2 F720
G1 E3.2 F2400
M204 P800
;TYPE:Perimeter
G1 F1200
G1 X70.808 Y91.885 E.02159
G1 X70.077 Y91.531 E.04096
G1 X69.49 Y91.092 E.03703
G1 X68.951 Y90.485 E.04098
G1 X68.576 Y89.854 E.03702
G1 X68.339 Y89.208 E.03473
G1 X68.21 Y88.407 E.04097
G1 X68.253 Y87.551 E.04328
G1 X68.434 Y86.84 E.03702
G1 X68.723 Y86.216 E.03473
G1 X69.199 Y85.558 E.04098
G1 X69.733 Y85.056 E.03702
G1 X70.425 Y84.63 E.04099
G1 X71.111 Y84.371 E.03703
G1 X71.899 Y84.243 E.0403
G1 X72.639 Y84.265 E.03738
G1 X73.436 Y84.453 E.04131
G1 X74.21 Y84.821 E.04328
G1 X74.798 Y85.26 E.03705
G1 X75.337 Y85.867 E.04095
G1 X75.712 Y86.497 E.03702
G1 X75.949 Y87.143 E.03474
G1 X76.078 Y87.944 E.04095
G1 X76.078 Y88.408 E.02339
G1 X76.001 Y89.01 E.03067
G1 X75.853 Y89.512 E.02638
G1 X75.565 Y90.136 E.03473
G1 X75.337 Y90.485 E.02103
G1 X74.935 Y90.966 E.03166
G1 X74.554 Y91.296 E.02543
G1 X73.863 Y91.722 E.04096
G1 X73.177 Y91.981 E.03701
G1 X72.375 Y92.11 E.04101
G1 X71.519 Y92.067 E.04328
G1 X71.309 Y92.013 E.01092
M204 P1250
G1 X71.361 Y91.404 F9000
M204 P800
G1 F1200
G1 X70.99 Y91.306 E.01936
G1 X70.369 Y90.999 E.03496
G1 X69.88 Y90.627 E.03103
G1 X69.424 Y90.105 E.03498
G1 X69.115 Y89.574 E.03102
G1 X68.918 Y89.026 E.02939
G1 X68.814 Y88.341 E.03498
G1 X68.857 Y87.617 E.03662
G1 X69.013 Y87.023 E.03102
G1 X69.262 Y86.496 E.02938
G1 X69.672 Y85.938 E.03498
G1 X70.124 Y85.521 E.03102
G1 X70.717 Y85.162 E.03499
G1 X71.294 Y84.95 E.03103
G1 X71.966 Y84.846 E.03436
G1 X72.588 Y84.87 E.03141
G1 X73.266 Y85.036 E.03522
G1 X73.918 Y85.353 E.03663
G1 X74.408 Y85.725 E.03105
G1 X74.864 Y86.247 E.03496
G1 X75.173 Y86.778 E.03102
G1 X75.37 Y87.326 E.02939
G1 X75.474 Y88.01 E.03496
G1 X75.437 Y88.679 E.03378
G1 X75.37 Y89.026 E.01786
G1 X75.173 Y89.574 E.02939
G1 X74.864 Y90.105 E.03102
G1 X74.505 Y90.537 E.02833
G1 X74.094 Y90.887 E.02727
G1 X73.571 Y91.189 E.03048
G1 X72.995 Y91.402 E.03101
G1 X72.309 Y91.506 E.03501
G1 X71.585 Y91.463 E.03663
G1 X71.448 Y91.427 E.00714
M204 P1250
G1 X71.564 Y90.835 F9000
M204 P800
G1 F1200
G1 X71.476 Y90.823 E.00449
G1 X71.009 Y90.657 E.02503
G1 X70.514 Y90.366 E.02897
G1 X70.146 Y90.034 E.02504
G1 X69.819 Y89.61 E.027
G1 X69.592 Y89.147 E.02604
G1 X69.46 Y88.669 E.02502
G1 X69.417 Y88.275 E.02001
G1 X69.46 Y87.683 E.02997
G1 X69.653 Y87.058 E.033
G1 X69.898 Y86.627 E.02502
G1 X70.27 Y86.19 E.02897
G1 X70.661 Y85.885 E.02504
G1 X71.173 Y85.625 E.02897
G1 X71.649 Y85.492 E.02494
G1 X72.211 Y85.447 E.02848
G1 X72.715 Y85.508 E.02562
G1 X73.279 Y85.695 E.02997
G1 X73.774 Y85.986 E.029
G1 X74.142 Y86.318 E.02503
G1 X74.488 Y86.776 E.02898
G1 X74.695 Y87.205 E.02404
G1 X74.828 Y87.683 E.02501
G1 X74.871 Y88.275 E.03
G1 X74.791 Y88.844 E.02897
G1 X74.635 Y89.294 E.02405
G1 X74.39 Y89.725 E.02502
G1 X74.017 Y90.162 E.02898
G1 X73.626 Y90.467 E.02503
G1 X73.115 Y90.727 E.02897
G1 X72.637 Y90.86 E.02505
G1 X72.045 Y90.903 E.02997
G1 X71.653 Y90.848 E.01996
M204 P1250
G1 X71.589 Y90.221 F9000
M204 P800
;TYPE:External perimeter
G1 F1200
G1 X71.301 Y90.125 E.01531
G1 X70.904 Y89.901 E.02299
G1 X70.619 Y89.654 E.01905
G1 X70.339 Y89.295 E.02299
G1 X70.171 Y88.964 E.01871
G1 X70.064 Y88.603 E.01903
G1 X70.021 Y88.209 E.02001
G1 X70.074 Y87.697 E.026
G1 X70.192 Y87.339 E.01903
G1 X70.371 Y87.007 E.01903
G1 X70.661 Y86.656 E.02299
G1 X70.953 Y86.417 E.01905
G1 X71.355 Y86.204 E.02299
G1 X71.716 Y86.096 E.01901
G1 X72.16 Y86.052 E.02252
G1 X72.545 Y86.091 E.01954
G1 X72.987 Y86.227 E.02333
G1 X73.384 Y86.451 E.023
G1 X73.669 Y86.698 E.01904
G1 X73.949 Y87.057 E.02299
G1 X74.116 Y87.387 E.0187
G1 X74.224 Y87.749 E.01903
G1 X74.267 Y88.209 E.02333
G1 X74.212 Y88.661 E.02299
G1 X74.096 Y89.013 E.01871
G1 X73.917 Y89.345 E.01903
G1 X73.627 Y89.696 E.02299
G1 X73.335 Y89.934 E.01904
G1 X72.933 Y90.148 E.02298
G1 X72.571 Y90.256 E.01905
G1 X72.111 Y90.299 E.02333
G1 X71.675 Y90.246 E.02219
M204 P1250
G1 X71.382 Y90.443 F9000
G1 E-2.24 F4200
;WIPE_START
G1 F7200
G1 X71.301 Y90.125 E-.21783
G1 X70.904 Y89.901 E-.25234
G1 X70.619 Y89.654 E-.20908
G1 X70.36 Y89.323 E-.23275
;WIPE_END
G1 E-.048 F4200
G1 Z.4 F720
G1 X88.525 Y101.999 F9000
G1 Z.2 F720
G1 E3.2 F2400
M204 P800
;TYPE:Perimeter
G1 F1200
G1 X88.322 Y101.925 E.01092
G1 X87.691 Y101.551 E.03701
G1 X87.055 Y100.975 E.04331
G1 X86.579 Y100.317 E.04099
G1 X86.291 Y99.693 E.0347
G1 X86.109 Y98.982 E.03702
G1 X86.054 Y98.37 E.03102
G1 X86.089 Y97.855 E.02606
G1 X86.166 Y97.446 E.02103
G1 X86.432 Y96.679 E.04097
G1 X86.807 Y96.048 E.03704
G1 X87.346 Y95.442 E.04096
G1 X87.934 Y95.002 E.03706
G1 X88.664 Y94.648 E.04094
G1 X89.239 Y94.486 E.03017
G1 X89.755 Y94.424 E.02626
G1 X90.495 Y94.446 E.03736
G1 X91.292 Y94.634 E.04131
G1 X92.066 Y95.002 E.04327
G1 X92.654 Y95.442 E.03707
G1 X93.193 Y96.048 E.04097
G1 X93.568 Y96.679 E.03703
G1 X93.834 Y97.446 E.04097
G1 X93.938 Y98.172 E.03704
G1 X93.934 Y98.589 E.02103
G1 X93.805 Y99.39 E.04097
G1 X93.568 Y100.035 E.03471
G1 X93.193 Y100.666 E.03702
G1 X92.618 Y101.303 E.04332
G1 X91.96 Y101.778 E.04097
G1 X91.336 Y102.066 E.0347
G1 X90.761 Y102.228 E.03016
G1 X90.231 Y102.291 E.02694
G1 X89.769 Y102.291 E.02334
G1 X88.967 Y102.162 E.041
G1 X88.609 Y102.03 E.01923
M204 P1250
G1 X88.657 Y101.398 F9000
M204 P800
G1 F1200
G1 X88.32 Y101.239 E.0188
G1 X87.762 Y100.829 E.03497
G1 X87.28 Y100.286 E.03665
G1 X86.971 Y99.755 E.03102
G1 X86.774 Y99.208 E.02936
G1 X86.661 Y98.367 E.04283
G1 X86.715 Y97.758 E.03086
G1 X86.86 Y97.235 E.02736
G1 X87.118 Y96.677 E.03103
G1 X87.528 Y96.119 E.03497
G1 X87.98 Y95.702 E.03103
G1 X88.573 Y95.344 E.03499
G1 X89.149 Y95.131 E.03101
G1 X89.823 Y95.027 E.03438
G1 X90.444 Y95.051 E.0314
G1 X91.122 Y95.217 E.03522
G1 X91.774 Y95.534 E.03662
G1 X92.264 Y95.907 E.03106
G1 X92.72 Y96.428 E.03497
G1 X93.029 Y96.959 E.03103
G1 X93.251 Y97.616 E.03497
G1 X93.334 Y98.225 E.03104
G1 X93.287 Y98.916 E.03497
G1 X93.13 Y99.511 E.03102
G1 X92.882 Y100.037 E.02937
G1 X92.472 Y100.595 E.03498
G1 X91.929 Y101.077 E.03665
G1 X91.398 Y101.386 E.03101
G1 X90.851 Y101.583 E.02936
G1 X90.165 Y101.687 E.035
G1 X89.441 Y101.644 E.03662
G1 X88.846 Y101.487 E.03104
G1 X88.739 Y101.437 E.00602
M204 P1250
G1 X88.957 Y100.874 F9000
M204 P800
G1 F1200
G1 X88.451 Y100.604 E.02894
G1 X88.002 Y100.215 E.02998
G1 X87.656 Y99.757 E.02899
G1 X87.449 Y99.328 E.02403
G1 X87.316 Y98.85 E.02502
G1 X87.268 Y98.363 E.02472
G1 X87.332 Y97.786 E.02932
G1 X87.509 Y97.24 E.02898
G1 X87.754 Y96.808 E.02504
G1 X88.126 Y96.372 E.02897
G1 X88.518 Y96.066 E.02505
G1 X89.029 Y95.806 E.02896
G1 X89.505 Y95.674 E.02495
G1 X90.067 Y95.628 E.02848
G1 X90.571 Y95.689 E.02562
G1 X91.135 Y95.876 E.02997
G1 X91.63 Y96.167 E.029
G1 X91.998 Y96.499 E.02504
G1 X92.344 Y96.958 E.02898
G1 X92.557 Y97.405 E.02504
G1 X92.699 Y97.943 E.02809
G1 X92.727 Y98.456 E.02593
G1 X92.647 Y99.025 E.02898
G1 X92.491 Y99.475 E.02404
G1 X92.246 Y99.906 E.02502
G1 X91.858 Y100.356 E.02999
G1 X91.399 Y100.701 E.02898
G1 X90.971 Y100.908 E.02403
G1 X90.493 Y101.041 E.02503
G1 X89.901 Y101.084 E.02997
G1 X89.332 Y101.004 E.029
G1 X89.042 Y100.903 E.01551
M204 P1250
G1 X88.974 Y100.207 F9000
M204 P800
;TYPE:External perimeter
G1 F1200
G1 X88.831 Y100.13 E.00818
G1 X88.475 Y99.835 E.02333
G1 X88.195 Y99.476 E.023
G1 X88.028 Y99.145 E.0187
G1 X87.92 Y98.784 E.01903
G1 X87.875 Y98.359 E.02157
G1 X87.915 Y97.956 E.02048
G1 X88.048 Y97.52 E.02299
G1 X88.227 Y97.188 E.01904
G1 X88.517 Y96.837 E.02299
G1 X88.809 Y96.599 E.01905
G1 X89.211 Y96.385 E.02298
G1 X89.572 Y96.277 E.01901
G1 X90.016 Y96.233 E.02252
G1 X90.401 Y96.272 E.01954
G1 X90.843 Y96.408 E.02333
G1 X91.24 Y96.632 E.023
G1 X91.525 Y96.879 E.01905
G1 X91.805 Y97.238 E.02299
G1 X91.974 Y97.575 E.01905
G1 X92.096 Y98.014 E.02299
G1 X92.123 Y98.39 E.01905
G1 X92.068 Y98.842 E.02299
G1 X91.952 Y99.194 E.0187
G1 X91.773 Y99.526 E.01903
G1 X91.478 Y99.882 E.02333
G1 X91.119 Y100.163 E.023
G1 X90.788 Y100.33 E.0187
G1 X90.427 Y100.437 E.01903
G1 X89.967 Y100.48 E.02333
G1 X89.515 Y100.425 E.023
G1 X89.163 Y100.309 E.0187
G1 X89.053 Y100.25 E.0063
M204 P1250
G1 X88.839 Y100.297 F9000
G1 E-2.24 F4200
;WIPE_START
G1 F7200
G1 X88.831 Y100.13 E-.13972
G1 X88.475 Y99.835 E-.25611
G1 X88.195 Y99.476 E-.25252
G1 X88.028 Y99.145 E-.20533
G1 X87.997 Y99.045 E-.05832
;WIPE_END
G1 E-.048 F4200
G1 Z.4 F720
G1 X110.113 Y91.389 F9000
G1 Z.2 F720
G1 E3.2 F2400
M204 P800
;TYPE:Perimeter
G1 F1200
G1 X109.923 Y91.531 E.01201
G1 X109.192 Y91.885 E.04096
G1 X108.481 Y92.067 E.03705
G1 X107.625 Y92.11 E.04328
G1 X106.823 Y91.981 E.041
G1 X106.316 Y91.809 E.02703
G1 X105.789 Y91.531 E.03005
G1 X105.202 Y91.092 E.03701
G1 X104.911 Y90.794 E.02103
G1 X104.548 Y90.328 E.02981
G1 X104.288 Y89.854 E.02729
G1 X104.133 Y89.467 E.02103
G1 X103.98 Y88.915 E.02895
G1 X103.918 Y88.361 E.02812
G1 X103.945 Y87.674 E.03471
G1 X104.133 Y86.884 E.04097
G1 X104.435 Y86.216 E.03704
G1 X104.911 Y85.558 E.04098
G1 X105.445 Y85.056 E.03702
G1 X106.137 Y84.63 E.04097
G1 X106.823 Y84.371 E.03704
G1 X107.611 Y84.243 E.0403
G1 X108.351 Y84.265 E.03738
G1 X109.148 Y84.453 E.04132
G1 X109.575 Y84.63 E.02334
G1 X110.267 Y85.056 E.041
G1 X110.801 Y85.558 E.03702
G1 X111.277 Y86.216 E.04101
G1 X111.565 Y86.84 E.03467
G1 X111.747 Y87.551 E.03704
G1 X111.79 Y88.407 E.04328
G1 X111.661 Y89.209 E.041
G1 X111.424 Y89.854 E.03467
G1 X111.049 Y90.485 E.03706
G1 X110.51 Y91.092 E.04098
G1 X110.185 Y91.335 E.02047
M204 P1250
G1 X109.674 Y90.953 F9000
M204 P800
G1 F1200
G1 X109.283 Y91.189 E.02303
G1 X108.707 Y91.402 E.03102
G1 X108.021 Y91.506 E.035
G1 X107.297 Y91.463 E.03662
G1 X106.702 Y91.306 E.03105
G1 X106.081 Y90.999 E.03497
G1 X105.592 Y90.627 E.03102
G1 X105.136 Y90.105 E.03498
G1 X104.827 Y89.574 E.03104
G1 X104.605 Y88.917 E.03497
G1 X104.522 Y88.308 E.03102
G1 X104.55 Y87.727 E.02937
G1 X104.716 Y87.054 E.03497
G1 X104.974 Y86.496 E.03104
G1 X105.384 Y85.938 E.03498
G1 X105.836 Y85.521 E.03102
G1 X106.429 Y85.162 E.03497
G1 X107.006 Y84.95 E.03104
G1 X107.678 Y84.846 E.03436
G1 X108.3 Y84.87 E.03141
G1 X108.978 Y85.036 E.03522
G1 X109.631 Y85.353 E.03662
G1 X110.12 Y85.725 E.03105
G1 X110.576 Y86.247 E.03496
G1 X110.885 Y86.778 E.03105
G1 X111.082 Y87.325 E.02934
G1 X111.186 Y88.011 E.035
G1 X111.143 Y88.735 E.03662
G1 X110.986 Y89.329 E.03103
G1 X110.739 Y89.855 E.02934
G1 X110.328 Y90.414 E.035
G1 X109.876 Y90.831 E.03104
G1 X109.751 Y90.907 E.0074
