; generated by PrusaSlicer 2.5.0 on 2023-02-01 at 18:46:35 UTC


;
;

;
;
; 

; external perimeters extrusion width = 0.68mm
; perimeters extrusion width = 0.68mm
; infill extrusion width = 0.68mm
; solid infill extrusion width = 0.68mm
; top infill extrusion width = 0.60mm
; support material extrusion width = 0.55mm
; first layer extrusion width = 0.65mm

M73 P0 R12
M201 X2500 Y2500 Z400 E5000 ; sets maximum accelerations, mm/sec^2
M203 X180 Y180 Z12 E80 ; sets maximum feedrates, mm / sec
M204 P1250 R1250 T2500 ; sets acceleration (P, T) and retract acceleration (R), mm/sec^2
M205 X8.00 Y8.00 Z2.00 E10.00 ; sets the jerk limits, mm/sec
M205 S0 T0 ; sets the minimum extruding and travel feed rate, mm/sec
M107
;TYPE:Custom
M862.3 P "MINI" ; printer model check
G90 ; use absolute coordinates
M83 ; extruder relative mode
M104 S170 ; set extruder temp for bed leveling
M140 S60 ; set bed temp
M109 R170 ; wait for bed leveling temp
M190 S60 ; wait for bed temp
M204 T1250 ; set travel acceleration
G28 ; home all without mesh bed level
G29 ; mesh bed leveling 
M204 T2500 ; restore travel acceleration
M104 S215 ; set extruder temp
G92 E0
G1 Y-2 X179 F2400
G1 Z3 F720
M109 S215 ; wait for extruder temp

; intro line
G1 X170 F1000
G1 Z0.2 F720
G1 X110 E8 F900
G1 X40 E10 F700
G92 E0

M221 S95 ; set flow
G21 ; set units to millimeters
G90 ; use absolute coordinates
M83 ; use relative distances for extrusion
M900 K0.12 ; Filament gcode LA 1.5
; ; Filament gcode LA 1.0
M107
;LAYER_CHANGE
;Z:0.2
;HEIGHT:0.2
;BEFORE_LAYER_CHANGE
G92 E0.0
;0.2


M73 P1 R12
G1 E-3.2 F4200
M73 P2 R12
G1 Z.2 F720
;AFTER_LAYER_CHANGE
;0.2
G1 Z.4
G1 X71.773 Y72.227 F9000
G1 Z.2 F720
G1 E3.2 F2400
M204 P800
;TYPE:Skirt/Brim
;WIDTH:0.65
G1 F1200
G1 X72.559 Y71.653 E.04911
G1 X73.354 Y71.345 E.04304
G1 X74.237 Y71.233 E.04492
G1 X105.782 Y71.233 E1.59238
G1 X106.705 Y71.361 E.04702
G1 X107.537 Y71.706 E.04549
G1 X108.241 Y72.241 E.0446
G1 X108.796 Y72.938 E.04497
G1 X119.914 Y92.196 E1.12252
G1 X120.177 Y92.778 E.03225
G1 X120.337 Y93.377 E.03127
G1 X120.391 Y93.972 E.03015
G1 X120.326 Y94.646 E.03419
G1 X120.123 Y95.296 E.03437
G1 X119.778 Y95.913 E.0357
G1 X119.304 Y96.459 E.03649
G1 X118.727 Y96.909 E.03697
G1 X98.96 Y108.326 E1.1523
G1 X98.158 Y108.647 E.04359
G1 X97.298 Y108.767 E.04383
G1 X82.717 Y108.767 E.73602
G1 X81.646 Y108.589 E.05479
G1 X80.964 Y108.284 E.03771
G1 X61.419 Y96.999 E1.13928
G1 X60.615 Y96.38 E.05123
M73 P3 R12
G1 X60.003 Y95.558 E.05173
G1 X59.702 Y94.769 E.04261
G1 X59.609 Y93.95 E.04164
G1 X59.743 Y93.03 E.04693
G1 X60.067 Y92.23 E.04354
G1 X71.198 Y72.948 E1.12387
G1 X71.717 Y72.297 E.04204
M204 P1250
; printing object corner_plane.stl id:0 copy 0
G1 E-2.24 F4200
;WIPE_START
G1 F7200
G1 X72.559 Y71.653 E-.58745
G1 X73.105 Y71.441 E-.32455
;WIPE_END
G1 E-.048 F4200
G1 Z.4 F720
G1 X63.445 Y93.852 F9000
G1 Z.2 F720
G1 E3.2 F2400
M204 P800
;TYPE:Perimeter
;WIDTH:0.649999
G1 F1200
M73 P3 R11
G1 X74.357 Y74.972 E1.10077
G1 X105.632 Y74.973 E1.57871
G1 X105.664 Y74.988 E.00178
G1 X116.555 Y93.852 E1.09951
G1 X97.28 Y104.977 E1.12339
G1 X97.13 Y105.028 E.00801
G1 X82.787 Y105.019 E.72403
G1 X63.523 Y93.897 E1.12284
M204 P1250
M73 P4 R11
G1 X62.756 Y94.02 F9000
M204 P800
;TYPE:External perimeter
G1 F1200
G1 X62.859 Y93.652 E.01928
G1 X73.813 Y74.681 E1.10584
G1 X74.004 Y74.445 E.01531
G1 X74.3 Y74.365 E.01547
G1 X105.632 Y74.366 E1.58163
G1 X105.976 Y74.435 E.01769
G1 X106.154 Y74.623 E.01309
G1 X117.116 Y93.61 E1.10673
G1 X117.245 Y93.912 E.01655
G1 X117.208 Y94.093 E.00931
G1 X116.954 Y94.322 E.01728
G1 X97.451 Y105.579 E1.13671
G1 X97.196 Y105.635 E.01318
G1 X82.796 Y105.635 E.7269
G1 X82.516 Y105.563 E.0146
M73 P5 R11
G1 X63.093 Y94.349 E1.13215
G1 X62.83 Y94.142 E.01687
G1 X62.803 Y94.097 E.00266
M204 P1250
G1 X63.07 Y93.802 F9000
G1 E-2.24 F4200
;WIPE_START
G1 F7200
G1 X62.859 Y93.652 E-.24827
G1 X63.458 Y92.615 E-.66373
;WIPE_END
G1 E-.048 F4200
G1 Z.4 F720
G1 X69.852 Y90.056 F9000
G1 Z.2 F720
G1 E3.2 F2400
M204 P800
;TYPE:Perimeter
G1 F1200
G1 X69.898 Y89.972 E.00482
G1 X70.27 Y89.535 E.02898
G1 X70.661 Y89.23 E.02503
G1 X71.173 Y88.97 E.02897
G1 X71.649 Y88.837 E.02495
G1 X72.211 Y88.792 E.02848
G1 X72.715 Y88.853 E.02562
G1 X73.194 Y88.999 E.02527
G1 X73.707 Y89.28 E.02951
G1 X74.115 Y89.63 E.02718
G1 X74.445 Y90.048 E.02689
G1 X74.688 Y90.529 E.02717
G1 X74.832 Y91.032 E.02644
G1 X74.873 Y91.6 E.02874
G1 X74.812 Y92.092 E.02503
G1 X74.642 Y92.624 E.0282
G1 X74.39 Y93.07 E.02582
G1 X74.018 Y93.506 E.02897
G1 X73.627 Y93.812 E.02504
G1 X73.115 Y94.072 E.02898
G1 X72.637 Y94.205 E.02504
G1 X72.065 Y94.25 E.02898
G1 X71.573 Y94.189 E.02504
G1 X71.009 Y94.002 E.02997
G1 X70.514 Y93.711 E.02899
G1 X70.146 Y93.379 E.02503
G1 X69.8 Y92.92 E.029
G1 X69.593 Y92.492 E.02401
G1 X69.46 Y92.014 E.02503
G1 X69.417 Y91.62 E.02001
G1 X69.46 Y91.028 E.02997
G1 X69.606 Y90.512 E.02707
G1 X69.809 Y90.135 E.02161
M204 P1250
G1 X70.344 Y90.402 F9000
M204 P800
;TYPE:External perimeter
G1 F1200
G1 X70.661 Y90 E.02584
G1 X70.953 Y89.762 E.01904
G1 X71.355 Y89.549 E.02299
G1 X71.716 Y89.441 E.01902
G1 X72.16 Y89.397 E.02252
G1 X72.545 Y89.436 E.01953
G1 X72.987 Y89.572 E.02334
G1 X73.423 Y89.829 E.02554
G1 X73.669 Y90.043 E.01646
G1 X73.949 Y90.402 E.02299
G1 X74.118 Y90.739 E.01905
G1 X74.24 Y91.178 E.02299
G1 X74.267 Y91.559 E.01929
G1 X74.229 Y91.922 E.01844
G1 X74.096 Y92.358 E.02298
G1 X73.917 Y92.69 E.01905
G1 X73.627 Y93.041 E.02299
G1 X73.335 Y93.279 E.01904
G1 X72.933 Y93.493 E.02298
G1 X72.571 Y93.601 E.01905
G1 X72.118 Y93.645 E.02299
G1 X71.742 Y93.606 E.01905
G1 X71.301 Y93.47 E.02333
G1 X70.904 Y93.246 E.023
G1 X70.619 Y92.999 E.01904
G1 X70.338 Y92.64 E.023
G1 X70.172 Y92.309 E.0187
G1 X70.064 Y91.948 E.01903
G1 X70.021 Y91.554 E.02001
G1 X70.076 Y91.036 E.02631
G1 X70.192 Y90.684 E.0187
G1 X70.301 Y90.482 E.0116
M204 P1250
G1 X70.113 Y89.946 F9000
G1 E-2.24 F4200
;WIPE_START
G1 F7200
G1 X70.661 Y90 E-.33288
G1 X70.953 Y89.762 E-.20905
G1 X71.355 Y89.549 E-.25234
G1 X71.559 Y89.488 E-.11772
;WIPE_END
G1 E-.048 F4200
G1 Z.4 F720
G1 X86.323 Y96.298 F9000
G1 Z.2 F720
G1 E3.2 F2400
M204 P800
;TYPE:Perimeter
G1 F1200
G1 X86.835 Y95.636 E.04226
G1 X87.457 Y95.109 E.04113
G1 X87.714 Y94.925 E.01598
G1 X88.251 Y94.645 E.03056
G1 X88.975 Y94.403 E.03854
G1 X89.513 Y94.326 E.02745
G1 X90.069 Y94.282 E.02813
G1 X90.681 Y94.334 E.03102
G1 X91.583 Y94.579 E.04719
G1 X92.286 Y94.925 E.03955
G1 X93.025 Y95.495 E.04712
G1 X93.632 Y96.216 E.0476
G1 X94.014 Y96.91 E.03997
G1 X94.195 Y97.465 E.02945
G1 X94.326 Y97.978 E.02673
G1 X94.379 Y98.581 E.03056
G1 X94.326 Y99.342 E.03854
G1 X94.082 Y100.243 E.04712
G1 X93.827 Y100.77 E.02955
G1 X93.638 Y101.095 E.01898
G1 X93.165 Y101.685 E.03814
G1 X92.435 Y102.298 E.04812
G1 X91.749 Y102.675 E.03954
G1 X91.025 Y102.918 E.03855
G1 X90.099 Y103.037 E.04712
G1 X89.318 Y102.986 E.03953
G1 X88.417 Y102.742 E.04712
G1 X87.714 Y102.396 E.03953
G1 X86.975 Y101.825 E.04712
G1 X86.368 Y101.104 E.0476
G1 X85.986 Y100.411 E.03997
G1 X85.709 Y99.528 E.04669
G1 X85.621 Y98.741 E.03997
G1 X85.674 Y97.978 E.03862
G1 X85.805 Y97.465 E.02673
G1 X85.978 Y96.925 E.0286
G1 X86.268 Y96.37 E.03164
M204 P1250
G1 X86.842 Y96.605 F9000
M204 P800
;TYPE:External perimeter
G1 F1200
G1 X87.308 Y96.016 E.03794
G1 X87.994 Y95.463 E.04446
G1 X88.531 Y95.184 E.03056
G1 X89.157 Y94.982 E.03321
G1 X89.957 Y94.887 E.04066
G1 X90.562 Y94.933 E.0306
G1 X91.413 Y95.161 E.0445
G1 X92.006 Y95.463 E.03356
G1 X92.645 Y95.969 E.04113
G1 X93.159 Y96.597 E.04099
G1 X93.476 Y97.191 E.034
G1 X93.71 Y97.972 E.04116
G1 X93.774 Y98.634 E.03355
G1 X93.721 Y99.29 E.03321
G1 X93.499 Y100.073 E.04113
G1 X93.197 Y100.666 E.03355
G1 X92.692 Y101.305 E.04113
G1 X92.055 Y101.825 E.04147
G1 X91.469 Y102.137 E.03355
G1 X90.842 Y102.339 E.03322
G1 X90.033 Y102.434 E.04113
G1 X89.37 Y102.381 E.03355
G1 X88.587 Y102.159 E.04113
G1 X87.994 Y101.857 E.03355
G1 X87.355 Y101.352 E.04113
G1 X86.841 Y100.724 E.04099
G1 X86.524 Y100.129 E.034
G1 X86.292 Y99.358 E.04068
G1 X86.226 Y98.687 E.034
G1 X86.279 Y98.031 E.03324
G1 X86.477 Y97.329 E.03679
G1 X86.791 Y96.679 E.03646
M204 P1250
G1 X86.567 Y96.072 F9000
G1 E-2.24 F4200
;WIPE_START
G1 F7200
G1 X87.308 Y96.016 E-.466
G1 X87.935 Y95.511 E-.446
;WIPE_END
G1 E-.048 F4200
G1 Z.4 F720
G1 X90.971 Y83.886 F9000
G1 Z.2 F720
G1 E3.2 F2400
M204 P800
;TYPE:Perimeter
G1 F1200
G1 X90.503 Y84.022 E.02458
G1 X89.989 Y84.072 E.0261
G1 X89.453 Y84.016 E.02719
G1 X88.942 Y83.859 E.02696
G1 X88.499 Y83.62 E.02542
G1 X88.103 Y83.305 E.02555
G1 X87.754 Y82.889 E.02743
G1 X87.488 Y82.415 E.02742
G1 X87.332 Y81.911 E.02661
G1 X87.271 Y81.419 E.02504
G1 X87.316 Y80.847 E.02898
G1 X87.509 Y80.222 E.03299
G1 X87.754 Y79.791 E.02503
G1 X88.142 Y79.341 E.02998
G1 X88.601 Y78.996 E.02898
G1 X89.029 Y78.788 E.02403
G1 X89.505 Y78.656 E.02494
G1 X90.067 Y78.611 E.02848
G1 X90.571 Y78.672 E.02562
G1 X91.117 Y78.849 E.02898
G1 X91.549 Y79.093 E.02503
G1 X91.998 Y79.482 E.02998
G1 X92.344 Y79.94 E.02899
G1 X92.551 Y80.369 E.02403
G1 X92.684 Y80.847 E.02502
G1 X92.729 Y81.419 E.02898
G1 X92.668 Y81.911 E.02504
M73 P6 R11
G1 X92.512 Y82.415 E.02661
G1 X92.246 Y82.889 E.02742
G1 X91.929 Y83.275 E.02524
G1 X91.501 Y83.62 E.02775
G1 X91.056 Y83.858 E.02548
M204 P1250
G1 X90.735 Y83.328 F9000
M204 P800
;TYPE:External perimeter
G1 F1200
G1 X90.427 Y83.42 E.0162
G1 X89.95 Y83.461 E.02415
G1 X89.515 Y83.408 E.02216
G1 X89.157 Y83.289 E.01904
G1 X88.76 Y83.065 E.02299
G1 X88.475 Y82.818 E.01905
G1 X88.195 Y82.459 E.02299
G1 X88.026 Y82.122 E.01904
G1 X87.904 Y81.683 E.02299
G1 X87.876 Y81.366 E.01606
G1 X87.932 Y80.854 E.02597
G1 X88.048 Y80.502 E.0187
G1 X88.227 Y80.171 E.01903
G1 X88.522 Y79.815 E.02333
G1 X88.881 Y79.534 E.023
G1 X89.212 Y79.367 E.0187
G1 X89.572 Y79.26 E.019
G1 X90.016 Y79.216 E.02252
G1 X90.401 Y79.254 E.01954
G1 X90.837 Y79.387 E.02299
G1 X91.169 Y79.567 E.01904
G1 X91.525 Y79.862 E.02333
G1 X91.805 Y80.221 E.023
G1 X91.972 Y80.551 E.0187
G1 X92.08 Y80.913 E.01903
G1 X92.124 Y81.366 E.02299
G1 X92.085 Y81.741 E.01905
G1 X91.952 Y82.177 E.02299
G1 X91.773 Y82.509 E.01904
G1 X91.483 Y82.86 E.02299
G1 X91.191 Y83.098 E.01905
G1 X90.818 Y83.296 E.02128
M204 P1250
G1 X90.689 Y83.646 F9000
G1 E-2.24 F4200
;WIPE_START
G1 F7200
G1 X90.427 Y83.42 E-.22743
G1 X89.95 Y83.461 E-.26512
G1 X89.515 Y83.408 E-.2433
G1 X89.213 Y83.307 E-.17615
;WIPE_END
G1 E-.048 F4200
G1 Z.4 F720
G1 X110.518 Y92.099 F9000
G1 Z.2 F720
G1 E3.2 F2400
M204 P800
;TYPE:Perimeter
G1 F1200
G1 X110.347 Y92.638 E.02858
G1 X110.102 Y93.07 E.02504
G1 X109.73 Y93.506 E.02897
G1 X109.339 Y93.812 E.02504
G1 X108.808 Y94.078 E.02997
G1 X108.252 Y94.222 E.02899
G1 X107.757 Y94.248 E.02504
G1 X107.188 Y94.168 E.02898
G1 X106.721 Y94.002 E.02504
G1 X106.226 Y93.711 E.02897
G1 X105.858 Y93.379 E.02503
G1 X105.538 Y92.968 E.02629
G1 X105.3 Y92.477 E.02754
G1 X105.163 Y91.984 E.0258
G1 X105.127 Y91.6 E.01947
G1 X105.16 Y91.077 E.02646
G1 X105.299 Y90.569 E.02658
G1 X105.524 Y90.099 E.02631
G1 X105.858 Y89.663 E.02773
G1 X106.293 Y89.28 E.02929
G1 X106.797 Y89.002 E.02904
G1 X107.361 Y88.837 E.02964
G1 X107.923 Y88.792 E.02848
G1 X108.427 Y88.853 E.02563
G1 X108.991 Y89.04 E.02997
G1 X109.486 Y89.331 E.02898
G1 X109.854 Y89.663 E.02504
G1 X110.181 Y90.087 E.027
G1 X110.407 Y90.55 E.02603
G1 X110.54 Y91.028 E.02503
G1 X110.583 Y91.62 E.02997
G1 X110.53 Y92.01 E.01984
M204 P1250
G1 X109.904 Y92.067 F9000
M204 P800
;TYPE:External perimeter
G1 F1200
G1 X109.808 Y92.358 E.01549
G1 X109.629 Y92.69 E.01904
G1 X109.339 Y93.041 E.02299
G1 X109.047 Y93.279 E.01905
G1 X108.638 Y93.495 E.02333
G1 X108.199 Y93.617 E.023
G1 X107.823 Y93.644 E.01905
G1 X107.371 Y93.589 E.02299
G1 X107.013 Y93.47 E.01905
G1 X106.616 Y93.246 E.02298
G1 X106.331 Y92.999 E.01904
G1 X106.051 Y92.64 E.02299
G1 X105.854 Y92.21 E.02388
G1 X105.76 Y91.864 E.01809
G1 X105.732 Y91.547 E.01604
G1 X105.771 Y91.119 E.02169
G1 X105.904 Y90.684 E.02298
G1 X106.083 Y90.352 E.01905
G1 X106.451 Y89.935 E.02805
G1 X106.665 Y89.763 E.01391
G1 X107.067 Y89.549 E.02298
G1 X107.428 Y89.441 E.01902
G1 X107.872 Y89.397 E.02252
G1 X108.258 Y89.436 E.01954
G1 X108.699 Y89.572 E.02333
G1 X109.096 Y89.796 E.023
G1 X109.381 Y90.043 E.01905
G1 X109.662 Y90.402 E.023
G1 X109.828 Y90.733 E.0187
G1 X109.936 Y91.094 E.01903
G1 X109.979 Y91.554 E.02333
G1 X109.927 Y91.98 E.02167
M204 P1250
G1 X110.129 Y92.275 F9000
G1 X110.902 Y92.438
M204 P800
;TYPE:Solid infill
;WIDTH:0.65
G1 F1200
G1 X111.622 Y91.717 E.05145
G1 X111.193 Y91.288 E.03064
G1 X111.036 Y91.445 E.0112
M204 P1250
G1 E-2.24 F4200
;WIPE_START
G1 F7200
G1 X111.193 Y91.288 E-.1229
G1 X111.622 Y91.717 E-.33642
G1 X111.045 Y92.295 E-.45267
;WIPE_END
G1 E-.048 F4200
G1 Z.4 F720
G1 X110.351 Y89.554 F9000
G1 Z.2 F720
G1 E3.2 F2400
M204 P800
G1 F1200
G1 X110.764 Y89.141 E.02948
G1 X110.335 Y88.712 E.03064
G1 X109.934 Y89.113 E.02859
M204 P1250
G1 X109.673 Y88.909 F9000
M204 P800
G1 F1200
G1 X109.047 Y88.283 E.0447
G1 X109.476 Y87.854 E.03064
G1 X109.905 Y88.283 E.03064
G1 X110.335 Y87.854 E.03064
G1 X109.905 Y87.424 E.03064
G1 X110.335 Y86.995 E.03064
G1 X111.193 Y87.854 E.06129
G1 X110.764 Y88.283 E.03064
G1 X111.193 Y88.712 E.03064
G1 X111.622 Y88.283 E.03064
G1 X112.481 Y89.141 E.06129
G1 X112.052 Y89.571 E.03064
G1 X111.622 Y89.141 E.03064
G1 X110.764 Y90 E.06129
G1 X111.193 Y90.429 E.03064
G1 X111.622 Y90 E.03064
G1 X112.052 Y90.429 E.03064
G1 X111.622 Y90.859 E.03064
G1 X112.052 Y91.288 E.03064
G1 X112.91 Y90.429 E.06129
G1 X112.481 Y90 E.03064
G1 X112.91 Y89.571 E.03064
G1 X113.34 Y90 E.03064
G1 X113.635 Y89.705 E.02108
M204 P1250
G1 X113.006 Y88.616 F9000
M204 P800
G1 F1200
G1 X112.91 Y88.712 E.00685
G1 X112.052 Y87.854 E.06129
G1 X112.378 Y87.528 E.02328
M204 P1250
G1 X112.096 Y87.039 F9000
M204 P800
G1 F1200
G1 X112.052 Y86.995 E.00314
G1 X111.622 Y87.424 E.03064
G1 X110.764 Y86.566 E.06129
G1 X111.193 Y86.137 E.03064
G1 X111.622 Y86.566 E.03064
G1 X111.749 Y86.439 E.00905
M204 P1250
G1 E-2.24 F4200
;WIPE_START
G1 F7200
G1 X111.622 Y86.566 E-.09938
G1 X111.193 Y86.137 E-.33642
G1 X110.764 Y86.566 E-.33642
G1 X110.942 Y86.744 E-.13977
;WIPE_END
G1 E-.048 F4200
G1 Z.4 F720
G1 X110.178 Y83.718 F9000
G1 Z.2 F720
G1 E3.2 F2400
M204 P800
G1 F1200
G1 X109.905 Y83.99 E.01946
G1 X110.335 Y84.419 E.03064
G1 X110.492 Y84.262 E.01125
M204 P1250
G1 X110.923 Y85.008 F9000
M204 P800
G1 F1200
G1 X110.764 Y84.849 E.01135
G1 X110.335 Y85.278 E.03064
G1 X110.764 Y85.707 E.03064
G1 X110.335 Y86.137 E.03064
G1 X109.476 Y85.278 E.06129
G1 X109.905 Y84.849 E.03064
G1 X109.476 Y84.419 E.03064
G1 X109.047 Y84.849 E.03064
G1 X108.188 Y83.99 E.06129
G1 X108.618 Y83.561 E.03064
G1 X109.047 Y83.99 E.03064
G1 X109.864 Y83.173 E.05832
M204 P1250
G1 X109.75 Y82.976 F9000
M204 P800
G1 F1200
G1 X109.476 Y82.702 E.01956
G1 X109.047 Y83.132 E.03064
G1 X108.618 Y82.702 E.03064
G1 X109.047 Y82.273 E.03064
G1 X108.618 Y81.844 E.03064
G1 X107.759 Y82.702 E.06129
G1 X108.188 Y83.132 E.03064
G1 X107.759 Y83.561 E.03064
G1 X107.33 Y83.132 E.03064
G1 X106.9 Y83.561 E.03064
G1 X107.33 Y83.99 E.03064
G1 X106.9 Y84.419 E.03064
G1 X106.471 Y83.99 E.03064
G1 X105.613 Y84.849 E.06129
G1 X106.042 Y85.278 E.03064
G1 X106.471 Y84.849 E.03064
G1 X106.9 Y85.278 E.03064
G1 X106.471 Y85.707 E.03064
G1 X106.9 Y86.137 E.03064
G1 X107.759 Y85.278 E.06129
G1 X107.33 Y84.849 E.03064
G1 X107.759 Y84.419 E.03064
G1 X108.618 Y85.278 E.06129
G1 X108.188 Y85.707 E.03064
G1 X108.618 Y86.137 E.03064
G1 X109.047 Y85.707 E.03064
G1 X109.905 Y86.566 E.06129
G1 X109.476 Y86.995 E.03064
G1 X109.047 Y86.566 E.03064
G1 X108.618 Y86.995 E.03064
G1 X109.047 Y87.424 E.03064
G1 X108.618 Y87.854 E.03064
G1 X107.759 Y86.995 E.06129
G1 X108.188 Y86.566 E.03064
G1 X107.759 Y86.137 E.03064
G1 X106.471 Y87.424 E.09193
G1 X106.9 Y87.854 E.03064
G1 X107.33 Y87.424 E.03064
G1 X108.188 Y88.283 E.06129
M73 P7 R11
G1 X108.119 Y88.352 E.00491
M204 P1250
G1 X107.42 Y88.373 F9000
M204 P800
G1 F1200
G1 X107.33 Y88.283 E.00641
G1 X107.206 Y88.406 E.0088
M204 P1250
G1 E-2.24 F4200
;WIPE_START
G1 F7200
G1 X107.33 Y88.283 E-.09661
G1 X107.42 Y88.373 E-.07042
;WIPE_END
