; generated by PrusaSlicer 2.4.2 on 2022-05-08 at 15:56:27 UTC


;
;

;
;
; 

; external perimeters extrusion width = 0.45mm
; perimeters extrusion width = 0.45mm
; infill extrusion width = 0.45mm
; solid infill extrusion width = 0.45mm
; top infill extrusion width = 0.40mm
; support material extrusion width = 0.35mm
; first layer extrusion width = 0.42mm

M73 P0 R26
M201 X1250 Y1250 Z400 E5000 ; sets maximum accelerations, mm/sec^2
M203 X180 Y180 Z12 E80 ; sets maximum feedrates, mm / sec
M204 P1250 R1250 T1250 ; sets acceleration (P, T) and retract acceleration (R), mm/sec^2
M205 X8.00 Y8.00 Z2.00 E10.00 ; sets the jerk limits, mm/sec
M205 S0 T0 ; sets the minimum extruding and travel feed rate, mm/sec
M107
;TYPE:Custom
G90 ; use absolute coordinates
M83 ; extruder relative mode
M104 S170 ; set extruder temp for bed leveling
M140 S60 ; set bed temp
M109 R170 ; wait for bed leveling temp
M190 S60 ; wait for bed temp
G28 ; home all without mesh bed level
G29 ; mesh bed leveling 
M104 S215 ; set extruder temp
G92 E0.0
G1 Y-2.0 X179 F2400
G1 Z3 F720
M109 S215 ; wait for extruder temp

; intro line
G1 X170 F1000
G1 Z0.2 F720
G1 X110.0 E8.0 F900
G1 X40.0 E10.0 F700
G92 E0.0

M221 S95 ; set flow
G21 ; set units to millimeters
G90 ; use absolute coordinates
M83 ; use relative distances for extrusion
M900 K0.2 ; Filament gcode LA 1.5
; ; Filament gcode LA 1.0
M107
;LAYER_CHANGE
;Z:0.2
;HEIGHT:0.2
;BEFORE_LAYER_CHANGE
G92 E0.0
;0.2


G1 E-3.2 F4200
G1 Z.2 F9000
;AFTER_LAYER_CHANGE
;0.2
G1 Z.4
G1 X73.912 Y89.615
G1 Z.2
M73 P1 R26
G1 E3.2 F2400
M204 S800
;TYPE:Skirt/Brim
;WIDTH:0.42
G1 F1200
G1 X86.319 Y82.451 E.44921
G1 X87.696 Y82.082 E.0447
G1 X92.304 Y82.082 E.14447
G1 X93.681 Y82.451 E.0447
G1 X106.088 Y89.615 E.44921
G1 X107.12 Y90.664 E.04612
G1 X107.464 Y92.094 E.04612
G1 X107.096 Y93.377 E.04186
G1 X105.596 Y95.975 E.09406
G1 X104.013 Y97.233 E.06339
G1 X92.302 Y100.798 E.38384
G1 X91.5 Y100.918 E.02543
G1 X88.5 Y100.918 E.09406
G1 X87.698 Y100.798 E.02543
G1 X75.987 Y97.233 E.38384
G1 X74.404 Y95.975 E.06339
G1 X72.904 Y93.377 E.09406
G1 X72.535 Y91.953 E.04612
G1 X72.952 Y90.543 E.04612
G1 X73.868 Y89.657 E.03997
M204 S1250
G1 X74.1 Y89.941 F9000
M204 S800
G1 F1200
G1 X86.508 Y82.778 E.44921
G1 X87.696 Y82.459 E.03858
G1 X92.304 Y82.459 E.14447
G1 X93.492 Y82.778 E.03858
G1 X105.9 Y89.941 E.44921
G1 X106.836 Y90.934 E.04278
G1 X107.072 Y92.278 E.04278
G1 X106.77 Y93.189 E.03008
G1 X105.27 Y95.787 E.09406
G1 X103.904 Y96.872 E.05471
G1 X92.192 Y100.437 E.38384
G1 X91.5 Y100.541 E.02195
G1 X88.5 Y100.541 E.09406
G1 X87.808 Y100.437 E.02195
G1 X76.096 Y96.872 E.38384
G1 X74.73 Y95.787 E.05471
G1 X73.23 Y93.189 E.09406
G1 X72.916 Y91.861 E.04278
G1 X73.383 Y90.579 E.04278
G1 X74.055 Y89.981 E.0282
M204 S1250
; printing object door_blocker.stl id:0 copy 0
G1 E-2.24 F4200
;WIPE_START
G1 F7200
G1 X75.48 Y89.157 E-.912
;WIPE_END
G1 E-.048 F4200
G1 Z.4 F9000
G1 X87.656 Y91.051
G1 Z.2
G1 E3.2 F2400
M204 S800
;TYPE:Perimeter
G1 F1200
G1 X87.753 Y90.689 E.01175
G1 X87.884 Y90.391 E.0102
G1 X88.101 Y90.051 E.01266
G1 X88.311 Y89.811 E.01
G1 X88.551 Y89.601 E.01
G1 X88.891 Y89.384 E.01265
G1 X89.189 Y89.253 E.0102
G1 X89.579 Y89.149 E.01265
G1 X89.902 Y89.113 E.0102
G1 X90.318 Y89.131 E.01306
G1 X90.817 Y89.253 E.01611
G1 X91.279 Y89.481 E.01612
G1 X91.619 Y89.742 E.01346
G1 X91.954 Y90.124 E.01591
G1 X92.169 Y90.496 E.01347
G1 X92.334 Y90.982 E.01611
G1 X92.387 Y91.466 E.01525
G1 X92.385 Y94.611 E.09861
G1 X92.351 Y94.921 E.00979
G1 X92.247 Y95.311 E.01265
G1 X92.116 Y95.609 E.0102
G1 X91.899 Y95.949 E.01266
G1 X91.685 Y96.194 E.0102
G1 X91.375 Y96.453 E.01265
G1 X91.097 Y96.622 E.0102
G1 X90.724 Y96.776 E.01265
G1 X90.409 Y96.854 E.0102
G1 X90 Y96.889 E.01285
G1 X89.579 Y96.853 E.01327
G1 X89.091 Y96.71 E.01591
G1 X88.71 Y96.512 E.01346
G1 X88.31 Y96.19 E.01612
G1 X87.988 Y95.79 E.01612
G1 X87.792 Y95.414 E.01326
G1 X87.665 Y95.011 E.01326
G1 X87.613 Y94.534 E.01504
G1 X87.615 Y91.389 E.09861
G1 X87.645 Y91.11 E.00881
M204 S1250
G1 X88.02 Y91.149 F9000
M204 S800
;TYPE:External perimeter
G1 F1200
G1 X88.11 Y90.814 E.01085
G1 X88.218 Y90.57 E.00839
G1 X88.403 Y90.278 E.01085
G1 X88.578 Y90.078 E.00832
G1 X88.778 Y89.903 E.00832
G1 X89.07 Y89.718 E.01085
G1 X89.314 Y89.61 E.00839
G1 X89.649 Y89.52 E.01084
G1 X89.915 Y89.491 E.00839
G1 X90.265 Y89.506 E.01099
G1 X90.688 Y89.61 E.01365
G1 X91.079 Y89.803 E.01366
G1 X91.36 Y90.019 E.01113
G1 X91.646 Y90.344 E.01358
G1 X91.824 Y90.652 E.01114
G1 X91.964 Y91.065 E.01366
G1 X92.01 Y91.486 E.0133
G1 X92.008 Y94.59 E.09731
G1 X91.98 Y94.851 E.00825
G1 X91.89 Y95.186 E.01085
G1 X91.782 Y95.43 E.00839
G1 X91.597 Y95.722 E.01085
G1 X91.42 Y95.923 E.00839
G1 X91.155 Y96.146 E.01085
G1 X90.926 Y96.285 E.00839
G1 X90.607 Y96.417 E.01085
G1 X90.347 Y96.48 E.00839
G1 X90 Y96.511 E.01091
G1 X89.649 Y96.48 E.01107
G1 X89.233 Y96.359 E.01359
G1 X88.918 Y96.195 E.01114
G1 X88.578 Y95.922 E.01366
G1 X88.305 Y95.582 E.01366
G1 X88.142 Y95.269 E.01106
G1 X88.036 Y94.933 E.01106
G1 X87.99 Y94.514 E.01323
G1 X87.992 Y91.41 E.09731
G1 X88.014 Y91.208 E.00636
M204 S1250
G1 X87.756 Y90.926 F9000
G1 E-2.24 F4200
;WIPE_START
G1 F7200
G1 X88.11 Y90.814 E-.22468
G1 X88.218 Y90.57 E-.14828
G1 X88.403 Y90.278 E-.1917
G1 X88.578 Y90.078 E-.14702
G1 X88.778 Y89.903 E-.14702
G1 X88.859 Y89.852 E-.05331
;WIPE_END
G1 E-.048 F4200
G1 Z.4 F9000
G1 X97.702 Y90.509
G1 Z.2
G1 E3.2 F2400
M204 S800
;TYPE:Perimeter
G1 F1200
G1 X91.163 Y97.376 E.29734
G1 X88.837 Y97.376 E.07291
G1 X82.298 Y90.509 E.29734
G1 X77.077 Y93.523 E.18902
G1 X76.364 Y92.288 E.04471
G1 X87.907 Y85.624 E.41792
G1 X92.093 Y85.624 E.13125
G1 X103.636 Y92.288 E.41792
G1 X102.923 Y93.523 E.04471
G1 X97.754 Y90.539 E.18714
M204 S1250
G1 X97.771 Y90.984 F9000
M204 S800
;TYPE:External perimeter
G1 F1200
G1 X91.324 Y97.753 E.29311
G1 X88.676 Y97.753 E.08304
G1 X82.229 Y90.984 E.29311
G1 X76.939 Y94.038 E.19154
G1 X75.849 Y92.15 E.06835
M73 P2 R26
G1 X87.806 Y85.247 E.43291
G1 X92.194 Y85.247 E.13758
G1 X104.151 Y92.15 E.43291
G1 X103.061 Y94.038 E.06835
G1 X97.823 Y91.014 E.18966
M204 S1250
G1 X97.434 Y90.769 F9000
G1 X97.914 Y90.304
M204 S800
;TYPE:Solid infill
G1 F1200
G1 X97.776 Y90.167 E.00608
G1 X98.043 Y89.9 E.01182
G1 X97.776 Y89.634 E.01182
G1 X97.51 Y89.9 E.01182
G1 X96.976 Y89.367 E.02365
G1 X97.243 Y89.1 E.01182
G1 X97.51 Y89.367 E.01182
G1 X97.693 Y89.183 E.00813
M204 S1250
G1 X98.087 Y89.411 F9000
M204 S800
G1 F1200
G1 X98.31 Y89.634 E.00988
G1 X98.369 Y89.574 E.00265
M204 S1250
G1 X98.416 Y90.594 F9000
M204 S800
G1 F1200
G1 X98.576 Y90.433 E.00712
G1 X98.31 Y90.167 E.01182
G1 X98.707 Y89.769 E.01764
M204 S1250
G1 X99.045 Y89.964 F9000
M204 S800
G1 F1200
G1 X98.843 Y90.167 E.00898
G1 X99.11 Y90.433 E.01182
G1 X99.376 Y90.167 E.01182
G1 X99.643 Y90.433 E.01182
G1 X99.11 Y90.967 E.02365
G1 X98.843 Y90.7 E.01182
G1 X98.754 Y90.789 E.00395
M204 S1250
G1 X99.43 Y91.18 F9000
M204 S800
G1 F1200
G1 X99.643 Y90.967 E.00944
G1 X99.909 Y91.233 E.01182
G1 X100.176 Y90.967 E.01182
G1 X99.909 Y90.7 E.01182
G1 X100.06 Y90.55 E.00666
M204 S1250
G1 X100.61 Y90.868 F9000
M204 S800
G1 F1200
G1 X100.976 Y91.233 E.01622
G1 X101.074 Y91.135 E.00434
M204 S1250
G1 X101.412 Y91.331 F9000
M204 S800
G1 F1200
G1 X101.243 Y91.5 E.00751
G1 X101.776 Y92.033 E.02365
G1 X102.043 Y91.767 E.01182
G1 X102.309 Y92.033 E.01182
G1 X101.797 Y92.546 E.02273
M204 S1250
G1 X101.699 Y92.489 F9000
M204 S800
G1 F1200
G1 X101.509 Y92.3 E.0084
G1 X101.458 Y92.351 E.00225
M204 S1250
G1 X101.12 Y92.155 F9000
M204 S800
G1 F1200
G1 X101.243 Y92.033 E.00542
G1 X100.443 Y91.233 E.03547
G1 X100.176 Y91.5 E.01182
G1 X100.437 Y91.761 E.01157
M204 S1250
G1 E-2.24 F4200
;WIPE_START
G1 F7200
G1 X100.176 Y91.5 E-.20452
G1 X100.443 Y91.233 E-.20896
G1 X101.079 Y91.869 E-.49851
;WIPE_END
G1 E-.048 F4200
G1 Z.4 F9000
G1 X102.135 Y92.741
G1 Z.2
G1 E3.2 F2400
M204 S800
G1 F1200
G1 X102.309 Y92.567 E.00774
G1 X102.576 Y92.833 E.01182
G1 X102.842 Y92.567 E.01182
G1 X102.576 Y92.3 E.01182
G1 X102.764 Y92.111 E.00836
M204 S1250
G1 X103.134 Y92.325 F9000
M204 S800
G1 F1200
G1 X103.232 Y92.423 E.00435
M204 S1250
G1 E-2.24 F4200
;WIPE_START
G1 F7200
G1 X103.134 Y92.325 E-.07689
;WIPE_END
G1 E-.88311 F4200
G1 Z.4 F9000
G1 X92.67 Y92.074
G1 Z.2
G1 E3.2 F2400
M204 S800
G1 F1200
G1 X92.71 Y92.033 E.00181
G1 X92.67 Y91.993 E.0018
M204 S1250
G1 X92.626 Y91.051 F9000
M204 S800
G1 F1200
G1 X92.71 Y90.967 E.00374
G1 X92.585 Y90.841 E.00558
M204 S1250
G1 X92.513 Y90.631 F9000
M204 S800
G1 F1200
G1 X92.71 Y90.433 E.00874
G1 X92.977 Y90.7 E.01182
G1 X93.244 Y90.433 E.01182
G1 X92.71 Y89.9 E.02365
G1 X92.444 Y90.167 E.01182
G1 X92.177 Y89.9 E.01182
G1 X92.444 Y89.634 E.01182
G1 X91.91 Y89.1 E.02365
G1 X91.644 Y89.367 E.01182
G1 X91.806 Y89.529 E.00718
M204 S1250
G1 X91.827 Y89.55 F9000
M204 S800
G1 F1200
G1 X91.905 Y89.639 E.00371
M204 S1250
G1 X90.944 Y89 F9000
M204 S800
G1 F1200
G1 X91.11 Y88.834 E.00739
G1 X91.377 Y89.1 E.01182
G1 X91.644 Y88.834 E.01182
G1 X91.11 Y88.3 E.02365
G1 X90.844 Y88.567 E.01182
G1 X90.577 Y88.3 E.01182
G1 X90.844 Y88.034 E.01182
G1 X90.311 Y87.5 E.02365
G1 X90.044 Y87.767 E.01182
G1 X90.311 Y88.034 E.01182
G1 X90.044 Y88.3 E.01182
G1 X89.777 Y88.034 E.01182
G1 X89.511 Y88.3 E.01182
G1 X90.044 Y88.834 E.02365
G1 X90.311 Y88.567 E.01182
G1 X90.577 Y88.834 E.01182
G1 X90.521 Y88.89 E.00249
M204 S1250
G1 X89.545 Y88.868 F9000
M204 S800
G1 F1200
G1 X89.244 Y88.567 E.01334
G1 X88.977 Y88.834 E.01182
G1 X89.122 Y88.978 E.00641
M204 S1250
G1 X88.75 Y89.139 F9000
M204 S800
G1 F1200
G1 X88.711 Y89.1 E.00172
G1 X88.536 Y89.275 E.00775
M204 S1250
G1 X87.673 Y90.196 F9000
M204 S800
G1 F1200
G1 X87.644 Y90.167 E.00129
G1 X87.378 Y90.433 E.01182
G1 X87.502 Y90.558 E.00551
M204 S1250
G1 X87.384 Y90.973 F9000
M204 S800
G1 F1200
G1 X87.111 Y90.7 E.01211
G1 X86.844 Y90.967 E.01182
G1 X87.111 Y91.233 E.01182
G1 X86.844 Y91.5 E.01182
G1 X86.578 Y91.233 E.01182
G1 X86.311 Y91.5 E.01182
G1 X86.844 Y92.033 E.02365
G1 X87.111 Y91.767 E.01182
G1 X87.331 Y91.987 E.00978
M204 S1250
G1 X87.331 Y92.079 F9000
M204 S800
G1 F1200
G1 X87.111 Y92.3 E.00978
G1 X87.331 Y92.52 E.00977
M204 S1250
G1 E-2.24 F4200
;WIPE_START
G1 F7200
G1 X87.111 Y92.3 E-.1726
G1 X87.331 Y92.079 E-.17278
;WIPE_END
G1 E-.61462 F4200
G1 Z.4 F9000
G1 X85.719 Y93.692
G1 Z.2
G1 E3.2 F2400
M204 S800
G1 F1200
G1 X85.778 Y93.633 E.0026
G1 X85.511 Y93.366 E.01182
G1 X85.459 Y93.419 E.00231
M204 S1250
G1 X85.199 Y93.145 F9000
M204 S800
G1 F1200
G1 X85.245 Y93.1 E.00202
G1 X84.978 Y92.833 E.01182
G1 X84.939 Y92.872 E.00173
M204 S1250
G1 X84.679 Y92.599 F9000
M204 S800
G1 F1200
G1 X84.711 Y92.567 E.00144
G1 X84.445 Y92.3 E.01182
G1 X84.419 Y92.326 E.00115
M204 S1250
G1 X84.158 Y92.053 F9000
M204 S800
G1 F1200
G1 X84.178 Y92.033 E.00087
G1 X83.911 Y91.767 E.01182
G1 X83.898 Y91.78 E.00058
M204 S1250
G1 X83.638 Y91.506 F9000
M204 S800
G1 F1200
G1 X84.178 Y90.967 E.02393
G1 X83.911 Y90.7 E.01182
G1 X83.645 Y90.967 E.01182
G1 X83.111 Y90.433 E.02365
G1 X83.378 Y90.167 E.01182
G1 X83.645 Y90.433 E.01182
G1 X83.911 Y90.167 E.01182
G1 X83.645 Y89.9 E.01182
G1 X83.911 Y89.634 E.01182
G1 X84.445 Y90.167 E.02365
G1 X84.178 Y90.433 E.01182
G1 X84.445 Y90.7 E.01182
G1 X84.711 Y90.433 E.01182
G1 X85.245 Y90.967 E.02365
G1 X84.978 Y91.233 E.01182
G1 X84.711 Y90.967 E.01182
G1 X84.178 Y91.5 E.02365
G1 X84.445 Y91.767 E.01182
G1 X84.711 Y91.5 E.01182
G1 X84.978 Y91.767 E.01182
G1 X84.711 Y92.033 E.01182
G1 X84.978 Y92.3 E.01182
G1 X85.511 Y91.767 E.02365
G1 X85.245 Y91.5 E.01182
G1 X85.511 Y91.233 E.01182
G1 X86.311 Y92.033 E.03547
G1 X86.044 Y92.3 E.01182
G1 X85.778 Y92.033 E.01182
G1 X85.245 Y92.567 E.02365
G1 X85.511 Y92.833 E.01182
G1 X85.778 Y92.567 E.01182
G1 X86.044 Y92.833 E.01182
G1 X85.778 Y93.1 E.01182
G1 X86.044 Y93.366 E.01182
G1 X86.578 Y92.833 E.02365
G1 X86.311 Y92.567 E.01182
G1 X86.578 Y92.3 E.01182
G1 X87.111 Y92.833 E.02365
G1 X86.844 Y93.1 E.01182
G1 X87.111 Y93.366 E.01182
G1 X87.331 Y93.147 E.00975
M204 S1250
G1 X87.331 Y93.68 F9000
M204 S800
G1 F1200
G1 X87.111 Y93.9 E.00974
G1 X87.33 Y94.119 E.00973
M204 S1250
G1 X87.33 Y94.214 F9000
M204 S800
G1 F1200
G1 X87.111 Y94.433 E.00972
G1 X86.578 Y93.9 E.02365
G1 X86.844 Y93.633 E.01182
G1 X86.578 Y93.366 E.01182
G1 X85.979 Y93.965 E.02654
M204 S1250
G1 X86.239 Y94.238 F9000
M204 S800
G1 F1200
G1 X86.311 Y94.166 E.00318
G1 X86.844 Y94.7 E.02365
G1 X86.76 Y94.784 E.00376
M204 S1250
G1 X87.02 Y95.058 F9000
M204 S800
G1 F1200
G1 X87.111 Y94.966 E.00405
G1 X87.221 Y95.076 E.00487
M204 S1250
G1 X87.57 Y95.359 F9000
M204 S800
;TYPE:Gap fill
;WIDTH:0.281576
G1 F1200
G1 X87.508 Y95.534 E.00369
M204 S1250
M204 S800
;WIDTH:0.281578
G1 X87.513 Y95.541 E.00017
M204 S1250
M204 S800
;WIDTH:0.278811
G1 X87.603 Y95.667 E.00302
M204 S1250
M204 S800
;WIDTH:0.235621
G1 X87.692 Y95.792 E.00247
M204 S1250
M204 S800
;WIDTH:0.192431
G1 X87.782 Y95.918 E.00192
M204 S1250
M204 S800
;WIDTH:0.149243
G1 X87.788 Y95.926 E.00009
M204 S1250
M204 S800
;WIDTH:0.147343
G1 X88.153 Y96.343 E.00481
M204 S1250
M204 S800
;WIDTH:0.100654
G1 X88.157 Y96.347 E.00003
M204 S1250
M204 S800
;WIDTH:0.137646
G1 X88.362 Y96.535 E.00218
M204 S1250
M204 S800
;WIDTH:0.174638
G1 X88.566 Y96.722 E.00304
M204 S1250
M204 S800
;WIDTH:0.177685
G1 X88.576 Y96.731 E.00015
M204 S1250
M204 S800
;WIDTH:0.216517
G1 X88.67 Y96.802 E.00171
M204 S1250
M204 S800
;WIDTH:0.255349
G1 X88.765 Y96.873 E.00209
M204 S1250
M204 S800
;WIDTH:0.29418
G1 X88.859 Y96.944 E.00247
M204 S1250
M204 S800
;WIDTH:0.333012
G1 X88.954 Y97.015 E.00285
M204 S1250
M204 S800
;WIDTH:0.345673
G1 X88.978 Y97.032 E.00075
M204 S1250
M204 S800
;WIDTH:0.348904
G1 X88.984 Y97.035 E.00016
M204 S1250
M204 S800
;WIDTH:0.348904
G1 X89.118 Y97.054 E.00346
M204 S1250
M204 S800
;WIDTH:0.310452
G1 X89.253 Y97.073 E.00303
M204 S1250
M204 S800
;WIDTH:0.272
G1 X89.388 Y97.093 E.00259
M204 S1250
M204 S800
;WIDTH:0.233548
G1 X89.522 Y97.112 E.00216
M204 S1250
M204 S800
;WIDTH:0.195097
G1 X89.537 Y97.113 E.00019
M204 S1250
M204 S800
;WIDTH:0.192341
G1 X89.995 Y97.133 E.0057
M204 S1250
M204 S800
;WIDTH:0.152338
G1 X90.005 Y97.133 E.00009
M204 S1250
M204 S800
;WIDTH:0.19086
G1 X90.446 Y97.114 E.00543
M204 S1250
M204 S800
;WIDTH:0.192724
G1 X90.457 Y97.113 E.00014
M204 S1250
M204 S800
;WIDTH:0.235416
G1 X90.634 Y97.092 E.00285
M204 S1250
M204 S800
;WIDTH:0.278106
G1 X90.811 Y97.07 E.00349
M204 S1250
M204 S800
;WIDTH:0.283908
G1 X91.262 Y96.998 E.00916
M204 S1250
G1 X90.819 Y97.188 F9000
M204 S800
;WIDTH:0.252785
G1 F1200
G1 X91.236 Y96.878 E.00907
M204 S1250
M204 S800
;WIDTH:0.247339
G1 X91.375 Y96.766 E.00304
M204 S1250
M204 S800
;WIDTH:0.200243
G1 X91.514 Y96.654 E.00234
M204 S1250
M204 S800
;WIDTH:0.153148
G1 X91.52 Y96.648 E.00008
M204 S1250
M204 S800
;WIDTH:0.151572
G1 X91.836 Y96.352 E.00391
M204 S1250
M204 S800
;WIDTH:0.10321
G1 X91.839 Y96.349 E.00002
M204 S1250
M204 S800
;WIDTH:0.117558
G1 X92.078 Y96.087 E.0022
M204 S1250
M204 S800
;WIDTH:0.118232
G1 X92.082 Y96.083 E.00004
M204 S1250
M204 S800
;WIDTH:0.16025
G1 X92.216 Y95.912 E.00212
M204 S1250
M204 S800
;WIDTH:0.20227
G1 X92.35 Y95.741 E.00288
M204 S1250
M204 S800
;WIDTH:0.205613
G1 X92.357 Y95.731 E.00017
M204 S1250
M204 S800
;WIDTH:0.246154
G1 X92.456 Y95.582 E.00302
M204 S1250
M204 S800
;WIDTH:0.286694
G1 X92.555 Y95.433 E.00362
M204 S1250
G1 X92.592 Y95.115 F9000
M204 S800
;TYPE:Solid infill
;WIDTH:0.42
G1 F1200
G1 X92.601 Y95.124 E.00041
M204 S1250
G1 X92.732 Y95.211 F9000
M204 S800
G1 F1200
G1 X93.244 Y94.7 E.02268
G1 X92.977 Y94.433 E.01182
G1 X92.71 Y94.7 E.01182
G1 X92.665 Y94.654 E.002
M204 S1250
G1 X92.668 Y94.208 F9000
M204 S800
G1 F1200
G1 X92.71 Y94.166 E.00186
G1 X92.668 Y94.125 E.00186
M204 S1250
G1 X92.669 Y93.141 F9000
M204 S800
G1 F1200
G1 X92.977 Y92.833 E.01365
G1 X92.71 Y92.567 E.01182
G1 X92.977 Y92.3 E.01182
G1 X93.244 Y92.567 E.01182
G1 X93.777 Y92.033 E.02365
G1 X93.51 Y91.767 E.01182
G1 X93.244 Y92.033 E.01182
G1 X92.71 Y91.5 E.02365
G1 X92.977 Y91.233 E.01182
G1 X93.244 Y91.5 E.01182
G1 X93.51 Y91.233 E.01182
G1 X93.244 Y90.967 E.01182
G1 X93.51 Y90.7 E.01182
G1 X94.043 Y91.233 E.02365
G1 X93.777 Y91.5 E.01182
