; generated by PrusaSlicer 2.6.0-alpha6 on 2023-05-07 at 19:39:57 UTC


;
;

;
;
; 

; external perimeters extrusion width = 0.68mm
; perimeters extrusion width = 0.68mm
; infill extrusion width = 0.68mm
; solid infill extrusion width = 0.68mm
; top infill extrusion width = 0.60mm
; support material extrusion width = 0.55mm
; first layer extrusion width = 0.65mm

M73 P0 R14
M201 X2500 Y2500 Z400 E5000 ; sets maximum accelerations, mm/sec^2
M203 X180 Y180 Z12 E80 ; sets maximum feedrates, mm / sec
M204 P1250 R1250 T2500 ; sets acceleration (P, T) and retract acceleration (R), mm/sec^2
M205 X8.00 Y8.00 Z2.00 E10.00 ; sets the jerk limits, mm/sec
M205 S0 T0 ; sets the minimum extruding and travel feed rate, mm/sec
;TYPE:Custom
M862.3 P "MINI" ; printer model check
G90 ; use absolute coordinates
M83 ; extruder relative mode
M104 S170 ; set extruder temp for bed leveling
M140 S60 ; set bed temp
M109 R170 ; wait for bed leveling temp
M190 S60 ; wait for bed temp
M204 T1250 ; set travel acceleration
G28 ; home all without mesh bed level
G29 ; mesh bed leveling 
M204 T2500 ; restore travel acceleration
M104 S215 ; set extruder temp
G92 E0
G1 Y-2 X179 F2400
G1 Z3 F720
M109 S215 ; wait for extruder temp

; intro line
G1 X170 F1000
G1 Z0.2 F720
G1 X110 E8 F900
G1 X40 E10 F700
G92 E0

M221 S95 ; set flow
G21 ; set units to millimeters
G90 ; use absolute coordinates
M83 ; use relative distances for extrusion
M900 K0.12 ; Filament gcode LA 1.5
; ; Filament gcode LA 1.0
M107
;LAYER_CHANGE
;Z:0.2
;HEIGHT:0.2
;BEFORE_LAYER_CHANGE
G92 E0.0
;0.2


M73 P1 R14
G1 E-3.2 F4200
G1 Z.2 F720
;AFTER_LAYER_CHANGE
;0.2
G1 Z.4
G1 X75.289 Y79.198 F9000
G1 Z.2 F720
G1 E3.2 F2400
M204 P800
;TYPE:Skirt/Brim
;WIDTH:0.65
G1 F1200
G1 X76.519 Y78.889 E.06402
G1 X103.481 Y78.889 E1.36101
G1 X104.857 Y79.281 E.07222
M73 P2 R14
G1 X105.739 Y80.193 E.06404
G1 X107.489 Y83.224 E.17667
G1 X107.837 Y84.611 E.07218
G1 X107.511 Y85.793 E.06189
G1 X99.742 Y99.788 E.808
G1 X98.731 Y100.8 E.07221
G1 X97.462 Y101.13 E.06619
G1 X82.538 Y101.13 E.75335
G1 X81.162 Y100.737 E.07224
G1 X80.258 Y99.788 E.06616
G1 X72.489 Y85.793 E.808
G1 X72.165 Y84.4 E.07219
G1 X72.511 Y83.224 E.06188
G1 X74.261 Y80.193 E.17667
G1 X75.224 Y79.26 E.06768
M204 P1250
; printing object elec_link.stl id:0 copy 0
G1 E-2.24 F4200
;WIPE_START
G1 F7200
G1 X76.519 Y78.889 E-.74652
G1 X76.904 Y78.889 E-.21348
;WIPE_END
G1 Z.4 F720
G1 X94.363 Y89.512 F9000
G1 Z.2 F720
G1 E3.2 F2400
M204 P800
;TYPE:Perimeter
;WIDTH:0.649999
G1 F1200
G1 X94.203 Y89.644 E.01047
G1 X94.061 Y89.864 E.01322
G1 X93.994 Y90.074 E.01113
G1 X93.994 Y90.409 E.01691
G1 X94.101 Y90.698 E.01556
G1 X95.9 Y93.814 E.18162
G1 X95.9 Y97.391 E.18056
G1 X84.1 Y97.391 E.59565
G1 X84.1 Y93.814 E.18056
G1 X85.899 Y90.698 E.18162
G1 X85.969 Y90.546 E.00845
G1 X86.021 Y90.257 E.01482
G1 X85.939 Y89.864 E.02027
G1 X85.797 Y89.644 E.01322
G1 X85.566 Y89.454 E.0151
G1 X76.688 Y84.328 E.51749
G1 X77.306 Y83.258 E.06237
G1 X83.735 Y86.97 E.37474
G1 X83.878 Y87.037 E.00797
G1 X84.191 Y87.092 E.01604
G1 X95.809 Y87.092 E.58646
G1 X96.265 Y86.97 E.02383
G1 X102.694 Y83.258 E.37474
G1 X103.312 Y84.328 E.06237
G1 X94.432 Y89.455 E.5176
M204 P1250
G1 X94.738 Y89.979 F9000
M204 P800
;TYPE:External perimeter
G1 F1200
G1 X94.66 Y90.043 E.00509
G1 X94.591 Y90.186 E.00801
G1 X94.626 Y90.394 E.01065
G1 X96.507 Y93.652 E.1899
G1 X96.507 Y97.998 E.21938
G1 X83.493 Y97.998 E.65693
M73 P3 R14
G1 X83.493 Y93.652 E.21938
G1 X85.374 Y90.394 E.1899
G1 X85.409 Y90.298 E.00516
G1 X85.387 Y90.116 E.00925
G1 X85.262 Y89.979 E.00936
G1 X75.859 Y84.55 E.54809
G1 X77.084 Y82.428 E.12368
G1 X84.039 Y86.444 E.40541
G1 X84.191 Y86.485 E.00795
G1 X95.809 Y86.485 E.58646
G1 X95.961 Y86.444 E.00795
G1 X102.916 Y82.428 E.40541
G1 X104.141 Y84.55 E.12368
M73 P3 R13
G1 X94.816 Y89.934 E.54354
M204 P1250
G1 X94.643 Y89.946 F9000
G1 X94.076 Y89.164
M204 P800
;TYPE:Solid infill
;WIDTH:0.65
G1 F1200
G1 X93.924 Y89.012 E.01085
G1 X93.065 Y89.871 E.06132
G1 X93.495 Y90.3 E.03066
G1 X93.065 Y90.729 E.03066
G1 X91.777 Y89.442 E.09191
G1 X92.207 Y89.012 E.0307
G1 X92.636 Y89.442 E.03066
G1 X93.495 Y88.583 E.06132
G1 X93.065 Y88.154 E.03066
G1 X92.636 Y88.583 E.03063
G1 X92.207 Y88.154 E.03063
G1 X92.636 Y87.725 E.03063
G1 X92.459 Y87.547 E.01267
M204 P1250
G1 X91.955 Y87.547 F9000
M204 P800
G1 F1200
G1 X91.348 Y88.154 E.04333
G1 X91.777 Y88.583 E.03063
G1 X91.348 Y89.012 E.03063
G1 X90.919 Y88.583 E.03063
G1 X90.06 Y89.442 E.06132
G1 X90.49 Y89.871 E.03066
G1 X90.919 Y89.442 E.03063
G1 X91.777 Y90.3 E.06125
G1 X91.348 Y90.729 E.03063
G1 X90.919 Y90.3 E.03063
G1 X90.49 Y90.729 E.03063
G1 X90.919 Y91.159 E.03066
G1 X90.49 Y91.588 E.03063
G1 X89.631 Y90.729 E.06132
G1 X90.06 Y90.3 E.03063
G1 X89.631 Y89.871 E.03063
G1 X88.773 Y90.729 E.06125
G1 X89.202 Y91.159 E.03066
G1 X88.773 Y91.588 E.03063
G1 X88.343 Y91.159 E.03066
G1 X87.485 Y92.017 E.06125
G1 X87.914 Y92.447 E.03066
G1 X88.343 Y92.017 E.03066
G1 X88.773 Y92.447 E.0307
G1 X88.343 Y92.876 E.03066
G1 X88.773 Y93.305 E.03066
G1 X89.631 Y92.447 E.06125
G1 X89.202 Y92.017 E.03066
G1 X89.631 Y91.588 E.03063
G1 X90.49 Y92.447 E.06132
G1 X90.06 Y92.876 E.03066
G1 X90.49 Y93.305 E.03066
G1 X90.919 Y92.876 E.03063
G1 X91.777 Y93.734 E.06125
G1 X91.348 Y94.164 E.03066
G1 X90.919 Y93.734 E.03066
G1 X90.49 Y94.164 E.03066
G1 X90.919 Y94.593 E.03063
G1 X90.49 Y95.022 E.03063
G1 X89.631 Y94.164 E.06129
G1 X90.06 Y93.734 E.03066
G1 X89.631 Y93.305 E.03063
G1 X88.343 Y94.593 E.09195
G1 X88.773 Y95.022 E.03066
G1 X89.202 Y94.593 E.03063
G1 X90.06 Y95.451 E.06125
G1 X89.631 Y95.881 E.03066
G1 X89.202 Y95.451 E.03066
G1 X88.773 Y95.881 E.03066
G1 X89.202 Y96.31 E.03063
G1 X88.773 Y96.739 E.03063
G1 X87.914 Y95.881 E.06129
G1 X88.343 Y95.451 E.03066
G1 X87.914 Y95.022 E.03063
G1 X87.485 Y95.451 E.03063
G1 X86.626 Y94.593 E.06129
G1 X87.056 Y94.164 E.03066
G1 X87.485 Y94.593 E.03063
G1 X88.343 Y93.734 E.06129
G1 X87.914 Y93.305 E.03063
G1 X87.485 Y93.734 E.03063
G1 X87.056 Y93.305 E.03063
G1 X87.485 Y92.876 E.03063
G1 X87.056 Y92.447 E.03063
G1 X86.197 Y93.305 E.06129
G1 X86.626 Y93.734 E.03063
G1 X86.197 Y94.164 E.03066
G1 X85.338 Y93.305 E.06132
G1 X85.768 Y92.876 E.03066
G1 X85.387 Y92.495 E.0272
M204 P1250
G1 X86.015 Y91.406 F9000
M204 P800
G1 F1200
G1 X86.197 Y91.588 E.01299
G1 X85.768 Y92.017 E.03063
G1 X86.197 Y92.447 E.03066
G1 X87.056 Y91.588 E.06132
G1 X86.626 Y91.159 E.03066
G1 X87.056 Y90.729 E.0307
G1 X87.485 Y91.159 E.03066
G1 X88.343 Y90.3 E.06129
G1 X87.914 Y89.871 E.03063
G1 X87.485 Y90.3 E.03063
G1 X87.056 Y89.871 E.03063
G1 X87.485 Y89.442 E.03063
G1 X87.056 Y89.012 E.03066
G1 X86.364 Y89.704 E.0494
M204 P1250
G1 X86.467 Y90.141 F9000
M204 P800
G1 F1200
G1 X86.626 Y90.3 E.01135
G1 X86.456 Y90.47 E.01214
M204 P1250
G1 X85.991 Y89.219 F9000
M204 P800
G1 F1200
G1 X86.626 Y88.583 E.04537
G1 X86.197 Y88.154 E.03063
G1 X85.768 Y88.583 E.03063
G1 X85.338 Y88.154 E.03066
G1 X85.768 Y87.725 E.03066
G1 X85.59 Y87.547 E.01271
M204 P1250
G1 X85.087 Y87.547 F9000
M204 P800
G1 F1200
G1 X84.48 Y88.154 E.04333
G1 X84.828 Y88.502 E.02484
M204 P1250
G1 X84.228 Y87.547 F9000
M204 P800
G1 F1200
G1 X83.842 Y87.933 E.02756
M204 P1250
G1 X83.298 Y87.619 F9000
M204 P800
M73 P4 R13
G1 F1200
G1 X83.538 Y87.379 E.01713
M204 P1250
G1 X82.992 Y87.066 F9000
M204 P800
G1 F1200
G1 X82.763 Y87.295 E.01635
G1 X82.334 Y86.866 E.03063
G1 X82.448 Y86.752 E.00814
M204 P1250
G1 X81.903 Y86.438 F9000
M204 P800
G1 F1200
G1 X81.665 Y86.676 E.01699
M204 P1250
G1 X80.765 Y86.156 F9000
M204 P800
G1 F1200
G1 X80.187 Y85.578 E.04126
G1 X80.032 Y85.733 E.01107
M204 P1250
G1 X79.488 Y85.419 F9000
M204 P800
G1 F1200
G1 X79.726 Y85.181 E.01699
M204 P1250
G1 X78.638 Y84.552 F9000
M204 P800
G1 F1200
G1 X78.47 Y84.72 E.01199
G1 X78.041 Y84.29 E.03066
G1 X78.093 Y84.238 E.00371
M204 P1250
G1 X77.549 Y83.924 F9000
M204 P800
G1 F1200
G1 X77.311 Y84.162 E.01699
M204 P1250
G1 E-2.24 F4200
;WIPE_START
G1 F7200
G1 X77.549 Y83.924 E-.18652
;WIPE_END
G1 E-.77348 F4200
G1 Z.4 F720
G1 X89.883 Y87.547 F9000
G1 Z.2 F720
G1 E3.2 F2400
M204 P800
G1 F1200
G1 X90.06 Y87.725 E.01267
G1 X90.238 Y87.547 E.01271
M204 P1250
G1 X90.742 Y87.547 F9000
M204 P800
G1 F1200
G1 X90.919 Y87.725 E.01267
G1 X90.06 Y88.583 E.06129
G1 X89.631 Y88.154 E.03063
G1 X89.202 Y88.583 E.03063
G1 X89.631 Y89.012 E.03063
G1 X88.773 Y89.871 E.06129
G1 X88.343 Y89.442 E.03066
G1 X88.773 Y89.012 E.0307
G1 X88.343 Y88.583 E.03066
G1 X87.914 Y89.012 E.03063
G1 X87.485 Y88.583 E.03063
G1 X88.343 Y87.725 E.06125
G1 X88.773 Y88.154 E.03066
G1 X89.202 Y87.725 E.03063
G1 X89.024 Y87.547 E.01271
M204 P1250
G1 X87.662 Y87.547 F9000
M204 P800
G1 F1200
G1 X87.056 Y88.154 E.0433
G1 X86.626 Y87.725 E.03066
G1 X86.804 Y87.547 E.01271
M204 P1250
G1 E-2.24 F4200
;WIPE_START
G1 F7200
G1 X86.626 Y87.725 E-.1395
G1 X87.056 Y88.154 E-.3366
G1 X87.662 Y87.547 E-.47532
;WIPE_END
G1 E-.00858 F4200
G1 Z.4 F720
G1 X84.759 Y93.584 F9000
G1 Z.2 F720
G1 E3.2 F2400
M204 P800
G1 F1200
G1 X84.909 Y93.734 E.01071
G1 X84.555 Y94.088 E.02527
M204 P1250
G1 X84.555 Y95.097 F9000
M204 P800
G1 F1200
G1 X84.909 Y95.451 E.02527
G1 X85.338 Y95.022 E.03063
G1 X84.909 Y94.593 E.03063
G1 X85.338 Y94.164 E.03063
G1 X86.197 Y95.022 E.06129
G1 X85.768 Y95.451 E.03063
G1 X86.197 Y95.881 E.03066
G1 X86.626 Y95.451 E.03066
G1 X87.485 Y96.31 E.06132
G1 X87.056 Y96.739 E.03063
G1 X86.626 Y96.31 E.03066
G1 X86.001 Y96.935 E.04462
M204 P1250
G1 X85.142 Y96.935 F9000
M204 P800
G1 F1200
G1 X85.768 Y96.31 E.04465
G1 X85.338 Y95.881 E.03066
G1 X84.909 Y96.31 E.03063
G1 X84.555 Y95.956 E.02527
M204 P1250
G1 E-2.24 F4200
;WIPE_START
G1 F7200
G1 X84.909 Y96.31 E-.27743
G1 X85.338 Y95.881 E-.33621
G1 X85.768 Y96.31 E-.3366
G1 X85.756 Y96.322 E-.00976
;WIPE_END
G1 Z.4 F720
G1 X87.718 Y96.935 F9000
G1 Z.2 F720
G1 E3.2 F2400
M204 P800
G1 F1200
G1 X87.914 Y96.739 E.01399
G1 X88.11 Y96.935 E.01399
M204 P1250
G1 X89.435 Y96.935 F9000
M204 P800
G1 F1200
G1 X89.631 Y96.739 E.01399
G1 X89.827 Y96.935 E.01399
M204 P1250
G1 X90.294 Y96.935 F9000
M204 P800
G1 F1200
G1 X90.49 Y96.739 E.01399
G1 X90.06 Y96.31 E.03066
G1 X90.49 Y95.881 E.03066
G1 X91.348 Y96.739 E.06125
G1 X91.152 Y96.935 E.01399
M204 P1250
G1 X92.011 Y96.935 F9000
M204 P800
G1 F1200
G1 X92.636 Y96.31 E.04462
G1 X92.207 Y95.881 E.03063
G1 X91.777 Y96.31 E.03066
G1 X90.919 Y95.451 E.06129
G1 X91.348 Y95.022 E.03063
G1 X91.777 Y95.451 E.03063
G1 X92.207 Y95.022 E.03066
G1 X91.777 Y94.593 E.03066
G1 X92.207 Y94.164 E.03066
G1 X93.065 Y95.022 E.06125
G1 X92.636 Y95.451 E.03063
G1 X93.065 Y95.881 E.03066
G1 X93.495 Y95.451 E.0307
G1 X94.353 Y96.31 E.06129
G1 X93.924 Y96.739 E.03063
G1 X93.495 Y96.31 E.03063
G1 X92.869 Y96.935 E.04465
M204 P1250
G1 E-2.24 F4200
;WIPE_START
G1 F7200
G1 X93.495 Y96.31 E-.49021
G1 X93.924 Y96.739 E-.33621
G1 X94.094 Y96.569 E-.13358
;WIPE_END
G1 Z.4 F720
G1 X94.586 Y96.935 F9000
G1 Z.2 F720
G1 E3.2 F2400
M204 P800
G1 F1200
G1 X94.782 Y96.739 E.01399
G1 X94.978 Y96.935 E.01399
M204 P1250
G1 X95.445 Y96.077 F9000
M204 P800
G1 F1200
G1 X95.212 Y96.31 E.01663
G1 X94.353 Y95.451 E.06132
G1 X94.782 Y95.022 E.03063
G1 X95.212 Y95.451 E.03066
G1 X95.445 Y95.218 E.01663
M204 P1250
G1 X95.445 Y94.826 F9000
M204 P800
G1 F1200
G1 X95.212 Y94.593 E.01663
G1 X95.445 Y94.36 E.01663
M204 P1250
G1 E-2.24 F4200
;WIPE_START
G1 F7200
G1 X95.212 Y94.593 E-.1826
G1 X95.445 Y94.826 E-.1826
;WIPE_END
G1 E-.5948 F4200
G1 Z.4 F720
G1 X94.343 Y92.027 F9000
G1 Z.2 F720
G1 E3.2 F2400
M204 P800
G1 F1200
G1 X93.495 Y92.876 E.06057
G1 X93.924 Y93.305 E.03063
G1 X94.353 Y92.876 E.03063
G1 X95.212 Y93.734 E.06129
G1 X94.782 Y94.164 E.0307
G1 X94.353 Y93.734 E.03066
G1 X93.924 Y94.164 E.03066
G1 X94.353 Y94.593 E.03063
G1 X93.924 Y95.022 E.03063
G1 X93.065 Y94.164 E.06129
G1 X93.495 Y93.734 E.0307
G1 X93.065 Y93.305 E.03066
G1 X92.636 Y93.734 E.03063
G1 X92.207 Y93.305 E.03063
G1 X92.636 Y92.876 E.03063
G1 X92.207 Y92.447 E.03063
G1 X91.777 Y92.876 E.03066
G1 X90.919 Y92.017 E.06129
G1 X91.348 Y91.588 E.03063
G1 X91.777 Y92.017 E.03063
G1 X92.207 Y91.588 E.03066
G1 X91.777 Y91.159 E.03066
G1 X92.207 Y90.729 E.0307
G1 X93.065 Y91.588 E.06129
G1 X92.636 Y92.017 E.03063
G1 X93.065 Y92.447 E.03066
G1 X93.924 Y91.588 E.06132
G1 X93.495 Y91.159 E.03063
G1 X93.715 Y90.938 E.01574
M204 P1250
G1 E-2.24 F4200
;WIPE_START
G1 F7200
G1 X93.495 Y91.159 E-.17281
G1 X93.924 Y91.588 E-.33621
G1 X93.349 Y92.163 E-.45098
;WIPE_END
G1 Z.4 F720
G1 X93.672 Y87.547 F9000
G1 Z.2 F720
G1 E3.2 F2400
M204 P800
G1 F1200
G1 X93.495 Y87.725 E.01267
G1 X93.924 Y88.154 E.03063
G1 X94.531 Y87.547 E.04333
M204 P1250
G1 X94.601 Y88.831 F9000
M204 P800
G1 F1200
G1 X94.353 Y88.583 E.0177
G1 X95.212 Y87.725 E.06129
G1 X95.641 Y88.154 E.03063
G1 X96.07 Y87.725 E.03063
G1 X95.879 Y87.534 E.01364
M204 P1250
G1 X96.54 Y87.336 F9000
M204 P800
G1 F1200
G1 X96.779 Y87.574 E.01703
M204 P1250
G1 X97.867 Y86.946 F9000
M204 P800
G1 F1200
G1 X97.787 Y86.866 E.00571
G1 X98.217 Y86.437 E.03066
G1 X98.173 Y86.394 E.00311
M204 P1250
G1 X98.956 Y86.317 F9000
M204 P800
G1 F1200
G1 X98.718 Y86.079 E.01699
M204 P1250
G1 X99.262 Y85.765 F9000
M204 P800
G1 F1200
G1 X99.5 Y86.003 E.01699
M204 P1250
G1 X99.806 Y85.451 F9000
M204 P800
G1 F1200
G1 X99.934 Y85.578 E.0091
G1 X100.363 Y85.149 E.03063
G1 X100.351 Y85.137 E.00086
M204 P1250
G1 X101.552 Y84.818 F9000
M204 P800
G1 F1200
G1 X101.651 Y84.72 E.00703
G1 X101.677 Y84.746 E.00186
M204 P1250
G1 X102.221 Y84.432 F9000
M204 P800
G1 F1200
G1 X102.08 Y84.29 E.0101
G1 X102.44 Y83.93 E.0257
M204 P1250
; stop printing object elec_link.stl id:0 copy 0
M106 S84.15
;LAYER_CHANGE
;Z:0.5
;HEIGHT:0.3
;BEFORE_LAYER_CHANGE
G92 E0.0
;0.5


G1 E-2.24 F4200
;WIPE_START
G1 F7200
G1 X102.08 Y84.29 E-.28214
G1 X102.221 Y84.432 E-.1109
;WIPE_END
G1 E-.56696 F4200
G1 Z.4 F720
G1 Z.5
;AFTER_LAYER_CHANGE
;0.5
G1 Z.7
G1 X106.695 Y81.849 F9000
G1 Z.5 F720
G1 E3.2 F2400
;TYPE:Skirt/Brim
G1 F2083
G1 X107.489 Y83.224 E.11597
G1 X107.837 Y84.611 E.10445
G1 X107.511 Y85.793 E.08956
G1 X99.742 Y99.788 E1.16916
G1 X98.731 Y100.8 E.10448
G1 X97.462 Y101.13 E.09577
M73 P5 R13
G1 X82.538 Y101.13 E1.09007
G1 X81.162 Y100.737 E.10452
G1 X80.258 Y99.788 E.09573
G1 X72.489 Y85.793 E1.16916
G1 X72.165 Y84.4 E.10446
G1 X72.511 Y83.224 E.08954
G1 X74.261 Y80.193 E.25564
G1 X75.289 Y79.198 E.1045
G1 X76.519 Y78.889 E.09263
G1 X103.481 Y78.889 E1.96935
G1 X104.857 Y79.281 E.1045
G1 X105.739 Y80.193 E.09267
G1 X106.65 Y81.771 E.13309
; printing object elec_link.stl id:0 copy 0
G1 E-2.24 F4200
;WIPE_START
G1 F7200
G1 X107.489 Y83.224 E-.9298
G1 X107.502 Y83.277 E-.0302
;WIPE_END
G1 Z.7 F720
G1 X94.419 Y89.756 F9000
G1 Z.5 F720
G1 E3.2 F2400
M204 P800
;TYPE:Perimeter
;WIDTH:0.68
G1 F2083
G1 X94.311 Y89.922 E.01521
G1 X94.242 Y90.133 E.01705
G1 X94.238 Y90.472 E.02603
G1 X94.348 Y90.773 E.02461
G1 X96.378 Y94.288 E.31167
G1 X96.377 Y97.567 E.25177
G1 X83.623 Y97.567 E.9793
G1 X83.622 Y94.288 E.25177
G1 X85.652 Y90.773 E.31167
G1 X85.73 Y90.599 E.01464
G1 X85.776 Y90.318 E.02186
G1 X85.689 Y89.922 E.03113
G1 X85.546 Y89.702 E.02015
G1 X85.314 Y89.512 E.02303
G1 X76.186 Y84.242 E.8093
G1 X76.98 Y82.866 E.12198
G1 X83.78 Y86.792 E.6029
G1 X83.925 Y86.859 E.01226
G1 X84.241 Y86.915 E.02464
G1 X95.759 Y86.915 E.88439
G1 X96.22 Y86.792 E.03664
G1 X103.02 Y82.866 E.6029
G1 X103.814 Y84.242 E.12198
G1 X94.686 Y89.512 E.8093
G1 X94.474 Y89.686 E.02106
M204 P1250
G1 X94.917 Y90.108 F9000
M204 P800
;TYPE:External perimeter
G1 F2083
G1 X94.846 Y90.252 E.01233
G1 X94.881 Y90.465 E.01657
G1 X96.993 Y94.123 E.32433
G1 X96.993 Y98.183 E.31174
G1 X83.007 Y98.183 E1.07389
G1 X83.007 Y94.123 E.31174
G1 X85.119 Y90.465 E.32433
G1 X85.155 Y90.365 E.00816
G1 X85.131 Y90.182 E.01417
G1 X85.006 Y90.045 E.01424
G1 X75.345 Y84.467 E.85657
G1 X76.755 Y82.025 E.21652
G1 X84.087 Y86.259 E.6501
G1 X84.241 Y86.3 E.01224
G1 X95.759 Y86.3 E.88439
G1 X95.913 Y86.259 E.01224
G1 X103.245 Y82.025 E.6501
G1 X104.655 Y84.467 E.21652
G1 X94.986 Y90.051 E.85733
M204 P1250
G1 X94.757 Y90.101 F9000
G1 X95.606 Y88.768
M204 P1000
;TYPE:Solid infill
;WIDTH:0.688187
G1 F2083
G1 X98.18 Y86.193 E.28328
G1 X100.268 Y84.988 E.18757
