; generated by PrusaSlicer 2.4.2 on 2022-05-08 at 14:29:53 UTC


;
;

;
;
; 

; external perimeters extrusion width = 0.45mm
; perimeters extrusion width = 0.45mm
; infill extrusion width = 0.45mm
; solid infill extrusion width = 0.45mm
; top infill extrusion width = 0.40mm
; support material extrusion width = 0.35mm
; first layer extrusion width = 0.42mm

M73 P0 R43
M201 X1250 Y1250 Z400 E5000 ; sets maximum accelerations, mm/sec^2
M203 X180 Y180 Z12 E80 ; sets maximum feedrates, mm / sec
M204 P1250 R1250 T1250 ; sets acceleration (P, T) and retract acceleration (R), mm/sec^2
M205 X8.00 Y8.00 Z2.00 E10.00 ; sets the jerk limits, mm/sec
M205 S0 T0 ; sets the minimum extruding and travel feed rate, mm/sec
M107
;TYPE:Custom
G90 ; use absolute coordinates
M83 ; extruder relative mode
M104 S170 ; set extruder temp for bed leveling
M140 S60 ; set bed temp
M109 R170 ; wait for bed leveling temp
M190 S60 ; wait for bed temp
G28 ; home all without mesh bed level
G29 ; mesh bed leveling 
M104 S215 ; set extruder temp
G92 E0.0
G1 Y-2.0 X179 F2400
G1 Z3 F720
M109 S215 ; wait for extruder temp

; intro line
G1 X170 F1000
G1 Z0.2 F720
G1 X110.0 E8.0 F900
G1 X40.0 E10.0 F700
G92 E0.0

M221 S95 ; set flow
G21 ; set units to millimeters
G90 ; use absolute coordinates
M83 ; use relative distances for extrusion
M900 K0.2 ; Filament gcode LA 1.5
; ; Filament gcode LA 1.0
M107
;LAYER_CHANGE
;Z:0.2
;HEIGHT:0.2
;BEFORE_LAYER_CHANGE
G92 E0.0
;0.2


G1 E-3.2 F4200
G1 Z.2 F9000
;AFTER_LAYER_CHANGE
;0.2
G1 Z.4
G1 X80.582 Y78.497
G1 Z.2
G1 E3.2 F2400
M204 S800
;TYPE:Skirt/Brim
;WIDTH:0.42
G1 F1200
G1 X81.678 Y77.516 E.04612
G1 X82.9 Y77.23 E.03935
G1 X89.6 Y77.23 E.21007
G1 X91.017 Y77.623 E.04612
G1 X92.109 Y78.849 E.05148
G1 X99.875 Y96.015 E.59075
G1 X100.12 Y97.15 E.03641
G1 X100.12 Y100.15 E.09406
G1 X99.727 Y101.567 E.04612
G1 X98.661 Y102.581 E.04612
G1 X97.366 Y102.904 E.04186
G1 X83.441 Y102.904 E.43659
G1 X82.305 Y102.709 E.03616
G1 X81.35 Y102.227 E.03354
G1 X80.543 Y101.463 E.03485
G1 X79.995 Y100.495 E.03484
G1 X79.755 Y99.41 E.03486
G1 X79.746 Y93.34 E.19033
G1 X80.147 Y79.902 E.42153
G1 X80.564 Y78.554 E.04424
M204 S1250
G1 X80.935 Y78.677 F9000
M204 S800
G1 F1200
G1 X80.954 Y78.618 E.00195
G1 X82.026 Y77.773 E.04278
G1 X82.9 Y77.607 E.0279
G1 X89.6 Y77.607 E.21007
G1 X90.907 Y77.999 E.04278
G1 X91.766 Y79.004 E.04146
G1 X99.532 Y96.17 E.59075
G1 X99.743 Y97.15 E.03143
G1 X99.743 Y100.15 E.09406
G1 X99.352 Y101.457 E.04278
G1 X98.306 Y102.333 E.04278
G1 X97.366 Y102.527 E.03008
G1 X83.45 Y102.527 E.43634
G1 X82.423 Y102.351 E.03266
G1 X81.533 Y101.895 E.03135
G1 X80.815 Y101.198 E.03135
G1 X80.333 Y100.323 E.03134
G1 X80.129 Y99.344 E.03135
G1 X80.123 Y93.348 E.18799
M73 P0 R42
G1 X80.524 Y79.913 E.42144
G1 X80.916 Y78.734 E.03895
M204 S1250
; printing object hinge.stl id:0 copy 0
G1 E-2.24 F4200
;WIPE_START
G1 F7200
G1 X80.954 Y78.618 E-.06768
G1 X82.026 Y77.773 E-.75612
G1 X82.182 Y77.744 E-.0882
;WIPE_END
G1 E-.048 F4200
G1 Z.4 F9000
G1 X86.65 Y96.188
G1 Z.2
G1 E3.2 F2400
M204 S800
;TYPE:Perimeter
G1 F1200
G1 X86.502 Y96.203 E.00469
G1 X86.475 Y96.25 E.00169
G1 X86.25 Y96.228 E.00709
G1 X86.025 Y96.25 E.00709
G1 X85.998 Y96.203 E.00169
G1 X85.85 Y96.188 E.00469
G1 X85.58 Y96.203 E.00847
G1 X85.149 Y96.063 E.0142
G1 X84.702 Y95.84 E.01566
G1 X84.298 Y95.531 E.01595
G1 X83.958 Y95.159 E.0158
G1 X83.687 Y94.734 E.01579
G1 X83.494 Y94.269 E.01579
G1 X83.387 Y93.783 E.01559
G1 X83.362 Y93.406 E.01185
G1 X83.373 Y93.148 E.0081
G1 X83.407 Y92.892 E.0081
G1 X83.495 Y92.531 E.01164
G1 X83.63 Y92.185 E.01165
G1 X83.755 Y91.945 E.0085
G1 X84.033 Y91.548 E.01518
G1 X84.294 Y91.275 E.01185
G1 X84.704 Y90.961 E.01618
G1 X85.029 Y90.782 E.01164
G1 X85.375 Y90.648 E.01165
G1 X85.637 Y90.577 E.0085
G1 X86.124 Y90.513 E.01539
G1 X86.627 Y90.535 E.01579
G1 X87.106 Y90.642 E.01539
G1 X87.361 Y90.734 E.0085
G1 X87.7 Y90.901 E.01185
G1 X88.107 Y91.187 E.01559
G1 X88.463 Y91.543 E.01579
G1 X88.745 Y91.945 E.01539
G1 X88.87 Y92.185 E.0085
G1 X89.007 Y92.537 E.01185
G1 X89.115 Y93.023 E.01559
G1 X89.137 Y93.526 E.01579
G1 X89.071 Y94.025 E.01579
G1 X88.921 Y94.5 E.01559
G1 X88.754 Y94.838 E.01185
G1 X88.609 Y95.067 E.0085
G1 X88.293 Y95.443 E.01539
G1 X87.906 Y95.768 E.01584
G1 X87.463 Y96.02 E.01597
G1 X86.924 Y96.204 E.01786
G1 X86.71 Y96.192 E.0067
M204 S1250
G1 X86.872 Y95.823 F9000
M204 S800
;TYPE:External perimeter
G1 F1200
G1 X86.642 Y95.81 E.0072
G1 X86.268 Y95.851 E.01181
G1 X85.858 Y95.81 E.01292
G1 X85.63 Y95.823 E.00716
G1 X85.293 Y95.713 E.01111
G1 X84.903 Y95.518 E.01366
M73 P1 R42
G1 X84.554 Y95.251 E.01378
G1 X84.258 Y94.929 E.01373
G1 X84.023 Y94.559 E.01372
G1 X83.855 Y94.155 E.01372
G1 X83.761 Y93.73 E.01365
G1 X83.74 Y93.402 E.0103
G1 X83.749 Y93.181 E.00694
G1 X83.778 Y92.962 E.00694
G1 X83.856 Y92.645 E.01022
G1 X83.974 Y92.341 E.01022
G1 X84.078 Y92.141 E.00708
G1 X84.325 Y91.788 E.01351
G1 X84.552 Y91.551 E.0103
G1 X84.903 Y91.282 E.01386
G1 X85.189 Y91.125 E.01022
G1 X85.493 Y91.007 E.01023
G1 X85.711 Y90.948 E.00708
G1 X86.14 Y90.892 E.01358
G1 X86.578 Y90.911 E.01372
G1 X87.001 Y91.004 E.01358
G1 X87.213 Y91.082 E.00708
G1 X87.507 Y91.227 E.0103
G1 X87.864 Y91.477 E.01365
G1 X88.173 Y91.786 E.01372
G1 X88.422 Y92.141 E.01358
G1 X88.526 Y92.341 E.00708
G1 X88.645 Y92.647 E.0103
G1 X88.739 Y93.072 E.01365
G1 X88.758 Y93.51 E.01372
G1 X88.701 Y93.943 E.01372
G1 X88.57 Y94.359 E.01365
G1 X88.425 Y94.653 E.0103
G1 X88.304 Y94.844 E.00708
G1 X88.025 Y95.175 E.01358
G1 X87.69 Y95.457 E.01374
G1 X87.308 Y95.675 E.01378
G1 X86.928 Y95.804 E.01256
M204 S1250
G1 X86.778 Y96.033 F9000
G1 E-2.24 F4200
;WIPE_START
G1 F7200
G1 X86.642 Y95.81 E-.15853
G1 X86.268 Y95.851 E-.20877
G1 X85.858 Y95.81 E-.22841
G1 X85.63 Y95.823 E-.12647
G1 X85.304 Y95.716 E-.18983
;WIPE_END
G1 E-.048 F4200
G1 Z.4 F9000
G1 X89.213 Y97.937
G1 Z.2
G1 E3.2 F2400
M204 S800
;TYPE:Perimeter
G1 F1200
G1 X96.148 Y97.937 E.21744
G1 X96.148 Y99.363 E.04471
G1 X83.527 Y99.363 E.39574
G1 X83.395 Y99.332 E.00424
G1 X83.306 Y99.228 E.00431
G1 X83.287 Y99.123 E.00333
G1 X83.29 Y93.277 E.1833
G1 X83.334 Y92.879 E.01256
G1 X83.466 Y92.387 E.01599
G1 X83.682 Y91.925 E.01599
G1 X83.9 Y91.597 E.01235
G1 X84.16 Y91.301 E.01235
G1 X84.551 Y90.973 E.01599
G1 X84.992 Y90.718 E.01599
G1 X85.365 Y90.573 E.01255
G1 X85.609 Y90.508 E.0079
G1 X86.121 Y90.441 E.01619
G1 X86.371 Y90.441 E.00785
G1 X86.764 Y90.483 E.0124
G1 X87.141 Y90.576 E.01215
G1 X87.502 Y90.716 E.01215
G1 X87.841 Y90.902 E.01214
G1 X88.154 Y91.131 E.01215
G1 X88.434 Y91.399 E.01215
G1 X88.68 Y91.706 E.01235
G1 X88.932 Y92.142 E.01579
G1 X89.077 Y92.515 E.01255
G1 X89.187 Y93.013 E.01599
G1 X89.21 Y93.271 E.00811
G1 X89.213 Y97.877 E.14442
M204 S1250
G1 E-2.24 F4200
;WIPE_START
G1 F7200
G1 X90.859 Y97.891 E-.912
;WIPE_END
G1 E-.048 F4200
G1 Z.4 F9000
G1 X86.589 Y94.667
G1 Z.2
G1 E3.2 F2400
M204 S800
G1 F1200
G1 X86.257 Y94.713 E.01052
G1 X85.962 Y94.678 E.00931
G1 X85.848 Y94.642 E.00374
G1 X85.539 Y94.308 E.01428
G1 X85.288 Y93.957 E.01353
G1 X85.209 Y93.787 E.00588
G1 X85.149 Y93.539 E.00801
G1 X85.141 Y93.358 E.00567
G1 X85.178 Y93.113 E.00775
G1 X85.271 Y92.876 E.008
G1 X85.422 Y92.659 E.00829
G1 X85.613 Y92.492 E.00796
G1 X85.837 Y92.369 E.008
G1 X85.962 Y92.326 E.00415
G1 X86.092 Y92.3 E.00416
G1 X86.36 Y92.295 E.00838
G1 X86.491 Y92.315 E.00416
G1 X86.618 Y92.352 E.00415
G1 X86.858 Y92.47 E.00839
G1 X87.07 Y92.649 E.00869
G1 X87.161 Y92.762 E.00456
G1 X87.295 Y93.02 E.0091
G1 X87.356 Y93.297 E.0089
G1 X87.356 Y93.49 E.00607
G1 X87.308 Y93.734 E.0078
G1 X87.207 Y93.965 E.00789
G1 X87.003 Y94.257 E.01117
G1 X86.646 Y94.648 E.01658
M204 S1250
G1 E-2.24 F4200
;WIPE_START
G1 F7200
G1 X86.257 Y94.713 E-.2187
G1 X85.962 Y94.678 E-.16458
G1 X85.848 Y94.642 E-.06614
G1 X85.539 Y94.308 E-.25246
G1 X85.318 Y93.999 E-.21012
;WIPE_END
G1 E-.048 F4200
G1 Z.4 F9000
G1 X89.59 Y97.56
G1 Z.2
G1 E3.2 F2400
M204 S800
;TYPE:External perimeter
G1 F1200
G1 X96.525 Y97.56 E.21745
G1 X96.525 Y99.74 E.06835
G1 X83.511 Y99.74 E.40806
G1 X83.403 Y99.731 E.00341
G1 X83.193 Y99.653 E.00701
G1 X83.093 Y99.575 E.00398
G1 X83.012 Y99.48 E.00391
G1 X82.954 Y99.37 E.00391
G1 X82.91 Y99.139 E.00735
G1 X82.913 Y93.257 E.18444
G1 X82.961 Y92.818 E.01384
G1 X83.024 Y92.536 E.00906
G1 X83.112 Y92.258 E.00913
G1 X83.223 Y91.989 E.00914
G1 X83.357 Y91.732 E.00906
G1 X83.601 Y91.367 E.01377
G1 X83.89 Y91.037 E.01377
G1 X84.103 Y90.842 E.00906
G1 X84.334 Y90.664 E.00914
G1 X84.58 Y90.508 E.00914
G1 X84.836 Y90.374 E.00906
G1 X85.248 Y90.214 E.01384
G1 X85.527 Y90.139 E.00906
G1 X85.814 Y90.089 E.00914
G1 X86.104 Y90.063 E.00914
G1 X86.392 Y90.063 E.00901
G1 X86.83 Y90.111 E.01382
G1 X87.254 Y90.215 E.0137
G1 X87.661 Y90.373 E.0137
G1 X88.044 Y90.583 E.01369
G1 X88.397 Y90.842 E.0137
G1 X88.712 Y91.144 E.0137
G1 X88.987 Y91.486 E.01377
G1 X89.142 Y91.73 E.00906
G1 X89.276 Y91.987 E.00906
G1 X89.436 Y92.398 E.01384
G1 X89.511 Y92.677 E.00906
G1 X89.561 Y92.964 E.00913
G1 X89.587 Y93.254 E.00914
G1 X89.59 Y97.5 E.13312
M204 S1250
G1 X89.591 Y97.96 F9000
G1 E-2.24 F4200
;WIPE_START
G1 F7200
G1 X91.236 Y97.514 E-.912
;WIPE_END
G1 E-.048 F4200
G1 Z.4 F9000
G1 X86.871 Y94.969
G1 Z.2
G1 E3.2 F2400
M204 S800
G1 F1200
G1 X86.687 Y95.032 E.0061
G1 X86.47 Y95.075 E.00695
G1 X86.249 Y95.091 E.00695
G1 X85.883 Y95.049 E.01155
G1 X85.639 Y94.972 E.00801
G1 X85.246 Y94.546 E.01817
G1 X84.961 Y94.147 E.01538
G1 X84.852 Y93.912 E.00814
G1 X84.773 Y93.592 E.01032
G1 X84.762 Y93.337 E.008
G1 X84.812 Y93.015 E.01021
G1 X84.931 Y92.708 E.01033
G1 X85.149 Y92.397 E.0119
G1 X85.396 Y92.181 E.01028
G1 X85.684 Y92.022 E.01033
G1 X86.051 Y91.924 E.0119
G1 X86.384 Y91.917 E.01045
G1 X86.755 Y91.999 E.0119
G1 X87.054 Y92.147 E.01045
G1 X87.207 Y92.259 E.00596
G1 X87.348 Y92.394 E.00611
G1 X87.47 Y92.546 E.00611
G1 X87.571 Y92.712 E.00611
G1 X87.65 Y92.891 E.00611
G1 X87.704 Y93.078 E.00611
G1 X87.733 Y93.268 E.00604
G1 X87.733 Y93.528 E.00814
G1 X87.67 Y93.848 E.01025
G1 X87.537 Y94.15 E.01035
G1 X87.3 Y94.491 E.01301
G1 X86.914 Y94.928 E.01827
M204 S1250
G1 X86.704 Y94.871 F9000
G1 X85.838 Y94.214
M204 S800
;TYPE:Solid infill
G1 F1200
G1 X86.053 Y94 E.00953
G1 X86.319 Y94.266 E.01182
G1 X86.852 Y93.733 E.02365
G1 X86.586 Y93.466 E.01182
G1 X86.319 Y93.733 E.01182
G1 X85.786 Y93.2 E.02365
G1 X86.053 Y92.933 E.01182
G1 X86.319 Y93.2 E.01182
G1 X86.586 Y92.933 E.01182
G1 X86.319 Y92.666 E.01182
G1 X86.399 Y92.587 E.00353
M204 S1250
G1 X87 Y93.052 F9000
M204 S800
G1 F1200
G1 X86.852 Y93.2 E.00654
G1 X87.074 Y93.421 E.00981
M204 S1250
G1 E-2.24 F4200
;WIPE_START
G1 F7200
G1 X86.852 Y93.2 E-.17332
G1 X87 Y93.052 E-.11553
;WIPE_END
G1 E-.67114 F4200
G1 Z.4 F9000
G1 X85.605 Y93.914
G1 Z.2
G1 E3.2 F2400
M204 S800
G1 F1200
G1 X85.786 Y93.733 E.00802
G1 X85.425 Y93.372 E.01602
M204 S1250
G1 E-2.24 F4200
;WIPE_START
G1 F7200
G1 X85.786 Y93.733 E-.28309
G1 X85.605 Y93.914 E-.14183
;WIPE_END
G1 E-.53509 F4200
G1 Z.4 F9000
G1 X83.478 Y94.845
G1 Z.2
G1 E3.2 F2400
M204 S800
;TYPE:Gap fill
;WIDTH:0.125441
G1 F1200
G1 X83.647 Y95.065 E.0019
M204 S1250
G1 X83.7 Y95.38 F9000
M204 S800
;TYPE:Solid infill
;WIDTH:0.42
G1 F1200
G1 X83.919 Y95.599 E.00972
G1 X83.95 Y95.569 E.00135
M204 S1250
G1 X84.223 Y95.829 F9000
M204 S800
G1 F1200
G1 X84.186 Y95.866 E.00164
G1 X84.453 Y96.133 E.01182
G1 X83.919 Y96.666 E.02365
G1 X83.653 Y96.399 E.01182
G1 X83.919 Y96.133 E.01182
G1 X83.572 Y95.785 E.01542
M204 S1250
G1 X83.571 Y96.851 F9000
M204 S800
G1 F1200
G1 X83.653 Y96.933 E.00362
G1 X83.571 Y97.014 E.00362
M204 S1250
G1 E-2.24 F4200
;WIPE_START
G1 F7200
G1 X83.653 Y96.933 E-.06405
G1 X83.571 Y96.851 E-.06398
;WIPE_END
G1 E-.83197 F4200
G1 Z.4 F9000
G1 X86.867 Y99.08
G1 Z.2
G1 E3.2 F2400
M204 S800
G1 F1200
G1 X86.852 Y99.066 E.00064
G1 X86.838 Y99.08 E.00064
M204 S1250
G1 X86.334 Y99.08 F9000
M204 S800
G1 F1200
G1 X86.319 Y99.066 E.00064
G1 X86.586 Y98.799 E.01182
G1 X86.319 Y98.532 E.01182
G1 X86.053 Y98.799 E.01182
G1 X85.786 Y98.532 E.01182
G1 X86.053 Y98.266 E.01182
G1 X85.519 Y97.732 E.02365
G1 X85.253 Y97.999 E.01182
G1 X85.519 Y98.266 E.01182
G1 X85.253 Y98.532 E.01182
G1 X84.986 Y98.266 E.01182
G1 X84.719 Y98.532 E.01182
G1 X85.253 Y99.066 E.02365
G1 X85.519 Y98.799 E.01182
G1 X85.786 Y99.066 E.01182
G1 X85.771 Y99.08 E.00064
M204 S1250
G1 E-2.24 F4200
;WIPE_START
G1 F7200
G1 X85.786 Y99.066 E-.01139
G1 X85.519 Y98.799 E-.20896
G1 X85.253 Y99.066 E-.20896
G1 X84.719 Y98.532 E-.41793
G1 X84.802 Y98.45 E-.06475
;WIPE_END
G1 E-.048 F4200
G1 Z.4 F9000
G1 X84.172 Y99.08
G1 Z.2
G1 E3.2 F2400
M204 S800
G1 F1200
G1 X84.186 Y99.066 E.00064
G1 X84.201 Y99.08 E.00064
M204 S1250
G1 X84.705 Y99.08 F9000
M204 S800
G1 F1200
G1 X84.719 Y99.066 E.00064
G1 X83.919 Y98.266 E.03547
G1 X83.653 Y98.532 E.01182
G1 X83.919 Y98.799 E.01182
G1 X83.638 Y99.08 E.01247
M204 S1250
G1 X83.57 Y98.081 F9000
M204 S800
G1 F1200
G1 X83.653 Y97.999 E.00365
G1 X83.571 Y97.917 E.00365
M204 S1250
G1 X83.571 Y97.548 F9000
M204 S800
G1 F1200
G1 X83.919 Y97.199 E.01546
G1 X84.186 Y97.466 E.01182
G1 X83.919 Y97.732 E.01182
G1 X84.453 Y98.266 E.02365
G1 X84.719 Y97.999 E.01182
G1 X84.453 Y97.732 E.01182
G1 X84.719 Y97.466 E.01182
G1 X84.986 Y97.732 E.01182
G1 X85.253 Y97.466 E.01182
G1 X84.719 Y96.933 E.02365
G1 X84.453 Y97.199 E.01182
G1 X84.186 Y96.933 E.01182
G1 X84.719 Y96.399 E.02365
G1 X84.986 Y96.666 E.01182
G1 X85.245 Y96.391 E.01183
M204 S1250
G1 X86.202 Y96.517 F9000
M204 S800
G1 F1200
G1 X85.786 Y96.933 E.01844
G1 X85.519 Y96.666 E.01182
G1 X85.253 Y96.933 E.01182
G1 X85.786 Y97.466 E.02365
G1 X86.053 Y97.199 E.01182
G1 X86.319 Y97.466 E.01182
G1 X86.053 Y97.732 E.01182
G1 X86.586 Y98.266 E.02365
G1 X86.852 Y97.999 E.01182
G1 X86.586 Y97.732 E.01182
G1 X86.852 Y97.466 E.01182
G1 X87.119 Y97.732 E.01182
G1 X87.386 Y97.466 E.01182
G1 X86.852 Y96.933 E.02365
G1 X86.586 Y97.199 E.01182
G1 X86.319 Y96.933 E.01182
G1 X86.773 Y96.478 E.02013
M204 S1250
G1 X87.345 Y96.359 F9000
M204 S800
G1 F1200
G1 X87.386 Y96.399 E.00179
G1 X87.119 Y96.666 E.01182
G1 X87.652 Y97.199 E.02365
G1 X87.919 Y96.933 E.01182
G1 X87.652 Y96.666 E.01182
G1 X87.919 Y96.399 E.01182
G1 X88.186 Y96.666 E.01182
G1 X88.452 Y96.399 E.01182
G1 X88.059 Y96.006 E.01744
M204 S1250
G1 X88.35 Y95.764 F9000
M204 S800
G1 F1200
G1 X88.452 Y95.866 E.00452
G1 X88.719 Y95.599 E.01182
G1 X88.929 Y95.809 E.00931
M204 S1250
G1 X88.929 Y95.923 F9000
M204 S800
G1 F1200
G1 X88.719 Y96.133 E.00931
G1 X88.929 Y96.343 E.00933
M204 S1250
G1 X88.93 Y96.877 F9000
M204 S800
G1 F1200
G1 X88.719 Y96.666 E.00935
G1 X88.452 Y96.933 E.01182
G1 X88.719 Y97.199 E.01182
G1 X88.452 Y97.466 E.01182
G1 X88.186 Y97.199 E.01182
G1 X87.919 Y97.466 E.01182
G1 X88.452 Y97.999 E.02365
G1 X88.719 Y97.732 E.01182
G1 X88.931 Y97.944 E.00939
M204 S1250
G1 X88.931 Y98.054 F9000
M204 S800
G1 F1200
G1 X88.186 Y98.799 E.03304
G1 X87.919 Y98.532 E.01182
G1 X88.186 Y98.266 E.01182
G1 X87.652 Y97.732 E.02365
G1 X87.386 Y97.999 E.01182
G1 X87.652 Y98.266 E.01182
G1 X87.386 Y98.532 E.01182
G1 X87.119 Y98.266 E.01182
G1 X86.852 Y98.532 E.01182
G1 X87.386 Y99.066 E.02365
G1 X87.652 Y98.799 E.01182
G1 X87.919 Y99.066 E.01182
G1 X87.904 Y99.08 E.00064
M204 S1250
G1 X88.438 Y99.08 F9000
M204 S800
G1 F1200
G1 X88.719 Y98.799 E.01247
G1 X88.986 Y99.066 E.01182
G1 X88.971 Y99.08 E.00064
M204 S1250
G1 X89.831 Y98.22 F9000
M204 S800
G1 F1200
G1 X89.785 Y98.266 E.00203
G1 X89.74 Y98.22 E.00203
M204 S1250
G1 X89.298 Y98.22 F9000
M204 S800
G1 F1200
G1 X88.986 Y98.532 E.01385
G1 X89.252 Y98.799 E.01182
G1 X89.519 Y98.532 E.01182
G1 X89.785 Y98.799 E.01182
G1 X89.519 Y99.066 E.01182
G1 X89.533 Y99.08 E.00064
M204 S1250
G1 X90.038 Y99.08 F9000
M204 S800
G1 F1200
G1 X90.319 Y98.799 E.01247
G1 X90.052 Y98.532 E.01182
G1 X90.319 Y98.266 E.01182
G1 X91.119 Y99.066 E.03547
G1 X91.104 Y99.08 E.00064
M204 S1250
G1 X90.6 Y99.08 F9000
M204 S800
G1 F1200
G1 X90.585 Y99.066 E.00064
G1 X90.571 Y99.08 E.00064
M204 S1250
G1 X90.806 Y98.22 F9000
M204 S800
G1 F1200
G1 X90.852 Y98.266 E.00203
G1 X90.898 Y98.22 E.00203
M204 S1250
G1 E-2.24 F4200
;WIPE_START
G1 F7200
G1 X90.852 Y98.266 E-.03591
G1 X90.806 Y98.22 E-.03591
;WIPE_END
