; generated by PrusaSlicer 2.6.0-alpha6 on 2023-04-10 at 14:07:04 UTC


;
;

;
;
; 

; external perimeters extrusion width = 0.68mm
; perimeters extrusion width = 0.68mm
; infill extrusion width = 0.68mm
; solid infill extrusion width = 0.68mm
; top infill extrusion width = 0.60mm
; support material extrusion width = 0.55mm
; first layer extrusion width = 0.65mm

M73 P0 R93
M201 X2500 Y2500 Z400 E5000 ; sets maximum accelerations, mm/sec^2
M203 X180 Y180 Z12 E80 ; sets maximum feedrates, mm / sec
M204 P1250 R1250 T2500 ; sets acceleration (P, T) and retract acceleration (R), mm/sec^2
M205 X8.00 Y8.00 Z2.00 E10.00 ; sets the jerk limits, mm/sec
M205 S0 T0 ; sets the minimum extruding and travel feed rate, mm/sec
;TYPE:Custom
M862.3 P "MINI" ; printer model check
G90 ; use absolute coordinates
M83 ; extruder relative mode
M104 S170 ; set extruder temp for bed leveling
M140 S60 ; set bed temp
M109 R170 ; wait for bed leveling temp
M190 S60 ; wait for bed temp
M204 T1250 ; set travel acceleration
G28 ; home all without mesh bed level
G29 ; mesh bed leveling 
M204 T2500 ; restore travel acceleration
M104 S215 ; set extruder temp
G92 E0
G1 Y-2 X179 F2400
G1 Z3 F720
M109 S215 ; wait for extruder temp

; intro line
G1 X170 F1000
G1 Z0.2 F720
G1 X110 E8 F900
G1 X40 E10 F700
G92 E0

M221 S95 ; set flow
G21 ; set units to millimeters
G90 ; use absolute coordinates
M83 ; use relative distances for extrusion
M900 K0.12 ; Filament gcode LA 1.5
; ; Filament gcode LA 1.0
M107
;LAYER_CHANGE
;Z:0.2
;HEIGHT:0.2
;BEFORE_LAYER_CHANGE
G92 E0.0
;0.2


G1 E-3.2 F4200
G1 Z.2 F720
;AFTER_LAYER_CHANGE
;0.2
G1 Z.4
G1 X79.304 Y52.783 F9000
G1 Z.2 F720
G1 E3.2 F2400
M204 P800
;TYPE:Skirt/Brim
;WIDTH:0.65
G1 F1200
G1 X79.944 Y52.152 E.04537
G1 X80.778 Y51.688 E.04818
G1 X81.66 Y51.471 E.04585
G1 X97.87 Y51.443 E.81826
G1 X98.95 Y51.596 E.05506
G1 X99.935 Y52.065 E.05507
G1 X100.692 Y52.779 E.05253
G1 X101.236 Y53.752 E.05627
G1 X118.039 Y106.19 E2.77959
G1 X118.157 Y107.083 E.04547
G1 X118.157 Y124.98 E.90342
G1 X118.073 Y125.792 E.04121
G1 X117.818 Y126.572 E.04142
G1 X117.291 Y127.386 E.04895
G1 X116.561 Y128.008 E.04841
G1 X115.713 Y128.392 E.04699
G1 X114.673 Y128.555 E.05314
G1 X65.45 Y128.557 E2.48472
G1 X64.591 Y128.47 E.04358
G1 X63.856 Y128.231 E.03901
G1 X63.095 Y127.76 E.04518
G1 X62.473 Y127.083 E.04641
G1 X62.041 Y126.217 E.04885
G1 X61.86 Y125.335 E.04545
G1 X61.843 Y107.106 E.92018
G1 X61.908 Y106.426 E.03448
G1 X78.842 Y53.56 E2.80218
G1 X79.258 Y52.861 E.04106
M204 P1250
; printing object linear_axis_bot.stl id:0 copy 0
G1 E-2.24 F4200
;WIPE_START
G1 F7200
G1 X79.944 Y52.152 E-.54671
G1 X80.596 Y51.789 E-.41329
;WIPE_END
G1 Z.4 F720
G1 X90.051 Y62.87 F9000
G1 Z.2 F720
G1 E3.2 F2400
M204 P800
;TYPE:Support material
G1 F1200
G1 X90.255 Y62.897 E.01039
G1 X90.499 Y62.98 E.01301
G1 X90.677 Y63.083 E.01038
G1 X90.87 Y63.252 E.01295
G1 X90.996 Y63.416 E.01044
G1 X91.091 Y63.598 E.01036
G1 X91.153 Y63.794 E.01038
G1 X91.181 Y64.05 E.013
G1 X91.163 Y64.255 E.01039
G1 X91.091 Y64.502 E.01299
G1 X90.996 Y64.684 E.01036
G1 X90.835 Y64.885 E.013
G1 X90.634 Y65.046 E.013
G1 X90.452 Y65.141 E.01036
G1 X90.205 Y65.213 E.01299
G1 X90 Y65.231 E.01039
G1 X89.795 Y65.213 E.01039
G1 X89.548 Y65.141 E.01299
G1 X89.366 Y65.046 E.01036
G1 X89.165 Y64.885 E.013
G1 X89.004 Y64.684 E.013
G1 X88.909 Y64.502 E.01036
G1 X88.847 Y64.306 E.01038
G1 X88.819 Y64.05 E.013
G1 X88.837 Y63.845 E.01039
G1 X88.909 Y63.598 E.01299
G1 X89.004 Y63.416 E.01036
G1 X89.165 Y63.215 E.013
G1 X89.366 Y63.054 E.013
G1 X89.548 Y62.959 E.01036
G1 X89.745 Y62.897 E.01043
G1 X89.96 Y62.87 E.01094
M204 P1250
G1 X90 Y64.958 F9000
M204 P800
G1 F1200
G1 X90 Y63.142 E.09167
M204 P1250
G1 E-2.24 F4200
;WIPE_START
G1 F7200
G1 X90 Y64.874 E-.96
;WIPE_END
G1 Z.4 F720
G1 X105.604 Y116.071 F9000
G1 Z.2 F720
G1 E3.2 F2400
M204 P800
G1 F1200
G1 X105.913 Y116.105 E.01569
G1 X106.116 Y116.15 E.0105
G1 X106.506 Y116.292 E.02095
G1 X106.69 Y116.388 E.01048
G1 X106.949 Y116.561 E.01572
G1 X107.255 Y116.841 E.02094
G1 X107.389 Y117.001 E.01053
G1 X107.562 Y117.26 E.01572
G1 X107.737 Y117.636 E.02094
G1 X107.8 Y117.834 E.01049
G1 X107.86 Y118.139 E.01569
G1 X107.879 Y118.554 E.02097
G1 X107.824 Y118.965 E.02093
G1 X107.737 Y119.264 E.01572
G1 X107.658 Y119.456 E.01048
G1 X107.562 Y119.64 E.01048
G1 X107.389 Y119.899 E.01572
G1 X107.108 Y120.205 E.02097
G1 X106.949 Y120.339 E.0105
G1 X106.69 Y120.512 E.01572
G1 X106.314 Y120.687 E.02094
G1 X105.914 Y120.795 E.02091
G1 X105.5 Y120.831 E.02098
G1 X105.189 Y120.81 E.01573
G1 X104.985 Y120.774 E.01046
G1 X104.589 Y120.65 E.02095
G1 X104.221 Y120.458 E.02095
G1 X104.05 Y120.339 E.01052
G1 X103.817 Y120.133 E.0157
G1 X103.611 Y119.899 E.01574
G1 X103.492 Y119.729 E.01047
G1 X103.3 Y119.361 E.02095
G1 X103.176 Y118.966 E.0209
G1 X103.14 Y118.761 E.01051
G1 X103.119 Y118.45 E.01573
G1 X103.14 Y118.139 E.01573
G1 X103.176 Y117.935 E.01046
G1 X103.3 Y117.539 E.02095
G1 X103.492 Y117.171 E.02095
G1 X103.611 Y117.001 E.01047
G1 X103.816 Y116.767 E.0157
G1 X104.051 Y116.561 E.01578
G1 X104.221 Y116.442 E.01047
G1 X104.589 Y116.25 E.02095
G1 X104.884 Y116.15 E.01572
G1 X105.087 Y116.105 E.0105
G1 X105.513 Y116.07 E.02158
M204 P1250
G1 X106.863 Y120.057 F9000
M204 P800
G1 F1200
G1 X106.863 Y117.223 E.14306
G1 X106.552 Y116.948 E.02096
G1 X106.189 Y116.75 E.02087
G1 X106.189 Y120.15 E.17163
G1 X105.897 Y120.241 E.01544
G1 X105.514 Y120.284 E.01945
G1 X105.514 Y116.616 E.18516
G1 X105.181 Y116.644 E.01687
G1 X104.84 Y116.739 E.01787
G1 X104.84 Y120.161 E.17274
G1 X104.653 Y120.077 E.01035
G1 X104.448 Y119.952 E.01212
G1 X104.165 Y119.708 E.01886
G1 X104.165 Y116.82 E.14578
M204 P1250
G1 E-2.24 F4200
;WIPE_START
G1 F7200
G1 X104.165 Y118.552 E-.96
;WIPE_END
G1 Z.4 F720
G1 X74.604 Y116.071 F9000
G1 Z.2 F720
G1 E3.2 F2400
M204 P800
G1 F1200
G1 X74.913 Y116.105 E.01569
G1 X75.116 Y116.15 E.0105
G1 X75.506 Y116.292 E.02095
G1 X75.69 Y116.388 E.01048
G1 X75.949 Y116.561 E.01572
G1 X76.255 Y116.841 E.02094
G1 X76.389 Y117.001 E.01053
G1 X76.562 Y117.26 E.01572
G1 X76.737 Y117.636 E.02094
G1 X76.845 Y118.036 E.02091
G1 X76.881 Y118.45 E.02098
G1 X76.86 Y118.761 E.01573
G1 X76.824 Y118.965 E.01046
G1 X76.7 Y119.361 E.02095
G1 X76.508 Y119.729 E.02095
G1 X76.389 Y119.899 E.01047
G1 X76.184 Y120.133 E.0157
G1 X75.95 Y120.339 E.01574
G1 X75.779 Y120.458 E.01052
G1 X75.411 Y120.65 E.02095
G1 X75.016 Y120.774 E.0209
G1 X74.811 Y120.81 E.01051
G1 X74.5 Y120.831 E.01573
G1 X74.189 Y120.81 E.01573
G1 X73.985 Y120.774 E.01046
G1 X73.589 Y120.65 E.02095
G1 X73.221 Y120.458 E.02095
G1 X73.05 Y120.339 E.01052
G1 X72.817 Y120.133 E.0157
G1 X72.611 Y119.899 E.01574
G1 X72.492 Y119.729 E.01047
G1 X72.3 Y119.361 E.02095
G1 X72.176 Y118.966 E.0209
G1 X72.14 Y118.761 E.01051
G1 X72.119 Y118.45 E.01573
G1 X72.14 Y118.139 E.01573
G1 X72.176 Y117.935 E.01046
G1 X72.3 Y117.539 E.02095
G1 X72.492 Y117.171 E.02095
G1 X72.611 Y117.001 E.01047
G1 X72.817 Y116.767 E.01574
G1 X73.051 Y116.561 E.01574
G1 X73.221 Y116.442 E.01047
G1 X73.589 Y116.25 E.02095
G1 X73.884 Y116.15 E.01572
G1 X74.087 Y116.105 E.0105
G1 X74.513 Y116.07 E.02158
M204 P1250
G1 X75.835 Y120.08 F9000
M204 P800
G1 F1200
G1 X75.835 Y117.192 E.14578
G1 X75.552 Y116.947 E.0189
M73 P0 R92
G1 X75.347 Y116.823 E.01209
G1 X75.16 Y116.739 E.01035
G1 X75.16 Y120.161 E.17274
G1 X74.819 Y120.256 E.01787
G1 X74.486 Y120.284 E.01687
G1 X74.486 Y116.616 E.18516
G1 X74.181 Y116.644 E.01546
G1 X73.811 Y116.75 E.01943
G1 X73.811 Y120.15 E.17163
G1 X73.448 Y119.952 E.02087
G1 X73.137 Y119.677 E.02096
G1 X73.137 Y116.843 E.14306
M204 P1250
G1 E-2.24 F4200
;WIPE_START
G1 F7200
G1 X73.137 Y118.575 E-.96
;WIPE_END
G1 Z.4 F720
G1 X66.796 Y123.604 F9000
G1 Z.2 F720
G1 E3.2 F2400
M204 P800
;TYPE:Perimeter
;WIDTH:0.649999
G1 F1200
G1 X66.796 Y107.322 E.8219
G1 X83.111 Y56.399 E2.69924
G1 X96.88 Y56.397 E.69504
G1 X113.204 Y107.326 E2.69967
G1 X113.203 Y123.604 E.82169
G1 X107.658 Y123.604 E.27991
G1 X108.492 Y123.17 E.04746
G1 X109.102 Y122.723 E.03817
G1 X109.412 Y122.445 E.02102
G1 X109.821 Y121.999 E.03055
G1 X110.325 Y121.247 E.0457
G1 X110.643 Y120.644 E.03441
G1 X110.85 Y120.075 E.03056
G1 X110.953 Y119.671 E.02105
G1 X111.068 Y118.924 E.03815
G1 X111.091 Y118.509 E.02098
G1 X111.006 Y117.492 E.05152
G1 X110.826 Y116.757 E.0382
G1 X110.688 Y116.365 E.02098
G1 X110.22 Y115.458 E.05152
G1 X109.773 Y114.848 E.03817
G1 X109.494 Y114.538 E.02105
G1 X108.714 Y113.878 E.05158
G1 X108.069 Y113.487 E.03807
G1 X107.694 Y113.307 E.021
G1 X107.125 Y113.1 E.03056
G1 X106.722 Y112.997 E.021
G1 X105.975 Y112.882 E.03815
G1 X105.513 Y112.862 E.02334
G1 X104.758 Y112.911 E.03819
G1 X104.347 Y112.979 E.02103
G1 X103.415 Y113.262 E.04917
G1 X102.866 Y113.518 E.03058
G1 X102.508 Y113.73 E.021
G1 X101.898 Y114.177 E.03817
G1 X101.588 Y114.455 E.02102
G1 X100.929 Y115.235 E.05154
G1 X100.537 Y115.881 E.03814
G1 X100.25 Y116.549 E.0367
G1 X100.047 Y117.229 E.03582
G1 X99.912 Y118.15 E.04699
G1 X99.924 Y118.73 E.02928
G1 X99.994 Y119.408 E.03441
G1 X100.174 Y120.143 E.0382
G1 X100.312 Y120.535 E.02098
G1 X100.78 Y121.442 E.05152
G1 X101.227 Y122.051 E.03813
G1 X101.505 Y122.362 E.02106
G1 X102.285 Y123.021 E.05154
G1 X102.931 Y123.413 E.03814
G1 X103.336 Y123.604 E.0226
G1 X76.658 Y123.604 E1.34667
G1 X77.492 Y123.17 E.04746
G1 X78.102 Y122.723 E.03817
G1 X78.412 Y122.445 E.02102
G1 X79.071 Y121.665 E.05154
G1 X79.463 Y121.019 E.03814
G1 X79.643 Y120.644 E.021
G1 X79.85 Y120.075 E.03056
G1 X79.953 Y119.671 E.02105
G1 X80.068 Y118.924 E.03815
G1 X80.091 Y118.509 E.02098
G1 X80.029 Y117.6 E.04599
G1 X79.902 Y117.069 E.02756
G1 X79.688 Y116.365 E.03714
G1 X79.22 Y115.458 E.05152
G1 X78.773 Y114.848 E.03817
G1 X78.495 Y114.538 E.02102
G1 X78.049 Y114.129 E.03055
G1 X77.715 Y113.879 E.02106
G1 X77.069 Y113.487 E.03814
G1 X76.694 Y113.307 E.021
G1 X76.125 Y113.1 E.03056
G1 X75.722 Y112.997 E.021
G1 X74.975 Y112.882 E.03815
G1 X74.513 Y112.862 E.02334
G1 X73.758 Y112.911 E.03819
G1 X73.189 Y113.021 E.02925
G1 X72.415 Y113.262 E.04092
G1 X71.508 Y113.73 E.05152
G1 X70.898 Y114.177 E.03817
G1 X70.588 Y114.455 E.02102
G1 X69.929 Y115.235 E.05154
G1 X69.537 Y115.881 E.03814
G1 X69.357 Y116.256 E.021
G1 X69.047 Y117.229 E.05155
G1 X68.932 Y117.976 E.03815
G1 X68.909 Y118.391 E.02098
G1 X68.935 Y118.996 E.03057
G1 X68.994 Y119.409 E.02106
G1 X69.174 Y120.143 E.03815
G1 X69.312 Y120.535 E.02098
G1 X69.568 Y121.084 E.03058
G1 X69.78 Y121.442 E.021
G1 X70.227 Y122.051 E.03813
G1 X70.505 Y122.362 E.02106
G1 X71.285 Y123.021 E.05154
G1 X71.931 Y123.413 E.03814
G1 X72.336 Y123.604 E.0226
G1 X66.886 Y123.604 E.27511
M204 P1250
G1 X66.189 Y124.211 F9000
M204 P800
G1 F1200
G1 X66.189 Y107.227 E.85733
G1 X82.668 Y55.792 E2.72638
G1 X97.323 Y55.79 E.73977
G1 X113.811 Y107.231 E2.72681
G1 X113.81 Y124.211 E.85713
G1 X107.172 Y124.211 E.33508
;WIDTH:0.699018
G1 X106.604 Y124.186 E.03102
;WIDTH:0.748036
G1 X106.037 Y124.162 E.03327
G1 X105.057 Y124.163 E.05746
;WIDTH:0.773944
G1 X104.679 Y124.149 E.02299
;WIDTH:0.802827
G1 X104.302 Y124.134 E.02384
G1 X104.171 Y124.151 E.00835
;WIDTH:0.769264
G1 X104.04 Y124.168 E.00798
;WIDTH:0.7357
G1 X103.909 Y124.185 E.00761
;WIDTH:0.702136
G1 X103.607 Y124.198 E.01657
;WIDTH:0.676068
G1 X103.304 Y124.211 E.01597
;WIDTH:0.649999
G1 X76.172 Y124.211 E1.36959
;WIDTH:0.699018
G1 X75.604 Y124.186 E.03102
;WIDTH:0.748036
M73 P1 R92
G1 X75.037 Y124.162 E.03327
G1 X74.057 Y124.163 E.05746
;WIDTH:0.773944
G1 X73.679 Y124.149 E.02299
;WIDTH:0.802828
G1 X73.302 Y124.134 E.02384
G1 X73.171 Y124.151 E.00835
;WIDTH:0.769265
G1 X73.04 Y124.168 E.00798
;WIDTH:0.735701
G1 X72.909 Y124.185 E.00761
;WIDTH:0.702137
G1 X72.607 Y124.198 E.01657
;WIDTH:0.676068
G1 X72.304 Y124.211 E.01597
;WIDTH:0.649999
G1 X66.279 Y124.211 E.30413
M204 P1250
G1 X65.582 Y124.818 F9000
M204 P800
G1 F1200
G1 X65.589 Y107.112 E.89378
G1 X82.225 Y55.184 E2.7525
G1 X97.765 Y55.182 E.78444
G1 X114.418 Y107.16 E2.75516
G1 X114.417 Y124.818 E.89136
G1 X65.672 Y124.818 E2.46059
M204 P1250
G1 X65.058 Y125.298 F9000
M204 P800
;TYPE:External perimeter
G1 F1200
G1 X64.975 Y124.922 E.01944
G1 X64.975 Y107.128 E.89822
G1 X64.993 Y106.982 E.00743
G1 X81.669 Y54.932 E2.75898
G1 X81.842 Y54.664 E.0161
G1 X82.088 Y54.577 E.01317
G1 X97.845 Y54.575 E.79539
G1 X98.139 Y54.637 E.01517
G1 X98.284 Y54.811 E.01143
G1 X114.696 Y106.015 E2.71424
G1 X115.025 Y107.126 E.05849
G1 X115.025 Y124.875 E.89595
G1 X115.007 Y125.128 E.0128
G1 X114.922 Y125.329 E.01102
G1 X114.522 Y125.425 E.02076
G1 X65.526 Y125.425 E2.47326
G1 X65.219 Y125.396 E.01557
G1 X65.135 Y125.344 E.00499
M204 P1250
G1 X65.231 Y124.954 F9000
G1 E-2.24 F4200
;WIPE_START
G1 F7200
G1 X64.975 Y124.922 E-.2501
G1 X64.975 Y123.641 E-.7099
;WIPE_END
G1 Z.4 F720
G1 X74.254 Y123.462 F9000
G1 Z.2 F720
G1 E3.2 F2400
M204 P800
;TYPE:Perimeter
;WIDTH:0.76883
G1 F1200
G1 X73.888 Y123.428 E.02219
;WIDTH:0.802828
G1 X73.359 Y123.379 E.03357
G1 X73.148 Y123.29 E.01447
;WIDTH:0.764621
G1 X72.937 Y123.201 E.01374
;WIDTH:0.726414
G1 X72.725 Y123.112 E.01307
;WIDTH:0.688207
G1 X72.514 Y123.022 E.01231
;WIDTH:0.649999
G1 X71.6 Y122.502 E.05308
G1 X70.915 Y121.914 E.04557
G1 X70.27 Y121.083 E.0531
G1 X69.862 Y120.279 E.04551
G1 X69.584 Y119.264 E.05312
G1 X69.516 Y118.365 E.04551
G1 X69.647 Y117.321 E.05311
G1 X69.928 Y116.464 E.04553
G1 X70.448 Y115.55 E.05308
G1 X71.036 Y114.865 E.04557
G1 X71.867 Y114.22 E.0531
G1 X72.671 Y113.812 E.04551
G1 X73.346 Y113.608 E.0356
G1 X73.798 Y113.517 E.02327
G1 X74.552 Y113.467 E.03814
G1 X75.173 Y113.527 E.03149
G1 X75.77 Y113.625 E.03054
G1 X76.486 Y113.878 E.03833
G1 X77.4 Y114.398 E.05308
G1 X78.085 Y114.986 E.04557
G1 X78.73 Y115.817 E.0531
G1 X79.138 Y116.621 E.04551
G1 X79.313 Y117.214 E.03121
G1 X79.433 Y117.713 E.02591
G1 X79.484 Y118.535 E.04157
G1 X79.353 Y119.579 E.05311
G1 X79.072 Y120.436 E.04553
G1 X78.552 Y121.35 E.05308
G1 X77.964 Y122.035 E.04557
G1 X77.133 Y122.68 E.0531
G1 X76.329 Y123.088 E.04551
;WIDTH:0.693789
G1 X75.827 Y123.248 E.02851
;WIDTH:0.737579
G1 X75.325 Y123.409 E.03045
;WIDTH:0.748036
G1 X75.022 Y123.457 E.01799
G1 X74.417 Y123.477 E.03549
;WIDTH:0.76883
G1 X74.344 Y123.47 E.00443
M204 P1250
G1 X74.287 Y122.814 F9000
M204 P800
;WIDTH:0.649999
G1 F1200
G1 X73.463 Y122.703 E.04197
G1 X72.721 Y122.452 E.03954
G1 X71.915 Y121.983 E.04707
G1 X71.325 Y121.467 E.03957
G1 X70.759 Y120.724 E.04715
G1 X70.413 Y120.022 E.03951
G1 X70.174 Y119.12 E.0471
G1 X70.122 Y118.338 E.03956
G1 X70.247 Y117.413 E.04712
G1 X70.498 Y116.671 E.03954
G1 X70.967 Y115.864 E.04712
G1 X71.483 Y115.275 E.03953
G1 X72.226 Y114.709 E.04715
G1 X72.928 Y114.363 E.03951
G1 X73.503 Y114.194 E.03025
G1 X73.838 Y114.122 E.0173
G1 X74.592 Y114.073 E.03814
G1 X75.537 Y114.197 E.04811
G1 X76.279 Y114.448 E.03954
G1 X77.085 Y114.917 E.04707
G1 X77.675 Y115.433 E.03957
G1 X78.241 Y116.176 E.04715
G1 X78.587 Y116.878 E.03951
G1 X78.826 Y117.78 E.0471
G1 X78.878 Y118.562 E.03956
G1 X78.753 Y119.487 E.04712
G1 X78.502 Y120.229 E.03954
G1 X78.033 Y121.036 E.04712
G1 X77.517 Y121.625 E.03953
G1 X76.774 Y122.191 E.04715
G1 X76.072 Y122.537 E.03951
G1 X75.17 Y122.776 E.0471
G1 X74.377 Y122.826 E.04011
M204 P1250
G1 X74.522 Y122.213 F9000
M204 P800
;TYPE:External perimeter
G1 F1200
G1 X74.362 Y122.221 E.00809
G1 X73.556 Y122.103 E.04112
G1 X72.929 Y121.882 E.03356
G1 X72.229 Y121.464 E.04116
G1 X71.735 Y121.019 E.03356
G1 X71.249 Y120.365 E.04113
G1 X70.963 Y119.766 E.03351
G1 X70.763 Y118.976 E.04114
G1 X70.729 Y118.312 E.03356
G1 X70.847 Y117.506 E.04112
G1 X71.069 Y116.879 E.03358
G1 X71.486 Y116.179 E.04113
G1 X71.931 Y115.686 E.03352
G1 X72.584 Y115.199 E.04112
G1 X73.184 Y114.913 E.03355
G1 X73.819 Y114.738 E.03325
G1 X74.632 Y114.679 E.04115
G1 X75.445 Y114.797 E.04147
G1 X76.071 Y115.018 E.03351
G1 X76.771 Y115.436 E.04116
G1 X77.265 Y115.881 E.03356
G1 X77.751 Y116.535 E.04113
G1 X78.037 Y117.134 E.03351
G1 X78.237 Y117.924 E.04114
G1 X78.271 Y118.588 E.03356
G1 X78.153 Y119.394 E.04112
G1 X77.932 Y120.021 E.03356
G1 X77.514 Y120.721 E.04116
G1 X77.069 Y121.215 E.03356
G1 X76.415 Y121.701 E.04113
G1 X75.816 Y121.987 E.03351
