; generated by PrusaSlicer 2.5.0 on 2023-02-02 at 21:11:07 UTC


;
;

;
;
; 

; external perimeters extrusion width = 0.68mm
; perimeters extrusion width = 0.68mm
; infill extrusion width = 0.68mm
; solid infill extrusion width = 0.68mm
; top infill extrusion width = 0.60mm
; support material extrusion width = 0.55mm
; first layer extrusion width = 0.65mm

M73 P0 R48
M201 X2500 Y2500 Z400 E5000 ; sets maximum accelerations, mm/sec^2
M203 X180 Y180 Z12 E80 ; sets maximum feedrates, mm / sec
M204 P1250 R1250 T2500 ; sets acceleration (P, T) and retract acceleration (R), mm/sec^2
M205 X8.00 Y8.00 Z2.00 E10.00 ; sets the jerk limits, mm/sec
M205 S0 T0 ; sets the minimum extruding and travel feed rate, mm/sec
M107
;TYPE:Custom
M862.3 P "MINI" ; printer model check
G90 ; use absolute coordinates
M83 ; extruder relative mode
M104 S170 ; set extruder temp for bed leveling
M140 S60 ; set bed temp
M109 R170 ; wait for bed leveling temp
M190 S60 ; wait for bed temp
M204 T1250 ; set travel acceleration
G28 ; home all without mesh bed level
G29 ; mesh bed leveling 
M204 T2500 ; restore travel acceleration
M104 S215 ; set extruder temp
G92 E0
G1 Y-2 X179 F2400
G1 Z3 F720
M109 S215 ; wait for extruder temp

; intro line
G1 X170 F1000
G1 Z0.2 F720
G1 X110 E8 F900
G1 X40 E10 F700
G92 E0

M221 S95 ; set flow
G21 ; set units to millimeters
G90 ; use absolute coordinates
M83 ; use relative distances for extrusion
M900 K0.12 ; Filament gcode LA 1.5
; ; Filament gcode LA 1.0
M107
;LAYER_CHANGE
;Z:0.2
;HEIGHT:0.2
;BEFORE_LAYER_CHANGE
G92 E0.0
;0.2


G1 E-3.2 F4200
G1 Z.2 F720
;AFTER_LAYER_CHANGE
;0.2
G1 Z.4
G1 X35.176 Y60.924 F9000
G1 Z.2 F720
G1 E3.2 F2400
M204 P800
;TYPE:Skirt/Brim
;WIDTH:0.65
G1 F1200
G1 X56.624 Y48.54 E1.25016
G1 X58.503 Y47.619 E.10562
G1 X60.103 Y47.148 E.0842
G1 X61.194 Y47.037 E.05536
G1 X118.869 Y47.038 E2.91136
G1 X119.748 Y47.122 E.04459
G1 X120.763 Y47.362 E.05264
G1 X121.788 Y47.738 E.05513
G1 X122.841 Y48.244 E.05894
G1 X149.002 Y63.337 E1.52461
G1 X149.783 Y63.984 E.05122
G1 X150.33 Y64.778 E.04864
G1 X150.66 Y65.751 E.05188
G1 X150.712 Y66.67 E.04647
G1 X150.566 Y67.457 E.04039
G1 X150.238 Y68.214 E.04166
G1 X113.866 Y131.212 E3.67201
G1 X113.291 Y131.938 E.04676
G1 X112.63 Y132.448 E.04214
G1 X111.771 Y132.822 E.04728
G1 X110.876 Y132.962 E.04575
G1 X69.172 Y132.963 E2.10519
G1 X68.243 Y132.826 E.0474
G1 X67.408 Y132.471 E.04579
G1 X66.688 Y131.918 E.04581
G1 X66.104 Y131.16 E.04833
G1 X29.734 Y68.164 E3.67187
G1 X29.388 Y67.293 E.0473
M73 P1 R48
G1 X29.279 Y66.351 E.04787
G1 X29.412 Y65.439 E.0465
G1 X29.79 Y64.56 E.04833
G1 X30.363 Y63.833 E.04673
G1 X31.029 Y63.319 E.04245
G1 X35.098 Y60.969 E.23721
M204 P1250
; printing object motor_footer.stl id:0 copy 0
G1 E-2.24 F4200
;WIPE_START
G1 F7200
G1 X36.524 Y60.146 E-.912
;WIPE_END
G1 E-.048 F4200
G1 Z.4 F720
G1 X115.76 Y77.361 F9000
G1 Z.2 F720
G1 E3.2 F2400
M204 P800
;TYPE:Perimeter
;WIDTH:0.649999
G1 F1200
G1 X115.848 Y77.342 E.00453
G1 X116.313 Y77.081 E.02695
G1 X116.555 Y76.877 E.01595
G1 X116.935 Y76.395 E.03099
G1 X117.131 Y75.88 E.0278
G1 X117.204 Y75.41 E.02403
G1 X117.205 Y54.281 E1.06654
G1 X117.24 Y53.309 E.04913
G1 X117.311 Y52.696 E.03114
G1 X117.444 Y52.062 E.03269
G1 X117.62 Y51.579 E.02595
G1 X117.902 Y51.119 E.02724
G1 X118.184 Y50.898 E.01812
G1 X118.391 Y50.825 E.01104
G1 X118.844 Y50.783 E.02299
G1 X119.478 Y50.886 E.03244
G1 X120.085 Y51.082 E.0322
G1 X120.67 Y51.336 E.0322
G1 X121.523 Y51.788 E.0487
G1 X146.934 Y66.459 E1.48116
G1 X110.718 Y129.186 E3.65623
G1 X110.66 Y129.224 E.0035
G1 X69.32 Y129.224 E2.0868
G1 X69.299 Y129.216 E.00113
G1 X33.066 Y66.459 E3.65799
G1 X58.97 Y51.517 E1.50954
G1 X59.912 Y51.084 E.05234
G1 X60.403 Y50.923 E.02608
G1 X60.898 Y50.816 E.02557
G1 X61.327 Y50.796 E.02167
G1 X61.714 Y50.85 E.0197
G1 X62.029 Y51.045 E.01871
G1 X62.263 Y51.353 E.01951
G1 X62.506 Y51.893 E.02991
G1 X62.645 Y52.438 E.02839
G1 X62.726 Y52.967 E.02703
G1 X62.786 Y53.75 E.03965
G1 X62.795 Y54.273 E.02638
G1 X62.798 Y75.463 E1.06964
G1 X62.894 Y75.997 E.02739
M73 P1 R47
G1 X63.109 Y76.468 E.02614
G1 X63.445 Y76.887 E.02713
G1 X63.887 Y77.216 E.02783
G1 X64.388 Y77.419 E.02726
G1 X64.924 Y77.488 E.02728
G1 X115.076 Y77.488 E2.53161
G1 X115.235 Y77.474 E.00807
G1 X115.672 Y77.38 E.02256
M204 P1250
G1 X115.56 Y76.793 F9000
M204 P800
;TYPE:External perimeter
G1 F1200
G1 X115.61 Y76.783 E.00256
G1 X116.044 Y76.532 E.02535
G1 X116.376 Y76.146 E.0257
G1 X116.561 Y75.673 E.02564
G1 X116.597 Y75.41 E.01339
G1 X116.598 Y54.335 E1.06385
G1 X116.648 Y53.148 E.05997
G1 X116.738 Y52.468 E.03463
G1 X116.899 Y51.777 E.03581
G1 X117.15 Y51.16 E.03362
G1 X117.463 Y50.692 E.02842
G1 X117.884 Y50.362 E.02697
G1 X118.388 Y50.197 E.02677
G1 X118.878 Y50.174 E.0248
G1 X119.621 Y50.294 E.03799
G1 X120.3 Y50.514 E.03603
G1 X120.934 Y50.789 E.03486
G1 X121.817 Y51.257 E.05045
G1 X147.332 Y65.988 E1.48724
G1 X147.529 Y66.187 E.01411
G1 X147.567 Y66.373 E.00962
G1 X147.516 Y66.665 E.01494
G1 X111.243 Y129.489 E3.66193
G1 X111.056 Y129.729 E.01538
G1 X110.733 Y129.831 E.0171
G1 X69.215 Y129.826 E2.09579
G1 X68.991 Y129.739 E.0121
M73 P2 R47
G1 X68.805 Y129.574 E.01256
G1 X32.503 Y66.698 E3.66496
G1 X32.414 Y66.414 E.01499
G1 X32.456 Y66.225 E.00976
G1 X32.683 Y65.98 E.01689
G1 X58.691 Y50.977 E1.51564
G1 X59.69 Y50.518 E.05551
G1 X60.214 Y50.346 E.02784
G1 X60.788 Y50.219 E.02968
G1 X61.335 Y50.189 E.02763
G1 X61.749 Y50.234 E.02103
G1 X62.197 Y50.408 E.02424
G1 X62.566 Y50.74 E.02507
G1 X62.859 Y51.175 E.02647
G1 X63.085 Y51.708 E.02924
G1 X63.24 Y52.316 E.03169
G1 X63.33 Y52.898 E.02969
G1 X63.392 Y53.722 E.04172
G1 X63.403 Y54.267 E.02753
G1 X63.404 Y75.411 E1.06729
G1 X63.463 Y75.776 E.01872
G1 X63.622 Y76.141 E.02008
G1 X63.87 Y76.452 E.02006
G1 X64.189 Y76.688 E.02004
G1 X64.502 Y76.819 E.01711
G1 X64.924 Y76.881 E.02154
G1 X115.076 Y76.881 E2.53161
G1 X115.471 Y76.81 E.02029
M204 P1250
G1 X115.59 Y76.833 F9000
G1 X115.41 Y77.896
M204 P800
;TYPE:Solid infill
;WIDTH:0.65
G1 F1200
G1 X115.924 Y78.41 E.03667
G1 X116.353 Y77.98 E.03064
G1 X116.1 Y77.727 E.0181
M204 P1250
G1 X117.065 Y76.976 F9000
M204 P800
G1 F1200
G1 X117.212 Y77.122 E.01044
G1 X116.783 Y77.551 E.03064
G1 X117.212 Y77.98 E.03064
G1 X117.641 Y77.551 E.03064
G1 X118.07 Y77.98 E.03064
G1 X117.212 Y78.839 E.06129
G1 X116.783 Y78.41 E.03064
G1 X116.353 Y78.839 E.03064
G1 X116.783 Y79.268 E.03064
G1 X115.924 Y80.127 E.06129
G1 X115.495 Y79.698 E.03064
G1 X115.924 Y79.268 E.03064
G1 X115.065 Y78.41 E.06129
G1 X114.636 Y78.839 E.03064
G1 X115.065 Y79.268 E.03064
G1 X114.636 Y79.698 E.03064
G1 X114.207 Y79.268 E.03064
G1 X113.778 Y79.698 E.03064
G1 X114.207 Y80.127 E.03064
G1 X114.636 Y80.556 E.03064
G1 X115.065 Y80.127 E.03064
G1 X115.495 Y80.556 E.03064
G1 X114.636 Y81.415 E.06129
G1 X114.207 Y80.985 E.03064
G1 X113.778 Y81.415 E.03064
G1 X114.207 Y81.844 E.03064
G1 X113.348 Y82.702 E.06129
G1 X112.919 Y82.273 E.03064
G1 X113.348 Y81.844 E.03064
G1 X112.919 Y81.415 E.03064
G1 X112.49 Y81.844 E.03064
G1 X112.061 Y81.415 E.03064
G1 X112.919 Y80.556 E.06129
G1 X113.348 Y80.985 E.03064
G1 X113.778 Y80.556 E.03064
G1 X112.49 Y79.268 E.09193
G1 X112.061 Y79.698 E.03064
G1 X112.49 Y80.127 E.03064
G1 X111.631 Y80.985 E.06129
G1 X111.202 Y80.556 E.03064
G1 X111.631 Y80.127 E.03064
G1 X111.202 Y79.698 E.03064
G1 X110.773 Y80.127 E.03064
G1 X110.343 Y79.698 E.03064
G1 X111.202 Y78.839 E.06129
G1 X111.631 Y79.268 E.03064
G1 X112.061 Y78.839 E.03064
G1 X111.631 Y78.41 E.03064
G1 X112.097 Y77.944 E.03327
M204 P1250
G1 X112.882 Y77.944 F9000
M204 P800
G1 F1200
G1 X112.919 Y77.98 E.00263
G1 X112.49 Y78.41 E.03064
G1 X113.348 Y79.268 E.06129
G1 X113.778 Y78.839 E.03064
G1 X113.348 Y78.41 E.03064
G1 X113.778 Y77.98 E.03064
G1 X114.207 Y78.41 E.03064
G1 X114.636 Y77.98 E.03064
G1 X114.599 Y77.944 E.00263
M204 P1250
G1 E-2.24 F4200
;WIPE_START
G1 F7200
G1 X114.636 Y77.98 E-.02883
G1 X114.207 Y78.41 E-.33642
G1 X113.778 Y77.98 E-.33642
G1 X113.509 Y78.249 E-.21033
;WIPE_END
G1 E-.048 F4200
G1 Z.4 F720
G1 X111.239 Y77.944 F9000
G1 Z.2 F720
G1 E3.2 F2400
M204 P800
G1 F1200
G1 X111.202 Y77.98 E.00263
G1 X111.165 Y77.944 E.00263
M204 P1250
G1 X110.38 Y77.944 F9000
M204 P800
G1 F1200
G1 X110.343 Y77.98 E.00263
G1 X110.773 Y78.41 E.03064
G1 X109.914 Y79.268 E.06129
G1 X109.485 Y78.839 E.03064
G1 X109.914 Y78.41 E.03064
G1 X109.485 Y77.98 E.03064
G1 X109.056 Y78.41 E.03064
G1 X108.626 Y77.98 E.03064
G1 X108.663 Y77.944 E.00263
M204 P1250
G1 E-2.24 F4200
;WIPE_START
G1 F7200
G1 X108.626 Y77.98 E-.02883
G1 X109.056 Y78.41 E-.33642
G1 X109.485 Y77.98 E-.33642
G1 X109.753 Y78.249 E-.21033
;WIPE_END
G1 E-.048 F4200
G1 Z.4 F720
G1 X104.37 Y77.944 F9000
G1 Z.2 F720
G1 E3.2 F2400
M204 P800
G1 F1200
G1 X104.334 Y77.98 E.00263
G1 X104.297 Y77.944 E.00263
M204 P1250
G1 X103.512 Y77.944 F9000
M204 P800
G1 F1200
G1 X103.475 Y77.98 E.00263
G1 X103.904 Y78.41 E.03064
G1 X103.046 Y79.268 E.06129
G1 X102.617 Y78.839 E.03064
G1 X103.046 Y78.41 E.03064
G1 X102.617 Y77.98 E.03064
G1 X102.187 Y78.41 E.03064
G1 X101.758 Y77.98 E.03064
G1 X101.795 Y77.944 E.00263
M204 P1250
G1 E-2.24 F4200
;WIPE_START
G1 F7200
G1 X101.758 Y77.98 E-.02883
G1 X102.187 Y78.41 E-.33642
G1 X102.617 Y77.98 E-.33642
G1 X102.885 Y78.249 E-.21033
;WIPE_END
G1 E-.048 F4200
G1 Z.4 F720
G1 X117.659 Y74.958 F9000
G1 Z.2 F720
G1 E3.2 F2400
M204 P800
G1 F1200
G1 X118.07 Y74.546 E.02937
G1 X118.929 Y75.405 E.06129
G1 X118.5 Y75.834 E.03064
G1 X118.07 Y75.405 E.03064
G1 X117.597 Y75.878 E.03379
M204 P1250
G1 X117.399 Y76.45 F9000
M204 P800
G1 F1200
G1 X117.641 Y76.693 E.01729
G1 X118.07 Y76.263 E.03064
G1 X118.5 Y76.693 E.03064
G1 X118.07 Y77.122 E.03064
G1 X118.5 Y77.551 E.03064
G1 X119.358 Y76.693 E.06129
G1 X118.929 Y76.263 E.03064
G1 X119.358 Y75.834 E.03064
G1 X120.217 Y76.693 E.06129
G1 X119.787 Y77.122 E.03064
G1 X120.217 Y77.551 E.03064
G1 X120.646 Y77.122 E.03064
G1 X121.504 Y77.98 E.06129
G1 X121.075 Y78.41 E.03064
G1 X120.646 Y77.98 E.03064
G1 X120.217 Y78.41 E.03064
G1 X120.646 Y78.839 E.03064
G1 X120.217 Y79.268 E.03064
G1 X119.358 Y78.41 E.06129
G1 X119.787 Y77.98 E.03064
G1 X119.358 Y77.551 E.03064
G1 X118.5 Y78.41 E.06129
G1 X118.929 Y78.839 E.03064
G1 X118.5 Y79.268 E.03064
G1 X118.07 Y78.839 E.03064
G1 X117.212 Y79.698 E.06129
G1 X117.641 Y80.127 E.03064
G1 X118.07 Y79.698 E.03064
G1 X118.5 Y80.127 E.03064
G1 X118.07 Y80.556 E.03064
G1 X118.5 Y80.985 E.03064
G1 X119.358 Y80.127 E.06129
G1 X118.929 Y79.698 E.03064
G1 X119.358 Y79.268 E.03064
G1 X120.646 Y80.556 E.09193
G1 X120.217 Y80.985 E.03064
G1 X119.787 Y80.556 E.03064
G1 X118.929 Y81.415 E.06129
G1 X119.358 Y81.844 E.03064
G1 X119.787 Y81.415 E.03064
G1 X120.217 Y81.844 E.03064
G1 X119.787 Y82.273 E.03064
G1 X120.217 Y82.702 E.03064
G1 X121.075 Y81.844 E.06129
G1 X120.646 Y81.415 E.03064
G1 X121.075 Y80.985 E.03064
G1 X121.504 Y81.415 E.03064
G1 X122.363 Y80.556 E.06129
G1 X121.934 Y80.127 E.03064
G1 X121.504 Y80.556 E.03064
G1 X120.646 Y79.698 E.06129
G1 X121.075 Y79.268 E.03064
G1 X121.504 Y79.698 E.03064
G1 X121.934 Y79.268 E.03064
G1 X121.504 Y78.839 E.03064
G1 X121.934 Y78.41 E.03064
G1 X122.792 Y79.268 E.06129
G1 X122.363 Y79.698 E.03064
G1 X122.792 Y80.127 E.03064
G1 X123.222 Y79.698 E.03064
G1 X124.08 Y80.556 E.06129
G1 X123.651 Y80.985 E.03064
G1 X123.222 Y80.556 E.03064
G1 X122.363 Y81.415 E.06129
G1 X122.792 Y81.844 E.03064
G1 X123.222 Y81.415 E.03064
G1 X123.651 Y81.844 E.03064
G1 X123.222 Y82.273 E.03064
G1 X123.651 Y82.702 E.03064
G1 X124.509 Y81.844 E.06129
G1 X124.08 Y81.415 E.03064
G1 X124.509 Y80.985 E.03064
G1 X125.368 Y81.844 E.06129
G1 X124.939 Y82.273 E.03064
G1 X125.368 Y82.702 E.03064
G1 X125.797 Y82.273 E.03064
G1 X126.656 Y83.132 E.06129
G1 X126.226 Y83.561 E.03064
G1 X125.797 Y83.132 E.03064
G1 X125.368 Y83.561 E.03064
G1 X125.797 Y83.99 E.03064
G1 X125.368 Y84.419 E.03064
G1 X124.509 Y83.561 E.06129
G1 X124.939 Y83.132 E.03064
G1 X124.509 Y82.702 E.03064
G1 X124.08 Y83.132 E.03064
G1 X123.222 Y83.99 E.06129
G1 X123.651 Y84.419 E.03064
G1 X124.08 Y83.99 E.03064
G1 X124.939 Y84.849 E.06129
G1 X124.509 Y85.278 E.03064
G1 X124.08 Y84.849 E.03064
G1 X123.651 Y85.278 E.03064
G1 X124.08 Y85.707 E.03064
G1 X123.651 Y86.137 E.03064
G1 X122.792 Y85.278 E.06129
G1 X123.222 Y84.849 E.03064
G1 X122.792 Y84.419 E.03064
G1 X122.363 Y84.849 E.03064
G1 X121.504 Y83.99 E.06129
G1 X121.934 Y83.561 E.03064
G1 X122.363 Y83.99 E.03064
G1 X123.222 Y83.132 E.06129
G1 X122.792 Y82.702 E.03064
G1 X122.363 Y83.132 E.03064
G1 X121.934 Y82.702 E.03064
G1 X122.363 Y82.273 E.03064
G1 X121.934 Y81.844 E.03064
G1 X121.075 Y82.702 E.06129
G1 X121.504 Y83.132 E.03064
G1 X121.075 Y83.561 E.03064
G1 X120.646 Y83.132 E.03064
G1 X120.217 Y83.561 E.03064
G1 X120.646 Y83.99 E.03064
G1 X120.217 Y84.419 E.03064
G1 X119.787 Y83.99 E.03064
G1 X118.929 Y84.849 E.06129
G1 X119.358 Y85.278 E.03064
G1 X119.787 Y84.849 E.03064
G1 X120.217 Y85.278 E.03064
G1 X119.787 Y85.707 E.03064
G1 X120.217 Y86.137 E.03064
G1 X121.075 Y85.278 E.06129
G1 X120.646 Y84.849 E.03064
G1 X121.075 Y84.419 E.03064
G1 X121.934 Y85.278 E.06129
G1 X121.504 Y85.707 E.03064
G1 X121.934 Y86.137 E.03064
G1 X122.363 Y85.707 E.03064
G1 X123.222 Y86.566 E.06129
G1 X122.792 Y86.995 E.03064
G1 X122.363 Y86.566 E.03064
G1 X121.934 Y86.995 E.03064
G1 X122.363 Y87.424 E.03064
G1 X121.934 Y87.854 E.03064
G1 X121.075 Y86.995 E.06129
G1 X121.504 Y86.566 E.03064
G1 X121.075 Y86.137 E.03064
G1 X119.787 Y87.424 E.09193
G1 X120.217 Y87.854 E.03064
G1 X120.646 Y87.424 E.03064
G1 X121.504 Y88.283 E.06129
G1 X121.075 Y88.712 E.03064
G1 X120.646 Y88.283 E.03064
G1 X120.217 Y88.712 E.03064
G1 X120.646 Y89.141 E.03064
G1 X120.217 Y89.571 E.03064
G1 X119.358 Y88.712 E.06129
G1 X119.787 Y88.283 E.03064
G1 X119.358 Y87.854 E.03064
G1 X118.929 Y88.283 E.03064
G1 X118.07 Y87.424 E.06129
G1 X118.5 Y86.995 E.03064
G1 X118.929 Y87.424 E.03064
G1 X119.787 Y86.566 E.06129
G1 X119.358 Y86.137 E.03064
G1 X118.929 Y86.566 E.03064
G1 X118.5 Y86.137 E.03064
G1 X118.929 Y85.707 E.03064
G1 X118.5 Y85.278 E.03064
G1 X117.641 Y86.137 E.06129
G1 X118.07 Y86.566 E.03064
G1 X117.641 Y86.995 E.03064
G1 X116.783 Y86.137 E.06129
G1 X117.212 Y85.707 E.03064
G1 X116.783 Y85.278 E.03064
G1 X116.353 Y85.707 E.03064
G1 X115.495 Y84.849 E.06129
G1 X115.924 Y84.419 E.03064
G1 X116.353 Y84.849 E.03064
G1 X116.783 Y84.419 E.03064
G1 X116.353 Y83.99 E.03064
G1 X116.783 Y83.561 E.03064
G1 X117.641 Y84.419 E.06129
G1 X117.212 Y84.849 E.03064
G1 X117.641 Y85.278 E.03064
G1 X118.5 Y84.419 E.06129
G1 X118.07 Y83.99 E.03064
G1 X118.5 Y83.561 E.03064
G1 X118.929 Y83.99 E.03064
G1 X119.787 Y83.132 E.06129
G1 X119.358 Y82.702 E.03064
G1 X118.929 Y83.132 E.03064
G1 X118.5 Y82.702 E.03064
G1 X118.929 Y82.273 E.03064
G1 X118.5 Y81.844 E.03064
G1 X117.641 Y82.702 E.06129
G1 X118.07 Y83.132 E.03064
G1 X117.641 Y83.561 E.03064
G1 X116.783 Y82.702 E.06129
G1 X116.353 Y82.273 E.03064
G1 X116.783 Y81.844 E.03064
G1 X117.212 Y82.273 E.03064
G1 X118.07 Y81.415 E.06129
G1 X117.641 Y80.985 E.03064
G1 X117.212 Y81.415 E.03064
G1 X116.783 Y80.985 E.03064
G1 X117.212 Y80.556 E.03064
G1 X116.783 Y80.127 E.03064
G1 X115.924 Y80.985 E.06129
G1 X116.353 Y81.415 E.03064
G1 X115.924 Y81.844 E.03064
G1 X115.495 Y81.415 E.03064
G1 X114.636 Y82.273 E.06129
G1 X115.065 Y82.702 E.03064
G1 X115.495 Y82.273 E.03064
G1 X116.353 Y83.132 E.06129
G1 X115.924 Y83.561 E.03064
G1 X115.495 Y83.132 E.03064
G1 X115.065 Y83.561 E.03064
G1 X115.495 Y83.99 E.03064
G1 X115.065 Y84.419 E.03064
G1 X114.207 Y83.561 E.06129
G1 X114.636 Y83.132 E.03064
G1 X114.207 Y82.702 E.03064
G1 X113.348 Y83.561 E.06129
G1 X113.778 Y83.99 E.03064
G1 X113.348 Y84.419 E.03064
G1 X112.919 Y83.99 E.03064
G1 X112.061 Y84.849 E.06129
G1 X112.49 Y85.278 E.03064
G1 X112.919 Y84.849 E.03064
G1 X113.348 Y85.278 E.03064
G1 X112.919 Y85.707 E.03064
G1 X113.348 Y86.137 E.03064
G1 X114.207 Y85.278 E.06129
G1 X113.778 Y84.849 E.03064
G1 X114.207 Y84.419 E.03064
G1 X115.065 Y85.278 E.06129
G1 X114.636 Y85.707 E.03064
G1 X115.065 Y86.137 E.03064
G1 X115.495 Y85.707 E.03064
G1 X116.353 Y86.566 E.06129
G1 X115.924 Y86.995 E.03064
G1 X115.495 Y86.566 E.03064
