; generated by PrusaSlicer 2.3.3 on 2022-01-30 at 11:43:58 UTC


;
;

;
;
; 

; external perimeters extrusion width = 0.45mm
; perimeters extrusion width = 0.45mm
; infill extrusion width = 0.45mm
; solid infill extrusion width = 0.45mm
; top infill extrusion width = 0.40mm
; support material extrusion width = 0.35mm
; first layer extrusion width = 0.42mm

M73 P0 R81
M201 X1250 Y1250 Z400 E5000 ; sets maximum accelerations, mm/sec^2
M203 X180 Y180 Z12 E80 ; sets maximum feedrates, mm/sec
M204 P1250 R1250 T1250 ; sets acceleration (P, T) and retract acceleration (R), mm/sec^2
M205 X8.00 Y8.00 Z2.00 E10.00 ; sets the jerk limits, mm/sec
M205 S0 T0 ; sets the minimum extruding and travel feed rate, mm/sec
M107
;TYPE:Custom
G90 ; use absolute coordinates
M83 ; extruder relative mode
M104 S170 ; set extruder temp for bed leveling
M140 S60 ; set bed temp
M109 R170 ; wait for bed leveling temp
M190 S60 ; wait for bed temp
G28 ; home all without mesh bed level
G29 ; mesh bed leveling 
M104 S215 ; set extruder temp
G92 E0.0
G1 Y-2.0 X179 F2400
G1 Z3 F720
M109 S215 ; wait for extruder temp

; intro line
G1 X170 F1000
G1 Z0.2 F720
G1 X110.0 E8.0 F900
G1 X40.0 E10.0 F700
G92 E0.0

M221 S95 ; set flow
G21 ; set units to millimeters
G90 ; use absolute coordinates
M83 ; use relative distances for extrusion
M900 K0.2 ; Filament gcode LA 1.5
; ; Filament gcode LA 1.0
;LAYER_CHANGE
;Z:0.2
;HEIGHT:0.2
;BEFORE_LAYER_CHANGE
G92 E0.0
;0.2


G1 E-3.20000 F4200.000
G1 Z0.200 F9000.000
;AFTER_LAYER_CHANGE
;0.2
G1 Z0.400
G1 X40.997 Y79.182
G1 Z0.200
G1 E3.20000 F2400.000
M204 S800
;TYPE:Skirt
;WIDTH:0.42
G1 F1200.000
G1 X42.212 Y78.761 E0.04030
G1 X42.998 Y78.688 E0.02475
G1 X137.004 Y78.688 E2.94749
G1 X137.797 Y78.763 E0.02499
G1 X138.600 Y78.995 E0.02621
G1 X139.339 Y79.376 E0.02607
G1 X140.034 Y79.936 E0.02798
G1 X140.552 Y80.556 E0.02533
G1 X140.957 Y81.287 E0.02619
G1 X141.202 Y82.033 E0.02464
G1 X141.310 Y82.917 E0.02791
G1 X141.312 Y97.011 E0.44192
G1 X141.239 Y97.785 E0.02435
G1 X140.820 Y98.999 E0.04028
G1 X140.050 Y100.048 E0.04081
G1 X138.999 Y100.820 E0.04087
G1 X137.788 Y101.239 E0.04018
G1 X137.002 Y101.312 E0.02475
G1 X42.833 Y101.308 E2.95260
M73 P0 R80
G1 X42.084 Y101.213 E0.02369
G1 X41.395 Y101.002 E0.02260
G1 X40.804 Y100.710 E0.02067
G1 X40.201 Y100.280 E0.02320
G1 X39.691 Y99.764 E0.02275
G1 X39.266 Y99.156 E0.02324
G1 X38.952 Y98.483 E0.02330
G1 X38.761 Y97.788 E0.02261
G1 X38.688 Y97.000 E0.02481
G1 X38.688 Y82.989 E0.43932
G1 X38.756 Y82.241 E0.02352
G1 X39.176 Y81.008 E0.04087
G1 X39.945 Y79.957 E0.04081
G1 X40.949 Y79.217 E0.03910
M204 S1250
; printing object openbeam_holder.stl id:0 copy 0
G1 E-2.24000 F4200.000
;WIPE_START
G1 F7200.000
G1 X42.212 Y78.761 E-0.74407
G1 X42.513 Y78.733 E-0.16793
;WIPE_END
G1 E-0.04800 F4200.000
G1 Z0.400 F9000.000
G1 X84.385 Y97.679
G1 Z0.200
G1 E3.20000 F2400.000
M204 S800
;TYPE:External perimeter
G1 F1200.000
G1 X84.437 Y97.628 E0.00226
G1 X84.471 Y97.679 E0.00193
G1 X84.445 Y97.679 E0.00080
M204 S1250
G1 X84.404 Y97.749 F9000.000
G1 E-2.24000 F4200.000
;WIPE_START
G1 F7200.000
G1 X84.437 Y97.628 E-0.02870
G1 X84.471 Y97.679 E-0.03413
G1 X84.445 Y97.679 E-0.01419
;WIPE_END
G1 E-0.88299 F4200.000
G1 Z0.400 F9000.000
G1 X95.529 Y97.679
G1 Z0.200
G1 E3.20000 F2400.000
M204 S800
G1 F1200.000
G1 X95.563 Y97.628 E0.00192
G1 X95.614 Y97.679 E0.00225
G1 X95.589 Y97.679 E0.00079
M204 S1250
G1 X95.556 Y97.734 F9000.000
G1 E-2.24000 F4200.000
;WIPE_START
G1 F7200.000
G1 X95.563 Y97.628 E-0.03152
G1 X95.614 Y97.679 E-0.03978
G1 X95.589 Y97.679 E-0.01392
;WIPE_END
G1 E-0.87478 F4200.000
G1 Z0.400 F9000.000
G1 X85.544 Y91.613
G1 Z0.200
G1 E3.20000 F2400.000
M204 S800
;TYPE:Perimeter
G1 F1200.000
G1 X85.123 Y91.613 E0.01320
G1 X84.992 Y91.274 E0.01140
G1 X84.825 Y91.011 E0.00978
G1 X84.610 Y90.776 E0.00998
G1 X84.306 Y90.553 E0.01182
G1 X84.017 Y90.419 E0.00998
G1 X83.722 Y90.339 E0.00958
G1 X83.489 Y90.314 E0.00733
G1 X82.912 Y90.314 E0.01812
G1 X82.629 Y90.350 E0.00893
G1 X82.398 Y90.416 E0.00753
G1 X82.127 Y90.538 E0.00932
G1 X81.876 Y90.708 E0.00952
G1 X81.657 Y90.918 E0.00952
G1 X81.469 Y91.172 E0.00991
G1 X81.287 Y91.575 E0.01388
G1 X81.214 Y91.999 E0.01349
G1 X81.217 Y94.703 E0.08476
G1 X81.313 Y95.138 E0.01396
G1 X81.487 Y95.492 E0.01236
G1 X81.553 Y95.574 E0.00332
G1 X81.323 Y95.953 E0.01387
G1 X81.216 Y96.394 E0.01424
G1 X81.224 Y96.941 E0.01715
G1 X81.267 Y97.247 E0.00969
G1 X81.011 Y97.177 E0.00830
G1 X80.453 Y97.113 E0.01762
G1 X79.934 Y97.102 E0.01629
G1 X42.972 Y97.088 E1.15892
G1 X42.916 Y97.038 E0.00235
G1 X42.900 Y96.947 E0.00291
G1 X42.913 Y82.968 E0.43829
G1 X42.956 Y82.917 E0.00209
G1 X43.053 Y82.900 E0.00311
G1 X79.892 Y82.899 E1.15506
G1 X80.419 Y82.888 E0.01653
G1 X80.985 Y82.824 E0.01784
G1 X81.267 Y82.747 E0.00918
G1 X81.224 Y83.059 E0.00985
G1 X81.216 Y83.579 E0.01632
G1 X81.258 Y83.834 E0.00811
G1 X81.346 Y84.092 E0.00855
G1 X81.554 Y84.425 E0.01228
G1 X81.487 Y84.508 E0.00336
G1 X81.313 Y84.862 E0.01236
G1 X81.217 Y85.297 E0.01396
G1 X81.214 Y88.003 E0.08484
G1 X81.291 Y88.439 E0.01387
G1 X81.483 Y88.851 E0.01426
G1 X81.681 Y89.109 E0.01018
G1 X81.911 Y89.320 E0.00978
G1 X82.174 Y89.487 E0.00978
G1 X82.474 Y89.611 E0.01018
G1 X82.896 Y89.686 E0.01345
G1 X83.489 Y89.686 E0.01860
G1 X83.722 Y89.661 E0.00733
G1 X84.017 Y89.581 E0.00958
G1 X84.306 Y89.447 E0.00998
G1 X84.610 Y89.224 E0.01182
G1 X84.825 Y88.989 E0.00998
G1 X84.992 Y88.726 E0.00978
G1 X85.123 Y88.387 E0.01140
G1 X85.544 Y88.387 E0.01320
G1 X86.033 Y89.626 E0.04176
G1 X86.300 Y90.000 E0.01441
G1 X86.033 Y90.374 E0.01441
G1 X85.566 Y91.557 E0.03988
M204 S1250
G1 E-2.24000 F4200.000
;WIPE_START
G1 F7200.000
G1 X85.123 Y91.613 E-0.24738
G1 X84.992 Y91.274 E-0.20142
G1 X84.825 Y91.011 E-0.17285
G1 X84.610 Y90.776 E-0.17643
G1 X84.444 Y90.654 E-0.11392
;WIPE_END
G1 E-0.04800 F4200.000
G1 Z0.400 F9000.000
G1 X81.690 Y82.441
G1 Z0.200
G1 E3.20000 F2400.000
M204 S800
;TYPE:External perimeter
G1 F1200.000
G1 X81.601 Y83.087 E0.02046
G1 X81.594 Y83.551 E0.01454
G1 X81.625 Y83.742 E0.00606
G1 X81.689 Y83.929 E0.00622
G1 X81.859 Y84.202 E0.01008
G1 X82.070 Y84.415 E0.00940
G1 X81.999 Y84.471 E0.00283
G1 X81.807 Y84.711 E0.00964
G1 X81.672 Y84.988 E0.00965
G1 X81.594 Y85.339 E0.01127
G1 X81.591 Y87.971 E0.08252
G1 X81.653 Y88.325 E0.01127
G1 X81.807 Y88.654 E0.01141
G1 X81.960 Y88.853 E0.00786
G1 X82.141 Y89.019 E0.00771
G1 X82.349 Y89.151 E0.00771
G1 X82.580 Y89.247 E0.00786
G1 X82.929 Y89.309 E0.01112
G1 X83.469 Y89.309 E0.01692
G1 X83.652 Y89.289 E0.00578
G1 X83.888 Y89.226 E0.00764
G1 X84.113 Y89.121 E0.00778
G1 X84.357 Y88.942 E0.00949
G1 X84.524 Y88.759 E0.00778
G1 X84.656 Y88.551 E0.00771
G1 X84.751 Y88.324 E0.00771
G1 X84.807 Y88.010 E0.01001
G1 X85.800 Y88.010 E0.03115
G1 X86.367 Y89.446 E0.04842
G1 X86.563 Y89.726 E0.01070
G1 X86.745 Y89.865 E0.00719
G1 X86.745 Y90.135 E0.00844
G1 X86.563 Y90.274 E0.00719
G1 X86.367 Y90.554 E0.01070
G1 X85.800 Y91.990 E0.04842
G1 X84.807 Y91.990 E0.03115
G1 X84.751 Y91.676 E0.01001
G1 X84.656 Y91.449 E0.00771
G1 X84.524 Y91.241 E0.00771
G1 X84.357 Y91.058 E0.00778
G1 X84.113 Y90.879 E0.00949
G1 X83.888 Y90.774 E0.00778
G1 X83.652 Y90.711 E0.00764
G1 X83.469 Y90.691 E0.00578
G1 X82.936 Y90.691 E0.01672
G1 X82.705 Y90.721 E0.00729
G1 X82.528 Y90.771 E0.00577
G1 X82.312 Y90.868 E0.00743
G1 X82.114 Y91.002 E0.00750
G1 X81.941 Y91.168 E0.00750
G1 X81.796 Y91.364 E0.00764
G1 X81.650 Y91.687 E0.01110
G1 X81.591 Y92.031 E0.01097
G1 X81.594 Y94.661 E0.08246
G1 X81.672 Y95.012 E0.01127
G1 X81.807 Y95.289 E0.00965
G1 X81.999 Y95.529 E0.00964
G1 X82.070 Y95.585 E0.00283
G1 X81.855 Y95.802 E0.00958
G1 X81.676 Y96.098 E0.01085
G1 X81.594 Y96.437 E0.01091
G1 X81.601 Y96.912 E0.01492
G1 X81.690 Y97.559 E0.02046
G1 X81.856 Y97.576 E0.00523
G1 X81.889 Y97.674 E0.00326
G1 X81.414 Y97.679 E0.01492
G1 X80.939 Y97.548 E0.01542
G1 X80.428 Y97.490 E0.01615
G1 X79.930 Y97.479 E0.01561
G1 X43.018 Y97.477 E1.15734
G1 X42.857 Y97.452 E0.00510
G1 X42.728 Y97.389 E0.00452
G1 X42.624 Y97.289 E0.00453
G1 X42.555 Y97.165 E0.00444
G1 X42.523 Y96.979 E0.00589
G1 X42.524 Y82.991 E0.43860
G1 X42.554 Y82.838 E0.00489
G1 X42.624 Y82.711 E0.00452
G1 X42.730 Y82.610 E0.00460
G1 X42.833 Y82.556 E0.00366
G1 X43.020 Y82.523 E0.00596
G1 X79.888 Y82.521 E1.15597
G1 X80.394 Y82.511 E0.01587
G1 X80.914 Y82.452 E0.01640
G1 X81.397 Y82.322 E0.01568
G1 X81.889 Y82.327 E0.01544
G1 X81.856 Y82.424 E0.00322
G1 X81.750 Y82.435 E0.00335
M204 S1250
G1 X81.291 Y82.474 F9000.000
G1 E-2.24000 F4200.000
;WIPE_START
G1 F7200.000
G1 X81.601 Y83.087 E-0.37078
G1 X81.594 Y83.551 E-0.25697
G1 X81.625 Y83.742 E-0.10706
G1 X81.689 Y83.929 E-0.10988
G1 X81.753 Y84.032 E-0.06730
;WIPE_END
G1 E-0.04800 F4200.000
G1 Z0.400 F9000.000
G1 X82.399 Y89.886
G1 Z0.200
G1 E3.20000 F2400.000
M204 S800
;TYPE:Solid infill
;WIDTH:0.420001
G1 F1200.000
G1 X82.394 Y90.123 E0.00744
G1 X81.989 Y90.290 E0.01373
G1 X81.698 Y90.487 E0.01103
G1 X81.444 Y90.730 E0.01102
G1 X81.224 Y91.028 E0.01161
G1 X81.014 Y91.492 E0.01596
G1 X80.931 Y91.976 E0.01539
G1 X80.935 Y94.734 E0.08648
G1 X81.044 Y95.232 E0.01599
G1 X81.217 Y95.583 E0.01227
G1 X81.059 Y95.843 E0.00954
G1 X80.933 Y96.362 E0.01674
G1 X80.941 Y96.884 E0.01637
G1 X80.472 Y96.831 E0.01479
G1 X79.937 Y96.820 E0.01679
G1 X43.183 Y96.817 E1.15239
G1 X43.184 Y83.183 E0.42749
G1 X79.895 Y83.181 E1.15107
G1 X80.438 Y83.170 E0.01703
G1 X80.941 Y83.113 E0.01585
G1 X80.933 Y83.600 E0.01526
G1 X80.983 Y83.903 E0.00964
G1 X81.089 Y84.214 E0.01030
G1 X81.216 Y84.418 E0.00752
G1 X81.044 Y84.768 E0.01224
G1 X80.935 Y85.266 E0.01599
G1 X80.931 Y88.028 E0.08659
G1 X81.019 Y88.525 E0.01582
G1 X81.240 Y88.999 E0.01640
G1 X81.471 Y89.301 E0.01193
G1 X81.738 Y89.545 E0.01133
G1 X82.043 Y89.739 E0.01133
M73 P1 R80
G1 X82.344 Y89.864 E0.01021
M204 S1250
G1 X81.748 Y89.998 F9000.000
M204 S800
G1 F1200.000
G1 X81.460 Y90.193 E0.01089
G1 X81.160 Y90.480 E0.01304
G1 X80.897 Y90.836 E0.01387
G1 X80.651 Y91.381 E0.01873
G1 X80.554 Y91.944 E0.01792
G1 X80.558 Y94.775 E0.08877
G1 X80.686 Y95.357 E0.01868
G1 X80.787 Y95.564 E0.00723
G1 X80.706 Y95.698 E0.00491
G1 X80.522 Y96.455 E0.02442
G1 X43.560 Y96.440 E1.15893
G1 X43.561 Y83.560 E0.40385
G1 X79.899 Y83.558 E1.13937
G1 X80.541 Y83.545 E0.02014
G1 X80.616 Y83.996 E0.01433
G1 X80.775 Y84.461 E0.01542
G1 X80.686 Y84.643 E0.00636
G1 X80.558 Y85.225 E0.01868
G1 X80.554 Y88.061 E0.08891
G1 X80.656 Y88.639 E0.01842
G1 X80.915 Y89.196 E0.01925
G1 X81.192 Y89.556 E0.01426
G1 X81.507 Y89.845 E0.01340
G1 X81.697 Y89.966 E0.00705
M204 S1250
G1 X81.117 Y89.999 F9000.000
M204 S800
G1 F1200.000
G1 X80.876 Y90.230 E0.01049
G1 X80.570 Y90.644 E0.01614
G1 X80.287 Y91.269 E0.02151
G1 X80.177 Y91.912 E0.02045
G1 X80.181 Y94.816 E0.09106
G1 X80.327 Y95.482 E0.02138
G1 X80.356 Y95.541 E0.00206
G1 X80.227 Y96.071 E0.01710
G1 X43.937 Y96.063 E1.13786
G1 X43.938 Y83.937 E0.38020
G1 X80.223 Y83.929 E1.13770
G1 X80.249 Y84.088 E0.00507
G1 X80.368 Y84.435 E0.01150
G1 X80.327 Y84.518 E0.00288
G1 X80.181 Y85.184 E0.02138
G1 X80.177 Y88.093 E0.09123
G1 X80.293 Y88.753 E0.02102
G1 X80.591 Y89.392 E0.02210
G1 X80.913 Y89.812 E0.01659
G1 X81.073 Y89.958 E0.00679
M204 S1250
G1 X80.580 Y89.997 F9000.000
M204 S800
G1 F1200.000
G1 X80.242 Y90.452 E0.01777
G1 X79.924 Y91.158 E0.02428
G1 X79.800 Y91.880 E0.02297
G1 X79.804 Y94.858 E0.09336
G1 X79.987 Y95.688 E0.02667
G1 X44.314 Y95.686 E1.11849
G1 X44.315 Y84.314 E0.35656
G1 X79.987 Y84.313 E1.11847
G1 X79.804 Y85.142 E0.02665
G1 X79.800 Y88.126 E0.09355
G1 X79.931 Y88.868 E0.02361
G1 X80.267 Y89.589 E0.02495
G1 X80.543 Y89.949 E0.01422
M204 S1250
G1 X80.107 Y90.001 F9000.000
M204 S800
G1 F1200.000
G1 X79.915 Y90.260 E0.01012
G1 X79.560 Y91.047 E0.02705
G1 X79.423 Y91.848 E0.02550
G1 X79.427 Y94.899 E0.09565
G1 X79.517 Y95.311 E0.01324
G1 X44.691 Y95.309 E1.09196
G1 X44.692 Y84.691 E0.33291
G1 X79.517 Y84.690 E1.09193
G1 X79.427 Y85.101 E0.01321
G1 X79.423 Y88.159 E0.09587
G1 X79.568 Y88.982 E0.02621
G1 X79.943 Y89.786 E0.02780
G1 X80.071 Y89.953 E0.00661
M204 S1250
G1 X79.623 Y89.992 F9000.000
M204 S800
G1 F1200.000
G1 X79.197 Y90.935 E0.03245
G1 X79.045 Y91.816 E0.02803
G1 X79.050 Y94.934 E0.09775
G1 X45.068 Y94.932 E1.06546
G1 X45.069 Y85.068 E0.30927
G1 X79.050 Y85.067 E1.06544
G1 X79.046 Y88.192 E0.09798
G1 X79.205 Y89.097 E0.02881
G1 X79.597 Y89.938 E0.02911
M204 S1250
G1 X79.208 Y89.995 F9000.000
M204 S800
G1 F1200.000
G1 X78.833 Y90.824 E0.02853
G1 X78.668 Y91.785 E0.03056
G1 X78.672 Y94.557 E0.08693
G1 X45.446 Y94.555 E1.04180
G1 X45.446 Y85.445 E0.28562
G1 X78.672 Y85.444 E1.04178
G1 X78.668 Y88.224 E0.08718
G1 X78.842 Y89.211 E0.03141
G1 X79.182 Y89.940 E0.02523
M204 S1250
G1 X78.793 Y89.997 F9000.000
M204 S800
G1 F1200.000
G1 X78.470 Y90.713 E0.02462
G1 X78.291 Y91.753 E0.03309
G1 X78.294 Y94.180 E0.07610
G1 X45.823 Y94.178 E1.01813
G1 X45.823 Y85.822 E0.26198
G1 X78.294 Y85.821 E1.01812
G1 X78.291 Y88.257 E0.07639
G1 X78.480 Y89.325 E0.03401
G1 X78.768 Y89.943 E0.02136
M204 S1250
G1 X78.378 Y90.000 F9000.000
M204 S800
G1 F1200.000
G1 X78.106 Y90.601 E0.02070
G1 X77.914 Y91.721 E0.03562
G1 X77.917 Y93.803 E0.06528
G1 X46.200 Y93.801 E0.99447
G1 X46.200 Y86.199 E0.23833
G1 X77.917 Y86.198 E0.99446
G1 X77.914 Y88.290 E0.06559
G1 X78.117 Y89.440 E0.03661
G1 X78.353 Y89.945 E0.01749
M204 S1250
G1 X77.963 Y90.002 F9000.000
M204 S800
G1 F1200.000
G1 X77.743 Y90.490 E0.01679
G1 X77.537 Y91.689 E0.03814
G1 X77.539 Y93.426 E0.05445
M73 P1 R79
G1 X46.577 Y93.424 E0.97081
G1 X46.577 Y86.576 E0.21469
G1 X77.539 Y86.575 E0.97080
G1 X77.537 Y88.323 E0.05479
G1 X77.754 Y89.554 E0.03921
G1 X77.938 Y89.948 E0.01362
M204 S1250
G1 X77.548 Y90.005 F9000.000
M204 S800
G1 F1200.000
G1 X77.379 Y90.379 E0.01287
G1 X77.160 Y91.657 E0.04067
G1 X77.162 Y93.049 E0.04363
G1 X46.954 Y93.047 E0.94715
G1 X46.954 Y86.954 E0.19104
G1 X77.162 Y86.952 E0.94714
G1 X77.160 Y88.355 E0.04399
G1 X77.391 Y89.668 E0.04181
G1 X77.523 Y89.950 E0.00975
M204 S1250
G1 X77.133 Y90.007 F9000.000
M204 S800
G1 F1200.000
G1 X77.016 Y90.267 E0.00896
G1 X76.783 Y91.625 E0.04320
G1 X76.784 Y92.671 E0.03280
G1 X47.331 Y92.669 E0.92348
G1 X47.331 Y87.331 E0.16740
G1 X76.784 Y87.329 E0.92348
G1 X76.783 Y88.388 E0.03320
G1 X77.029 Y89.783 E0.04441
G1 X77.108 Y89.953 E0.00587
M204 S1250
G1 X76.718 Y90.009 F9000.000
M204 S800
G1 F1200.000
G1 X76.652 Y90.156 E0.00504
G1 X76.406 Y91.593 E0.04573
G1 X76.407 Y92.294 E0.02198
G1 X47.708 Y92.292 E0.89982
M73 P2 R79
G1 X47.708 Y87.708 E0.14375
G1 X76.407 Y87.706 E0.89982
G1 X76.406 Y88.421 E0.02240
G1 X76.666 Y89.897 E0.04700
G1 X76.693 Y89.955 E0.00200
M204 S1250
G1 X76.299 Y89.987 F9000.000
M204 S800
G1 F1200.000
G1 X76.028 Y91.562 E0.05010
G1 X76.029 Y91.917 E0.01115
G1 X48.085 Y91.915 E0.87616
G1 X48.085 Y88.085 E0.12011
G1 X76.029 Y88.084 E0.87615
G1 X76.029 Y88.454 E0.01160
G1 X76.288 Y89.928 E0.04694
M204 S1250
G1 X75.916 Y89.988 F9000.000
M204 S800
G1 F1200.000
G1 X75.650 Y91.540 E0.04938
G1 X48.462 Y91.538 E0.85244
G1 X48.462 Y88.462 E0.09646
G1 X75.647 Y88.461 E0.85235
G1 X75.906 Y89.929 E0.04674
M204 S1250
G1 X75.533 Y89.989 F9000.000
M204 S800
G1 F1200.000
G1 X75.332 Y91.163 E0.03736
G1 X48.839 Y91.161 E0.83065
G1 X48.840 Y88.839 E0.07282
G1 X75.330 Y88.838 E0.83061
G1 X75.523 Y89.930 E0.03476
M204 S1250
G1 X75.151 Y89.990 F9000.000
M204 S800
G1 F1200.000
G1 X75.014 Y90.786 E0.02534
G1 X49.217 Y90.784 E0.80886
G1 X49.217 Y89.216 E0.04917
G1 X75.014 Y89.215 E0.80886
G1 X75.140 Y89.930 E0.02279
M204 S1250
G1 X74.768 Y89.990 F9000.000
M204 S800
G1 F1200.000
G1 X74.696 Y90.409 E0.01331
G1 X49.594 Y90.407 E0.78707
G1 X49.594 Y89.593 E0.02553
G1 X74.698 Y89.592 E0.78712
G1 X74.757 Y89.931 E0.01081
M204 S1250
G1 E-2.24000 F4200.000
;WIPE_START
G1 F7200.000
G1 X74.698 Y89.592 E-0.19100
G1 X73.397 Y89.592 E-0.72100
;WIPE_END
G1 E-0.04800 F4200.000
G1 Z0.400 F9000.000
G1 X82.680 Y89.997
G1 Z0.200
G1 E3.20000 F2400.000
M204 S800
;TYPE:Gap fill
;WIDTH:0.295371
G1 F1200.000
G1 X83.513 Y90.000 E0.01750
M204 S1250
G1 X83.513 Y90.000 F9000.000
M204 S800
;WIDTH:0.311801
G1 F1200.000
G1 X83.723 Y90.000 E0.00469
M204 S1250
G1 E-2.24000 F4200.000
;WIPE_START
