; generated by PrusaSlicer 2.4.2 on 2022-05-08 at 21:47:15 UTC


;
;

;
;
; 

; external perimeters extrusion width = 0.45mm
; perimeters extrusion width = 0.45mm
; infill extrusion width = 0.45mm
; solid infill extrusion width = 0.45mm
; top infill extrusion width = 0.40mm
; support material extrusion width = 0.35mm
; first layer extrusion width = 0.42mm

M73 P0 R60
M201 X1250 Y1250 Z400 E5000 ; sets maximum accelerations, mm/sec^2
M203 X180 Y180 Z12 E80 ; sets maximum feedrates, mm / sec
M204 P1250 R1250 T1250 ; sets acceleration (P, T) and retract acceleration (R), mm/sec^2
M205 X8.00 Y8.00 Z2.00 E10.00 ; sets the jerk limits, mm/sec
M205 S0 T0 ; sets the minimum extruding and travel feed rate, mm/sec
M107
;TYPE:Custom
G90 ; use absolute coordinates
M83 ; extruder relative mode
M104 S170 ; set extruder temp for bed leveling
M140 S60 ; set bed temp
M109 R170 ; wait for bed leveling temp
M190 S60 ; wait for bed temp
G28 ; home all without mesh bed level
G29 ; mesh bed leveling 
M104 S215 ; set extruder temp
G92 E0.0
G1 Y-2.0 X179 F2400
G1 Z3 F720
M109 S215 ; wait for extruder temp

; intro line
G1 X170 F1000
G1 Z0.2 F720
G1 X110.0 E8.0 F900
G1 X40.0 E10.0 F700
G92 E0.0

M221 S95 ; set flow
G21 ; set units to millimeters
G90 ; use absolute coordinates
M83 ; use relative distances for extrusion
M900 K0.2 ; Filament gcode LA 1.5
; ; Filament gcode LA 1.0
M107
;LAYER_CHANGE
;Z:0.2
;HEIGHT:0.2
;BEFORE_LAYER_CHANGE
G92 E0.0
;0.2


G1 E-3.2 F4200
G1 Z.2 F9000
;AFTER_LAYER_CHANGE
;0.2
G1 Z.4
G1 X64.875 Y69.883
G1 Z.2
G1 E3.2 F2400
M204 S800
;TYPE:Skirt/Brim
;WIDTH:0.42
G1 F1200
G1 X65.805 Y69.345 E.03369
G1 X66.372 Y69.184 E.01849
G1 X66.954 Y69.124 E.01836
G1 X113.046 Y69.124 E1.44516
G1 X113.67 Y69.192 E.01971
G1 X114.234 Y69.36 E.01844
G1 X114.847 Y69.679 E.02166
G1 X115.312 Y70.047 E.01859
G1 X115.718 Y70.509 E.01929
G1 X116.062 Y71.096 E.02133
G1 X116.274 Y71.708 E.02032
G1 X116.362 Y72.303 E.01883
G1 X116.367 Y107.594 E1.10653
G1 X116.276 Y108.283 E.02179
G1 X116.029 Y108.975 E.02305
G1 X115.65 Y109.582 E.02245
G1 X115.126 Y110.117 E.02348
G1 X114.117 Y110.684 E.03627
G1 X113.05 Y110.876 E.03399
G1 X67.009 Y110.877 E1.44359
G1 X66.226 Y110.785 E.02471
G1 X65.547 Y110.544 E.02261
G1 X64.927 Y110.158 E.0229
G1 X64.404 Y109.648 E.02291
G1 X63.854 Y108.705 E.03421
G1 X63.633 Y107.593 E.03557
G1 X63.632 Y72.451 E1.10184
G1 X63.722 Y71.724 E.02297
G1 X63.971 Y71.026 E.02324
G1 X64.361 Y70.404 E.02301
G1 X64.832 Y69.926 E.02106
M204 S1250
; printing object servo_mount.stl id:0 copy 0
G1 E-2.24 F4200
;WIPE_START
G1 F7200
G1 X65.805 Y69.345 E-.62755
G1 X66.298 Y69.205 E-.28445
;WIPE_END
G1 E-.048 F4200
G1 Z.4 F9000
G1 X88.337 Y78.711
G1 Z.2
G1 E3.2 F2400
M204 S800
;TYPE:Perimeter
G1 F1200
G1 X88.534 Y78.213 E.01683
G1 X88.796 Y77.802 E.01526
G1 X89.124 Y77.443 E.01525
G1 X89.51 Y77.147 E.01524
G1 X89.941 Y76.923 E.01525
G1 X90.411 Y76.775 E.01544
G1 X90.994 Y76.71 E.0184
G1 X91.48 Y76.752 E.01528
G1 X91.737 Y76.809 E.00825
G1 X92.082 Y76.926 E.01144
G1 X92.502 Y77.145 E.01484
G1 X92.796 Y77.36 E.01143
G1 X92.99 Y77.538 E.00823
G1 X93.29 Y77.895 E.01464
G1 X93.479 Y78.207 E.01144
G1 X93.59 Y78.445 E.00823
G1 X93.734 Y78.902 E.01504
G1 X93.796 Y79.466 E.01777
G1 X93.788 Y102.743 E.72985
G1 X93.703 Y103.222 E.01524
G1 X93.537 Y103.679 E.01524
G1 X93.3 Y104.089 E.01484
G1 X93.14 Y104.297 E.00823
G1 X92.884 Y104.565 E.01163
G1 X92.416 Y104.909 E.0182
G1 X91.963 Y105.121 E.01569
G1 X91.493 Y105.247 E.01526
G1 X91.009 Y105.289 E.01525
G1 X90.537 Y105.248 E.01484
G1 X90.281 Y105.191 E.00823
G1 X89.936 Y105.074 E.01144
G1 X89.522 Y104.858 E.01464
G1 X89.307 Y104.708 E.00823
G1 X89.042 Y104.476 E.01103
G1 X88.869 Y104.287 E.00803
G1 X88.653 Y103.993 E.01144
G1 X88.432 Y103.567 E.01504
G1 X88.284 Y103.098 E.01544
G1 X88.222 Y102.534 E.01777
G1 X88.23 Y79.251 E.73004
G1 X88.325 Y78.77 E.01536
M204 S1250
G1 X88.707 Y78.784 F9000
M204 S800
;TYPE:External perimeter
G1 F1200
G1 X88.87 Y78.387 E.01348
G1 X89.096 Y78.032 E.01318
G1 X89.38 Y77.723 E.01318
G1 X89.714 Y77.467 E.01318
G1 X90.086 Y77.273 E.01318
G1 X90.489 Y77.146 E.01325
G1 X90.999 Y77.089 E.01608
G1 X91.423 Y77.125 E.01333
G1 X91.635 Y77.172 E.00682
G1 X91.934 Y77.274 E.00989
G1 X92.302 Y77.466 E.01303
G1 X92.556 Y77.652 E.00988
G1 X92.717 Y77.799 E.00681
G1 X92.982 Y78.115 E.01296
G1 X93.146 Y78.385 E.00989
G1 X93.238 Y78.582 E.00681
G1 X93.363 Y78.98 E.0131
G1 X93.419 Y79.486 E.01596
G1 X93.411 Y102.71 E.72817
G1 X93.338 Y103.124 E.01318
G1 X93.194 Y103.519 E.01318
G1 X92.986 Y103.879 E.01303
G1 X92.854 Y104.051 E.00681
G1 X92.634 Y104.28 E.00995
G1 X92.223 Y104.583 E.01601
G1 X91.834 Y104.765 E.01348
G1 X91.428 Y104.874 E.01318
G1 X91.009 Y104.911 E.01318
G1 X90.595 Y104.875 E.01303
G1 X90.383 Y104.828 E.00681
G1 X90.084 Y104.726 E.00989
G1 X89.718 Y104.535 E.01296
G1 X89.54 Y104.411 E.00681
G1 X89.306 Y104.206 E.00974
G1 X89.161 Y104.048 E.00674
G1 X88.975 Y103.793 E.00989
G1 X88.782 Y103.423 E.0131
G1 X88.655 Y103.02 E.01325
G1 X88.599 Y102.514 E.01596
G1 X88.607 Y79.288 E.72823
G1 X88.695 Y78.843 E.0142
M204 S1250
G1 X88.424 Y78.502 F9000
G1 E-2.24 F4200
;WIPE_START
G1 F7200
G1 X88.87 Y78.387 E-.27092
G1 X89.096 Y78.032 E-.233
G1 X89.38 Y77.723 E-.23289
G1 X89.631 Y77.53 E-.1752
;WIPE_END
G1 E-.048 F4200
G1 Z.4 F9000
G1 X83.759 Y79.051
G1 Z.2
G1 E3.2 F2400
M204 S800
;TYPE:Perimeter
G1 F1200
G1 X83.796 Y79.472 E.01327
G1 X83.788 Y102.743 E.72965
G1 X83.703 Y103.222 E.01524
M73 P0 R59
G1 X83.535 Y103.684 E.01544
G1 X83.231 Y104.187 E.0184
G1 X82.894 Y104.556 E.01569
G1 X82.513 Y104.849 E.01506
G1 X82.193 Y105.024 E.01144
G1 X81.95 Y105.124 E.00823
G1 X81.493 Y105.247 E.01484
G1 X81.009 Y105.289 E.01524
G1 X80.531 Y105.248 E.01503
G1 X80.185 Y105.163 E.01119
G1 X79.716 Y104.97 E.0159
G1 X79.404 Y104.781 E.01143
G1 X79.037 Y104.472 E.01504
G1 X78.728 Y104.105 E.01505
G1 X78.539 Y103.793 E.01143
G1 X78.348 Y103.332 E.01563
G1 X78.261 Y102.978 E.01144
G1 X78.222 Y102.528 E.01417
G1 X78.23 Y79.27 E.72924
G1 X78.264 Y79.01 E.00823
G1 X78.351 Y78.655 E.01144
G1 X78.535 Y78.212 E.01504
G1 X78.796 Y77.802 E.01525
G1 X79.125 Y77.443 E.01525
G1 X79.51 Y77.147 E.01524
G1 X79.941 Y76.923 E.01524
G1 X80.411 Y76.775 E.01544
G1 X80.994 Y76.71 E.0184
G1 X81.48 Y76.752 E.01527
G1 X81.737 Y76.809 E.00825
G1 X82.082 Y76.926 E.01144
G1 X82.496 Y77.142 E.01464
G1 X82.711 Y77.292 E.00823
G1 X82.985 Y77.533 E.01143
G1 X83.29 Y77.895 E.01484
G1 X83.479 Y78.207 E.01144
G1 X83.584 Y78.433 E.00783
G1 X83.67 Y78.668 E.00782
G1 X83.749 Y78.992 E.01045
M204 S1250
G1 X83.383 Y79.084 F9000
M204 S800
;TYPE:External perimeter
G1 F1200
G1 X83.419 Y79.489 E.01275
G1 X83.411 Y102.71 E.7281
G1 X83.338 Y103.124 E.01317
M73 P1 R59
G1 X83.193 Y103.521 E.01324
G1 X82.928 Y103.96 E.01609
G1 X82.638 Y104.277 E.01348
G1 X82.306 Y104.532 E.01311
G1 X82.03 Y104.684 E.00989
G1 X81.829 Y104.767 E.00681
G1 X81.427 Y104.874 E.01303
G1 X81.009 Y104.911 E.01317
G1 X80.593 Y104.874 E.0131
G1 X80.294 Y104.802 E.00965
G1 X79.894 Y104.637 E.01355
G1 X79.624 Y104.473 E.00988
G1 X79.304 Y104.205 E.01311
G1 X79.035 Y103.885 E.01311
G1 X78.872 Y103.615 E.00988
G1 X78.782 Y103.422 E.00667
G1 X78.709 Y103.223 E.00666
G1 X78.634 Y102.916 E.00989
G1 X78.599 Y102.511 E.01275
G1 X78.607 Y79.295 E.72795
G1 X78.636 Y79.079 E.00681
G1 X78.711 Y78.773 E.00989
G1 X78.87 Y78.387 E.0131
G1 X79.096 Y78.032 E.01318
G1 X79.38 Y77.722 E.01318
G1 X79.714 Y77.467 E.01317
G1 X80.086 Y77.273 E.01318
G1 X80.489 Y77.146 E.01325
G1 X80.999 Y77.089 E.01608
G1 X81.423 Y77.125 E.01333
G1 X81.635 Y77.172 E.00682
G1 X81.934 Y77.274 E.00989
G1 X82.3 Y77.465 E.01296
G1 X82.478 Y77.589 E.00681
G1 X82.715 Y77.797 E.00989
G1 X82.982 Y78.115 E.01303
G1 X83.146 Y78.385 E.00989
G1 X83.236 Y78.578 E.00667
G1 X83.308 Y78.777 E.00666
G1 X83.369 Y79.025 E.008
M204 S1250
G1 X83.756 Y79.228 F9000
G1 E-2.24 F4200
;WIPE_START
G1 F7200
G1 X83.419 Y79.489 E-.25818
G1 X83.419 Y80.668 E-.65382
;WIPE_END
G1 E-.048 F4200
G1 Z.4 F9000
G1 X66.839 Y72.378
G1 Z.2
G1 E3.2 F2400
M204 S800
;TYPE:Perimeter
G1 F1200
G1 X66.953 Y72.303 E.00427
G1 X67.056 Y72.287 E.00326
G1 X112.987 Y72.288 E1.44013
G1 X113.107 Y72.324 E.00394
G1 X113.19 Y72.439 E.00444
G1 X113.204 Y72.528 E.00282
G1 X113.204 Y107.466 E1.09547
G1 X113.195 Y107.546 E.00251
G1 X113.161 Y107.622 E.00263
G1 X113.047 Y107.697 E.00427
G1 X112.944 Y107.713 E.00326
G1 X67.043 Y107.713 E1.4392
G1 X66.963 Y107.704 E.00251
G1 X66.887 Y107.67 E.00263
G1 X66.812 Y107.556 E.00428
G1 X66.796 Y107.453 E.00324
G1 X66.796 Y72.534 E1.09488
G1 X66.812 Y72.431 E.00325
M204 S1250
G1 X66.541 Y72.144 F9000
M204 S800
;TYPE:External perimeter
G1 F1200
G1 X66.648 Y72.037 E.00475
G1 X66.834 Y71.939 E.0066
G1 X67.027 Y71.91 E.00612
G1 X113.011 Y71.911 E1.44179
G1 X113.116 Y71.925 E.00333
G1 X113.327 Y72.016 E.00721
G1 X113.419 Y72.097 E.00383
G1 X113.537 Y72.282 E.00687
G1 X113.581 Y72.511 E.00734
G1 X113.581 Y107.486 E1.09662
G1 X113.566 Y107.627 E.00445
G1 X113.525 Y107.749 E.00401
G1 X113.459 Y107.856 E.00395
G1 X113.352 Y107.963 E.00475
G1 X113.166 Y108.061 E.0066
G1 X112.973 Y108.09 E.00611
G1 X67.023 Y108.09 E1.44074
G1 X66.881 Y108.075 E.00445
G1 X66.76 Y108.034 E.00402
G1 X66.653 Y107.968 E.00394
G1 X66.546 Y107.861 E.00475
G1 X66.448 Y107.674 E.00661
G1 X66.419 Y107.482 E.0061
G1 X66.419 Y72.513 E1.09642
G1 X66.434 Y72.373 E.00444
G1 X66.509 Y72.195 E.00605
M204 S1250
G1 X66.691 Y72.16 F9000
G1 X67.079 Y72.755
M204 S800
;TYPE:Solid infill
G1 F1200
G1 X67.165 Y72.669 E.00384
G1 X67.432 Y72.935 E.01182
G1 X67.165 Y73.202 E.01182
G1 X67.699 Y73.735 E.02365
G1 X67.965 Y73.469 E.01182
G1 X67.699 Y73.202 E.01182
G1 X67.965 Y72.935 E.01182
G1 X68.232 Y73.202 E.01182
G1 X68.499 Y72.935 E.01182
G1 X68.133 Y72.57 E.0162
M204 S1250
G1 X67.798 Y72.57 F9000
M204 S800
G1 F1200
G1 X67.699 Y72.669 E.00438
G1 X67.6 Y72.57 E.00438
M204 S1250
G1 X67.079 Y73.649 F9000
M204 S800
G1 F1200
G1 X67.432 Y74.002 E.01566
G1 X67.165 Y74.269 E.01182
G1 X67.079 Y74.182 E.00384
M204 S1250
G1 E-2.24 F4200
;WIPE_START
G1 F7200
G1 X67.165 Y74.269 E-.06788
G1 X67.432 Y74.002 E-.20896
G1 X67.079 Y73.649 E-.27685
;WIPE_END
G1 E-.4063 F4200
G1 Z.4 F9000
G1 X67.079 Y75.782
G1 Z.2
G1 E3.2 F2400
M204 S800
G1 F1200
G1 X67.165 Y75.868 E.00384
G1 X67.079 Y75.955 E.00384
M204 S1250
G1 X67.079 Y76.315 F9000
M204 S800
G1 F1200
G1 X67.165 Y76.402 E.00384
G1 X67.432 Y76.135 E.01182
G1 X67.965 Y76.668 E.02365
G1 X67.699 Y76.935 E.01182
G1 X67.432 Y76.668 E.01182
G1 X67.079 Y77.021 E.01566
M204 S1250
G1 X67.079 Y77.382 F9000
M204 S800
G1 F1200
G1 X67.165 Y77.468 E.00384
G1 X67.432 Y77.202 E.01182
G1 X67.699 Y77.468 E.01182
G1 X67.432 Y77.735 E.01182
G1 X67.699 Y78.001 E.01182
G1 X68.232 Y77.468 E.02365
G1 X67.965 Y77.202 E.01182
G1 X68.232 Y76.935 E.01182
G1 X68.765 Y77.468 E.02365
G1 X68.499 Y77.735 E.01182
G1 X68.765 Y78.001 E.01182
G1 X69.032 Y77.735 E.01182
G1 X69.565 Y78.268 E.02365
G1 X69.299 Y78.535 E.01182
G1 X69.032 Y78.268 E.01182
G1 X68.765 Y78.535 E.01182
G1 X69.032 Y78.801 E.01182
G1 X68.765 Y79.068 E.01182
G1 X68.232 Y78.535 E.02365
G1 X68.499 Y78.268 E.01182
G1 X68.232 Y78.001 E.01182
G1 X67.699 Y78.535 E.02365
G1 X67.965 Y78.801 E.01182
G1 X67.699 Y79.068 E.01182
G1 X67.432 Y78.801 E.01182
G1 X67.079 Y79.155 E.01566
M204 S1250
G1 X67.079 Y79.515 F9000
M204 S800
G1 F1200
G1 X67.165 Y79.601 E.00384
G1 X67.432 Y79.335 E.01182
G1 X67.699 Y79.601 E.01182
G1 X67.432 Y79.868 E.01182
G1 X67.699 Y80.135 E.01182
G1 X68.232 Y79.601 E.02365
G1 X67.965 Y79.335 E.01182
G1 X68.232 Y79.068 E.01182
G1 X69.032 Y79.868 E.03547
G1 X68.765 Y80.135 E.01182
G1 X68.499 Y79.868 E.01182
G1 X67.965 Y80.401 E.02365
G1 X68.232 Y80.668 E.01182
G1 X68.499 Y80.401 E.01182
G1 X68.765 Y80.668 E.01182
G1 X68.499 Y80.934 E.01182
G1 X68.765 Y81.201 E.01182
G1 X69.299 Y80.668 E.02365
G1 X69.032 Y80.401 E.01182
G1 X69.299 Y80.135 E.01182
G1 X69.565 Y80.401 E.01182
G1 X70.098 Y79.868 E.02365
G1 X69.832 Y79.601 E.01182
G1 X69.565 Y79.868 E.01182
G1 X69.032 Y79.335 E.02365
G1 X69.299 Y79.068 E.01182
G1 X69.565 Y79.335 E.01182
G1 X69.832 Y79.068 E.01182
G1 X69.565 Y78.801 E.01182
G1 X69.832 Y78.535 E.01182
G1 X70.365 Y79.068 E.02365
G1 X70.098 Y79.335 E.01182
G1 X70.365 Y79.601 E.01182
G1 X70.632 Y79.335 E.01182
G1 X71.165 Y79.868 E.02365
G1 X70.898 Y80.135 E.01182
G1 X70.632 Y79.868 E.01182
G1 X70.098 Y80.401 E.02365
G1 X70.365 Y80.668 E.01182
G1 X70.632 Y80.401 E.01182
G1 X70.898 Y80.668 E.01182
G1 X70.632 Y80.934 E.01182
G1 X70.898 Y81.201 E.01182
G1 X71.432 Y80.668 E.02365
G1 X71.165 Y80.401 E.01182
G1 X71.432 Y80.135 E.01182
G1 X71.965 Y80.668 E.02365
G1 X71.698 Y80.934 E.01182
G1 X71.965 Y81.201 E.01182
G1 X72.232 Y80.934 E.01182
G1 X72.765 Y81.468 E.02365
G1 X72.498 Y81.734 E.01182
G1 X72.232 Y81.468 E.01182
G1 X71.965 Y81.734 E.01182
G1 X72.232 Y82.001 E.01182
G1 X71.965 Y82.268 E.01182
G1 X71.432 Y81.734 E.02365
G1 X71.698 Y81.468 E.01182
G1 X71.432 Y81.201 E.01182
G1 X71.165 Y81.468 E.01182
G1 X70.632 Y82.001 E.02365
G1 X70.898 Y82.268 E.01182
G1 X71.165 Y82.001 E.01182
G1 X71.698 Y82.534 E.02365
G1 X71.432 Y82.801 E.01182
G1 X71.165 Y82.534 E.01182
G1 X70.898 Y82.801 E.01182
G1 X71.165 Y83.067 E.01182
G1 X70.898 Y83.334 E.01182
G1 X70.365 Y82.801 E.02365
G1 X70.632 Y82.534 E.01182
G1 X70.365 Y82.268 E.01182
G1 X70.098 Y82.534 E.01182
G1 X69.565 Y82.001 E.02365
G1 X69.832 Y81.734 E.01182
G1 X70.098 Y82.001 E.01182
G1 X70.632 Y81.468 E.02365
G1 X70.365 Y81.201 E.01182
G1 X70.098 Y81.468 E.01182
G1 X69.832 Y81.201 E.01182
G1 X70.098 Y80.934 E.01182
G1 X69.832 Y80.668 E.01182
G1 X69.299 Y81.201 E.02365
G1 X69.565 Y81.468 E.01182
G1 X69.299 Y81.734 E.01182
G1 X69.032 Y81.468 E.01182
G1 X68.765 Y81.734 E.01182
G1 X69.032 Y82.001 E.01182
G1 X68.765 Y82.268 E.01182
G1 X68.499 Y82.001 E.01182
G1 X67.965 Y82.534 E.02365
G1 X68.232 Y82.801 E.01182
G1 X68.499 Y82.534 E.01182
G1 X68.765 Y82.801 E.01182
G1 X68.499 Y83.067 E.01182
G1 X68.765 Y83.334 E.01182
G1 X69.299 Y82.801 E.02365
G1 X69.032 Y82.534 E.01182
G1 X69.299 Y82.268 E.01182
G1 X69.832 Y82.801 E.02365
G1 X69.565 Y83.067 E.01182
G1 X69.832 Y83.334 E.01182
G1 X70.098 Y83.067 E.01182
G1 X70.632 Y83.601 E.02365
G1 X70.365 Y83.867 E.01182
G1 X70.098 Y83.601 E.01182
G1 X69.832 Y83.867 E.01182
G1 X70.098 Y84.134 E.01182
G1 X69.832 Y84.401 E.01182
G1 X69.299 Y83.867 E.02365
G1 X69.565 Y83.601 E.01182
G1 X69.299 Y83.334 E.01182
G1 X68.765 Y83.867 E.02365
G1 X68.499 Y84.134 E.01182
G1 X68.765 Y84.401 E.01182
G1 X69.032 Y84.134 E.01182
G1 X69.565 Y84.667 E.02365
G1 X69.299 Y84.934 E.01182
G1 X69.032 Y84.667 E.01182
G1 X68.765 Y84.934 E.01182
G1 X69.032 Y85.201 E.01182
G1 X68.765 Y85.467 E.01182
G1 X68.232 Y84.934 E.02365
G1 X68.499 Y84.667 E.01182
G1 X68.232 Y84.401 E.01182
G1 X67.965 Y84.667 E.01182
G1 X67.432 Y84.134 E.02365
G1 X67.699 Y83.867 E.01182
G1 X67.965 Y84.134 E.01182
G1 X68.499 Y83.601 E.02365
G1 X68.232 Y83.334 E.01182
G1 X67.965 Y83.601 E.01182
G1 X67.699 Y83.334 E.01182
G1 X67.965 Y83.067 E.01182
G1 X67.699 Y82.801 E.01182
G1 X67.165 Y83.334 E.02365
G1 X67.432 Y83.601 E.01182
G1 X67.165 Y83.867 E.01182
G1 X67.079 Y83.781 E.00384
M204 S1250
G1 X67.079 Y85.021 F9000
M204 S800
G1 F1200
G1 X67.165 Y84.934 E.00384
G1 X67.079 Y84.847 E.00384
M204 S1250
G1 X67.079 Y84.487 F9000
M204 S800
G1 F1200
G1 X67.165 Y84.401 E.00384
G1 X67.699 Y84.934 E.02365
G1 X67.432 Y85.201 E.01182
G1 X67.699 Y85.467 E.01182
G1 X67.965 Y85.201 E.01182
G1 X68.499 Y85.734 E.02365
G1 X68.232 Y86 E.01182
G1 X67.965 Y85.734 E.01182
G1 X67.699 Y86 E.01182
G1 X67.965 Y86.267 E.01182
G1 X67.699 Y86.534 E.01182
G1 X67.165 Y86 E.02365
G1 X67.432 Y85.734 E.01182
G1 X67.165 Y85.467 E.01182
G1 X67.079 Y85.554 E.00384
M204 S1250
G1 X67.079 Y86.447 F9000
M204 S800
G1 F1200
G1 X67.432 Y86.8 E.01566
G1 X67.165 Y87.067 E.01182
G1 X67.079 Y86.98 E.00384
M204 S1250
G1 E-2.24 F4200
;WIPE_START
G1 F7200
G1 X67.165 Y87.067 E-.06788
G1 X67.432 Y86.8 E-.20896
G1 X67.079 Y86.447 E-.27685
;WIPE_END
G1 E-.4063 F4200
G1 Z.4 F9000
G1 X67.079 Y88.58
G1 Z.2
G1 E3.2 F2400
M204 S800
G1 F1200
G1 X67.165 Y88.667 E.00384
G1 X67.079 Y88.753 E.00384
M204 S1250
G1 X67.079 Y89.113 F9000
M204 S800
G1 F1200
