; generated by PrusaSlicer 2.5.0 on 2023-02-01 at 18:53:13 UTC


;
;

;
;
; 

; external perimeters extrusion width = 0.68mm
; perimeters extrusion width = 0.68mm
; infill extrusion width = 0.68mm
; solid infill extrusion width = 0.68mm
; top infill extrusion width = 0.60mm
; support material extrusion width = 0.55mm
; first layer extrusion width = 0.65mm

M73 P0 R8
M201 X2500 Y2500 Z400 E5000 ; sets maximum accelerations, mm/sec^2
M203 X180 Y180 Z12 E80 ; sets maximum feedrates, mm / sec
M204 P1250 R1250 T2500 ; sets acceleration (P, T) and retract acceleration (R), mm/sec^2
M205 X8.00 Y8.00 Z2.00 E10.00 ; sets the jerk limits, mm/sec
M205 S0 T0 ; sets the minimum extruding and travel feed rate, mm/sec
M107
;TYPE:Custom
M862.3 P "MINI" ; printer model check
G90 ; use absolute coordinates
M83 ; extruder relative mode
M104 S170 ; set extruder temp for bed leveling
M140 S60 ; set bed temp
M109 R170 ; wait for bed leveling temp
M190 S60 ; wait for bed temp
M204 T1250 ; set travel acceleration
G28 ; home all without mesh bed level
G29 ; mesh bed leveling 
M204 T2500 ; restore travel acceleration
M104 S215 ; set extruder temp
G92 E0
G1 Y-2 X179 F2400
G1 Z3 F720
M109 S215 ; wait for extruder temp

; intro line
G1 X170 F1000
G1 Z0.2 F720
M73 P1 R8
G1 X110 E8 F900
G1 X40 E10 F700
G92 E0

M221 S95 ; set flow
G21 ; set units to millimeters
G90 ; use absolute coordinates
M83 ; use relative distances for extrusion
M900 K0.12 ; Filament gcode LA 1.5
; ; Filament gcode LA 1.0
M107
;LAYER_CHANGE
;Z:0.2
;HEIGHT:0.2
;BEFORE_LAYER_CHANGE
G92 E0.0
;0.2


G1 E-3.2 F4200
M73 P3 R8
G1 Z.2 F720
;AFTER_LAYER_CHANGE
;0.2
G1 Z.4
G1 X67.55 Y75.875 F9000
G1 Z.2 F720
G1 E3.2 F2400
M204 P800
;TYPE:Skirt/Brim
;WIDTH:0.65
G1 F1200
G1 X68.088 Y75.513 E.03274
G1 X68.624 Y75.28 E.0295
G1 X69.67 Y75.109 E.0535
G1 X110.332 Y75.109 E2.05257
G1 X111.232 Y75.236 E.0459
G1 X112.028 Y75.579 E.04372
G1 X112.739 Y76.139 E.0457
G1 X113.333 Y76.918 E.04943
G1 X120.037 Y88.563 E.67832
G1 X120.296 Y89.305 E.03964
G1 X120.391 Y90.061 E.0385
G1 X120.326 Y90.769 E.03588
G1 X120.133 Y91.396 E.03308
G1 X119.538 Y92.341 E.05638
G1 X118.603 Y93.11 E.06112
G1 X99.036 Y104.408 E1.14055
G1 X98.306 Y104.728 E.04023
M73 P4 R8
G1 X97.268 Y104.891 E.05301
G1 X82.768 Y104.891 E.73196
G1 X82.117 Y104.832 E.03297
G1 X81.545 Y104.677 E.02996
G1 X80.964 Y104.408 E.0323
G1 X61.356 Y93.084 E1.14301
G1 X60.414 Y92.285 E.06234
G1 X60.061 Y91.786 E.03088
G1 X59.779 Y91.162 E.03453
G1 X59.621 Y90.393 E.03963
G1 X59.634 Y89.694 E.03532
G1 X59.805 Y88.954 E.03833
G1 X60.12 Y88.257 E.03864
G1 X66.751 Y76.781 E.66902
G1 X67.49 Y75.943 E.05642
M204 P1250
; printing object side_plane.stl id:0 copy 0
G1 E-2.24 F4200
;WIPE_START
G1 F7200
G1 X68.088 Y75.513 E-.40787
G1 X68.624 Y75.28 E-.32386
G1 X68.945 Y75.228 E-.18027
;WIPE_END
G1 E-.048 F4200
G1 Z.4 F720
G1 X97.641 Y86.044 F9000
G1 Z.2 F720
G1 E3.2 F2400
M204 P800
;TYPE:Perimeter
;WIDTH:0.649999
G1 F1200
G1 X97.776 Y86.025 E.00688
G1 X98.295 Y85.811 E.02836
G1 X110.186 Y78.946 E.69307
G1 X116.555 Y89.975 E.64289
G1 X97.178 Y101.152 E1.12917
M73 P5 R8
G1 X83.585 Y101.152 E.68616
G1 X82.787 Y101.142 E.04028
G1 X63.445 Y89.975 E1.12738
G1 X69.814 Y78.946 E.64289
G1 X81.762 Y85.842 E.6964
G1 X82.252 Y86.033 E.02656
G1 X82.765 Y86.095 E.02605
G1 X97.27 Y86.095 E.73219
G1 X97.552 Y86.056 E.01437
M204 P1250
M73 P6 R8
G1 X97.533 Y85.45 F9000
M204 P800
;TYPE:External perimeter
G1 F1200
G1 X97.992 Y85.285 E.02458
G1 X109.961 Y78.375 E.69767
G1 X110.243 Y78.261 E.01538
G1 X110.456 Y78.302 E.01093
G1 X110.628 Y78.498 E.01316
G1 X117.109 Y89.721 E.65419
G1 X117.24 Y90.054 E.01806
M73 P6 R7
G1 X117.23 Y90.204 E.00763
G1 X116.958 Y90.443 E.0183
G1 X97.491 Y101.683 E1.13468
G1 X97.212 Y101.759 E.01459
G1 X82.796 Y101.759 E.7277
G1 X82.516 Y101.687 E.0146
G1 X63.08 Y90.465 E1.13291
G1 X62.792 Y90.222 E.01902
G1 X62.758 Y90.093 E.00671
G1 X62.864 Y89.768 E.01728
G1 X69.338 Y78.555 E.65356
G1 X69.494 Y78.352 E.0129
M73 P7 R7
G1 X69.663 Y78.246 E.0101
G1 X70.014 Y78.361 E.01867
G1 X81.981 Y85.27 E.69751
G1 X82.351 Y85.429 E.02035
G1 X82.765 Y85.488 E.02108
G1 X97.235 Y85.488 E.73044
G1 X97.444 Y85.461 E.01065
M204 P1250
G1 X97.867 Y85.805 F9000
G1 E-2.24 F4200
;WIPE_START
G1 F7200
G1 X97.992 Y85.285 E-.31876
G1 X98.919 Y84.75 E-.59324
;WIPE_END
G1 E-.048 F4200
G1 Z.4 F720
G1 X69.852 Y86.179 F9000
G1 Z.2 F720
G1 E3.2 F2400
M204 P800
;TYPE:Perimeter
G1 F1200
G1 X69.898 Y86.095 E.00482
G1 X70.27 Y85.659 E.02898
G1 X70.661 Y85.354 E.02503
G1 X71.173 Y85.093 E.02897
G1 X71.649 Y84.961 E.02495
G1 X72.211 Y84.916 E.02848
G1 X72.715 Y84.976 E.02562
G1 X73.279 Y85.163 E.02999
G1 X73.774 Y85.454 E.02897
G1 X74.142 Y85.786 E.02504
G1 X74.488 Y86.245 E.02898
G1 X74.701 Y86.693 E.02504
G1 X74.845 Y87.248 E.02898
G1 X74.873 Y87.724 E.02404
G1 X74.812 Y88.216 E.02503
G1 X74.657 Y88.716 E.02646
G1 X74.39 Y89.193 E.02758
G1 X74.018 Y89.63 E.02897
G1 X73.627 Y89.935 E.02504
G1 X73.115 Y90.196 E.02898
G1 X72.637 Y90.328 E.02504
G1 X72.065 Y90.373 E.02898
G1 X71.572 Y90.313 E.02504
G1 X71.009 Y90.126 E.02997
G1 X70.514 Y89.834 E.02899
G1 X70.146 Y89.502 E.02503
G1 X69.8 Y89.044 E.029
G1 X69.593 Y88.615 E.02401
G1 X69.46 Y88.137 E.02503
G1 X69.417 Y87.743 E.02001
G1 X69.46 Y87.151 E.02997
G1 X69.606 Y86.635 E.02707
G1 X69.809 Y86.259 E.02161
M204 P1250
G1 X70.344 Y86.526 F9000
M204 P800
;TYPE:External perimeter
G1 F1200
G1 X70.661 Y86.124 E.02584
G1 X70.953 Y85.886 E.01904
G1 X71.355 Y85.672 E.02299
G1 X71.716 Y85.564 E.01902
G1 X72.16 Y85.521 E.02252
G1 X72.545 Y85.559 E.01953
G1 X72.987 Y85.695 E.02334
G1 X73.384 Y85.92 E.02299
G1 X73.669 Y86.166 E.01905
G1 X73.949 Y86.525 E.02299
G1 X74.118 Y86.863 E.01905
G1 X74.24 Y87.301 E.02299
G1 X74.268 Y87.671 E.01871
G1 X74.229 Y88.046 E.01904
G1 X74.027 Y88.614 E.03045
G1 X73.917 Y88.813 E.01149
G1 X73.627 Y89.165 E.02299
G1 X73.335 Y89.403 E.01904
G1 X72.933 Y89.617 E.02299
G1 X72.571 Y89.725 E.01905
G1 X72.118 Y89.768 E.02299
G1 X71.742 Y89.73 E.01905
G1 X71.301 Y89.593 E.02332
G1 X70.904 Y89.369 E.023
G1 X70.619 Y89.122 E.01904
G1 X70.338 Y88.763 E.023
G1 X70.172 Y88.433 E.0187
G1 X70.064 Y88.071 E.01904
G1 X70.021 Y87.677 E.02001
G1 X70.076 Y87.159 E.02631
G1 X70.192 Y86.807 E.0187
G1 X70.301 Y86.605 E.0116
M204 P1250
G1 X70.113 Y86.069 F9000
G1 E-2.24 F4200
;WIPE_START
G1 F7200
G1 X70.661 Y86.124 E-.33288
G1 X70.953 Y85.886 E-.20906
G1 X71.355 Y85.672 E-.25233
G1 X71.559 Y85.611 E-.11773
;WIPE_END
G1 E-.048 F4200
G1 Z.4 F720
G1 X85.969 Y93.084 F9000
G1 Z.2 F720
G1 E3.2 F2400
M204 P800
;TYPE:Perimeter
G1 F1200
G1 X86.264 Y92.498 E.03313
G1 X86.835 Y91.759 E.04712
G1 X87.565 Y91.146 E.04812
G1 X88.251 Y90.769 E.03954
G1 X88.975 Y90.526 E.03854
G1 X89.89 Y90.407 E.04661
G1 X90.681 Y90.458 E.03997
G1 X91.583 Y90.702 E.04719
G1 X92.286 Y91.048 E.03955
G1 X93.025 Y91.619 E.04714
G1 X93.638 Y92.349 E.0481
G1 X93.889 Y92.792 E.02571
G1 X94.081 Y93.199 E.02275
G1 X94.291 Y93.916 E.03768
G1 X94.379 Y94.703 E.03997
G1 X94.326 Y95.466 E.03861
G1 X94.082 Y96.367 E.04712
G1 X93.829 Y96.89 E.02931
G1 X93.638 Y97.219 E.01921
G1 X93.165 Y97.808 E.03814
G1 X92.435 Y98.422 E.04812
M73 P8 R7
G1 X91.749 Y98.799 E.03954
G1 X91.025 Y99.041 E.03855
G1 X90.099 Y99.16 E.04712
G1 X89.15 Y99.078 E.0481
G1 X88.397 Y98.859 E.03955
G1 X87.571 Y98.426 E.04712
G1 X86.96 Y97.936 E.03952
G1 X86.368 Y97.228 E.04661
G1 X85.986 Y96.534 E.03997
G1 X85.709 Y95.651 E.04669
G1 X85.621 Y94.865 E.03997
G1 X85.674 Y94.101 E.03862
G1 X85.805 Y93.588 E.02673
G1 X85.941 Y93.17 E.02222
M204 P1250
G1 X86.571 Y93.224 F9000
M204 P800
;TYPE:External perimeter
G1 F1200
G1 X86.803 Y92.778 E.02538
G1 X87.308 Y92.139 E.04113
G1 X87.945 Y91.619 E.04147
G1 X88.531 Y91.307 E.03355
G1 X89.157 Y91.105 E.03321
G1 X89.957 Y91.011 E.04066
G1 X90.629 Y91.062 E.034
G1 X91.413 Y91.285 E.04116
G1 X92.006 Y91.587 E.03356
G1 X92.645 Y92.092 E.04115
G1 X93.165 Y92.728 E.04146
G1 X93.477 Y93.315 E.03354
G1 X93.708 Y94.086 E.04066
G1 X93.774 Y94.757 E.034
G1 X93.721 Y95.413 E.03323
G1 X93.499 Y96.197 E.04113
G1 X93.197 Y96.789 E.03355
G1 X92.692 Y97.428 E.04113
G1 X92.055 Y97.948 E.04147
G1 X91.469 Y98.26 E.03355
G1 X90.842 Y98.463 E.03322
G1 X90.033 Y98.557 E.04113
G1 X89.216 Y98.475 E.04146
G1 X88.58 Y98.28 E.03356
G1 X87.863 Y97.894 E.04113
G1 X87.35 Y97.471 E.03354
G1 X86.841 Y96.847 E.04066
G1 X86.524 Y96.253 E.034
G1 X86.292 Y95.481 E.04069
G1 X86.226 Y94.811 E.034
G1 X86.279 Y94.154 E.03324
G1 X86.533 Y93.306 E.0447
M204 P1250
G1 X86.264 Y92.826 F9000
G1 E-2.24 F4200
;WIPE_START
G1 F7200
G1 X86.803 Y92.778 E-.32835
G1 X87.308 Y92.139 E-.45156
G1 X87.493 Y91.988 E-.13209
;WIPE_END
G1 E-.048 F4200
G1 Z.4 F720
G1 X110.518 Y88.222 F9000
G1 Z.2 F720
G1 E3.2 F2400
M204 P800
;TYPE:Perimeter
G1 F1200
G1 X110.509 Y88.294 E.00366
G1 X110.347 Y88.762 E.02498
G1 X110.102 Y89.193 E.02504
G1 X109.73 Y89.63 E.02897
G1 X109.339 Y89.935 E.02504
G1 X108.808 Y90.202 E.02997
G1 X108.252 Y90.345 E.02899
G1 X107.757 Y90.371 E.02504
G1 X107.188 Y90.291 E.02898
G1 X106.721 Y90.126 E.02504
G1 X106.226 Y89.834 E.02897
G1 X105.858 Y89.502 E.02503
G1 X105.539 Y89.091 E.02627
G1 X105.3 Y88.601 E.02752
G1 X105.155 Y88.04 E.02923
G1 X105.127 Y87.724 E.01604
G1 X105.188 Y87.073 E.03299
G1 X105.365 Y86.527 E.02897
G1 X105.61 Y86.095 E.02504
G1 X105.983 Y85.659 E.02898
G1 X106.373 Y85.354 E.02503
G1 X106.885 Y85.093 E.02897
G1 X107.361 Y84.961 E.02495
G1 X107.923 Y84.916 E.02848
G1 X108.427 Y84.976 E.02563
G1 X108.991 Y85.163 E.02998
G1 X109.486 Y85.454 E.02898
G1 X109.854 Y85.786 E.02504
G1 X110.181 Y86.21 E.027
G1 X110.407 Y86.673 E.02604
G1 X110.54 Y87.151 E.02503
G1 X110.583 Y87.743 E.02997
G1 X110.53 Y88.133 E.01984
M204 P1250
G1 X109.904 Y88.189 F9000
M204 P800
;TYPE:External perimeter
G1 F1200
G1 X109.808 Y88.482 E.01552
G1 X109.629 Y88.813 E.01904
G1 X109.339 Y89.165 E.02299
G1 X109.047 Y89.403 E.01905
G1 X108.638 Y89.619 E.02333
G1 X108.199 Y89.741 E.023
G1 X107.823 Y89.768 E.01905
G1 X107.371 Y89.712 E.02299
G1 X107.013 Y89.593 E.01905
G1 X106.616 Y89.369 E.02298
G1 X106.331 Y89.122 E.01904
G1 X106.051 Y88.764 E.02299
G1 X105.882 Y88.426 E.01905
G1 X105.76 Y87.987 E.02299
G1 X105.732 Y87.671 E.01604
G1 X105.771 Y87.243 E.02169
G1 X105.904 Y86.807 E.02298
G1 X106.083 Y86.475 E.01905
G1 X106.373 Y86.124 E.02299
G1 X106.665 Y85.886 E.01904
G1 X107.067 Y85.672 E.02298
G1 X107.428 Y85.564 E.01902
G1 X107.872 Y85.521 E.02252
G1 X108.335 Y85.582 E.02357
G1 X108.699 Y85.695 E.01924
G1 X109.096 Y85.92 E.023
G1 X109.381 Y86.166 E.01905
G1 X109.662 Y86.525 E.02299
G1 X109.828 Y86.856 E.0187
G1 X109.936 Y87.217 E.01903
G1 X109.979 Y87.677 E.02333
G1 X109.927 Y88.103 E.02163
M204 P1250
G1 X110.13 Y88.398 F9000
G1 X111.001 Y88.104
M204 P800
;TYPE:Solid infill
;WIDTH:0.65
G1 F1200
G1 X111.18 Y88.283 E.01275
G1 X110.902 Y88.561 E.01987
M204 P1250
G1 E-2.24 F4200
;WIPE_START
G1 F7200
G1 X111.18 Y88.283 E-.21816
G1 X111.001 Y88.104 E-.14002
;WIPE_END
G1 E-.60182 F4200
G1 Z.4 F720
G1 X108.779 Y90.684 F9000
G1 Z.2 F720
G1 E3.2 F2400
M204 P800
G1 F1200
G1 X108.175 Y91.288 E.04307
G1 X107.746 Y90.859 E.03064
G1 X107.779 Y90.825 E.00237
M204 P1250
G1 E-2.24 F4200
;WIPE_START
G1 F7200
G1 X107.746 Y90.859 E-.02603
G1 X108.175 Y91.288 E-.33642
G1 X108.779 Y90.684 E-.47288
;WIPE_END
G1 E-.12467 F4200
G1 Z.4 F720
G1 X105.886 Y90.143 F9000
G1 Z.2 F720
G1 E3.2 F2400
M204 P800
G1 F1200
G1 X105.6 Y90.429 E.02043
G1 X105.17 Y90 E.03064
G1 X105.449 Y89.721 E.01992
M204 P1250
G1 X104.925 Y88.896 F9000
M204 P800
G1 F1200
G1 X104.741 Y88.712 E.01314
G1 X104.312 Y89.141 E.03064
G1 X104.741 Y89.571 E.03064
G1 X104.312 Y90 E.03064
G1 X103.882 Y89.571 E.03064
G1 X103.453 Y90 E.03064
M73 P9 R7
G1 X104.312 Y90.859 E.06129
G1 X104.741 Y90.429 E.03064
G1 X105.17 Y90.859 E.03064
G1 X104.741 Y91.288 E.03064
G1 X105.6 Y92.146 E.06129
G1 X106.029 Y91.717 E.03064
G1 X105.6 Y91.288 E.03064
G1 X106.412 Y90.476 E.05799
M204 P1250
G1 X106.594 Y90.565 F9000
M204 P800
G1 F1200
G1 X106.887 Y90.859 E.02096
G1 X106.458 Y91.288 E.03064
G1 X106.887 Y91.717 E.03064
G1 X107.317 Y91.288 E.03064
G1 X107.746 Y91.717 E.03064
G1 X106.887 Y92.576 E.06129
G1 X106.458 Y92.146 E.03064
G1 X106.029 Y92.576 E.03064
G1 X106.887 Y93.434 E.06129
G1 X107.317 Y93.005 E.03064
G1 X107.746 Y93.434 E.03064
G1 X107.317 Y93.863 E.03064
G1 X107.9 Y94.446 E.04162
M204 P1250
G1 X108.444 Y94.132 F9000
M204 P800
G1 F1200
G1 X108.175 Y93.863 E.01919
G1 X108.604 Y93.434 E.03064
G1 X108.988 Y93.818 E.0274
M204 P1250
G1 X109.203 Y93.694 F9000
M204 P800
G1 F1200
G1 X109.463 Y93.434 E.01854
G1 X108.604 Y92.576 E.06129
G1 X108.175 Y93.005 E.03064
G1 X107.746 Y92.576 E.03064
G1 X108.604 Y91.717 E.06129
G1 X109.034 Y92.146 E.03064
G1 X109.463 Y91.717 E.03064
G1 X109.034 Y91.288 E.03064
G1 X109.892 Y90.429 E.06129
G1 X110.322 Y90.859 E.03064
G1 X109.892 Y91.288 E.03064
G1 X110.322 Y91.717 E.03064
G1 X110.751 Y91.288 E.03064
G1 X111.18 Y91.717 E.03064
G1 X110.322 Y92.576 E.06129
G1 X109.892 Y92.146 E.03064
G1 X109.463 Y92.576 E.03064
G1 X110.077 Y93.19 E.04382
M204 P1250
G1 X111.235 Y92.521 F9000
M204 P800
G1 F1200
G1 X111.609 Y92.146 E.02675
G1 X111.71 Y92.247 E.00717
M204 P1250
G1 X112.254 Y91.933 F9000
M204 P800
G1 F1200
G1 X112.039 Y91.717 E.01538
G1 X112.897 Y90.859 E.06129
G1 X113.326 Y91.288 E.03064
G1 X113.756 Y90.859 E.03064
G1 X112.468 Y89.571 E.09193
G1 X112.039 Y90 E.03064
G1 X112.468 Y90.429 E.03064
G1 X111.609 Y91.288 E.06129
G1 X111.18 Y90.859 E.03064
G1 X111.609 Y90.429 E.03064
G1 X111.18 Y90 E.03064
G1 X110.751 Y90.429 E.03064
G1 X110.322 Y90 E.03064
G1 X111.18 Y89.141 E.06129
G1 X111.609 Y89.571 E.03064
G1 X112.039 Y89.141 E.03064
G1 X111.609 Y88.712 E.03064
G1 X112.468 Y87.854 E.06129
G1 X112.897 Y88.283 E.03064
G1 X112.468 Y88.712 E.03064
G1 X113.326 Y89.571 E.06129
G1 X113.756 Y89.141 E.03064
G1 X113.326 Y88.712 E.03064
G1 X113.756 Y88.283 E.03064
G1 X114.185 Y88.712 E.03064
G1 X114.614 Y88.283 E.03064
G1 X113.756 Y87.424 E.06129
G1 X113.326 Y87.854 E.03064
G1 X112.897 Y87.424 E.03064
G1 X113.326 Y86.995 E.03064
G1 X112.468 Y86.137 E.06129
G1 X112.039 Y86.566 E.03064
G1 X112.468 Y86.995 E.03064
G1 X111.609 Y87.854 E.06129
G1 X111.18 Y87.424 E.03064
G1 X111.609 Y86.995 E.03064
G1 X111.18 Y86.566 E.03064
G1 X110.929 Y86.817 E.01791
M204 P1250
G1 X110.689 Y86.199 F9000
M204 P800
G1 F1200
G1 X111.18 Y85.707 E.03508
G1 X111.609 Y86.137 E.03064
G1 X112.039 Y85.707 E.03064
G1 X111.18 Y84.849 E.06129
G1 X110.751 Y85.278 E.03064
G1 X110.322 Y84.849 E.03064
G1 X110.751 Y84.419 E.03064
G1 X109.892 Y83.561 E.06129
G1 X109.463 Y83.99 E.03064
G1 X109.892 Y84.419 E.03064
G1 X109.463 Y84.849 E.03064
G1 X109.034 Y84.419 E.03064
G1 X108.833 Y84.62 E.01433
M204 P1250
G1 X107.396 Y84.499 F9000
M204 P800
G1 F1200
G1 X106.887 Y83.99 E.03631
G1 X106.458 Y84.419 E.03064
G1 X106.029 Y83.99 E.03064
G1 X107.317 Y82.702 E.09193
G1 X107.746 Y83.132 E.03064
G1 X107.317 Y83.561 E.03064
G1 X108.175 Y84.419 E.06129
G1 X108.604 Y83.99 E.03064
G1 X108.175 Y83.561 E.03064
G1 X108.604 Y83.132 E.03064
G1 X109.034 Y83.561 E.03064
G1 X109.463 Y83.132 E.03064
G1 X108.604 Y82.273 E.06129
G1 X108.175 Y82.702 E.03064
G1 X107.746 Y82.273 E.03064
G1 X108.175 Y81.844 E.03064
G1 X107.407 Y81.076 E.05481
M204 P1250
G1 X106.978 Y81.324 F9000
M204 P800
G1 F1200
G1 X106.887 Y81.415 E.00647
G1 X107.317 Y81.844 E.03064
G1 X106.458 Y82.702 E.06129
G1 X106.029 Y82.273 E.03064
G1 X106.458 Y81.844 E.03064
G1 X106.319 Y81.705 E.00994
M204 P1250
G1 E-2.24 F4200
;WIPE_START
G1 F7200
M73 P10 R7
G1 X106.458 Y81.844 E-.10916
G1 X106.029 Y82.273 E-.33642
G1 X106.458 Y82.702 E-.33642
G1 X106.624 Y82.537 E-.12999
;WIPE_END
G1 E-.048 F4200
G1 Z.4 F720
G1 X104.947 Y82.497 F9000
G1 Z.2 F720
G1 E3.2 F2400
M204 P800
G1 F1200
G1 X104.741 Y82.702 E.01468
G1 X105.17 Y83.132 E.03064
G1 X105.6 Y82.702 E.03064
G1 X106.029 Y83.132 E.03064
G1 X105.17 Y83.99 E.06129
G1 X104.741 Y83.561 E.03064
G1 X104.312 Y83.99 E.03064
G1 X105.17 Y84.849 E.06129
G1 X105.6 Y84.419 E.03064
G1 X106.029 Y84.849 E.03064
G1 X105.6 Y85.278 E.03064
G1 X105.661 Y85.339 E.00435
M204 P1250
G1 X105.263 Y85.8 F9000
M204 P800
G1 F1200
G1 X105.17 Y85.707 E.00662
