; generated by PrusaSlicer 2.5.0 on 2023-02-01 at 18:52:25 UTC


;
;

;
;
; 

; external perimeters extrusion width = 0.68mm
; perimeters extrusion width = 0.68mm
; infill extrusion width = 0.68mm
; solid infill extrusion width = 0.68mm
; top infill extrusion width = 0.60mm
; support material extrusion width = 0.55mm
; first layer extrusion width = 0.65mm

M73 P0 R24
M201 X2500 Y2500 Z400 E5000 ; sets maximum accelerations, mm/sec^2
M203 X180 Y180 Z12 E80 ; sets maximum feedrates, mm / sec
M204 P1250 R1250 T2500 ; sets acceleration (P, T) and retract acceleration (R), mm/sec^2
M205 X8.00 Y8.00 Z2.00 E10.00 ; sets the jerk limits, mm/sec
M205 S0 T0 ; sets the minimum extruding and travel feed rate, mm/sec
M107
;TYPE:Custom
M862.3 P "MINI" ; printer model check
G90 ; use absolute coordinates
M83 ; extruder relative mode
M104 S170 ; set extruder temp for bed leveling
M140 S60 ; set bed temp
M109 R170 ; wait for bed leveling temp
M190 S60 ; wait for bed temp
M204 T1250 ; set travel acceleration
G28 ; home all without mesh bed level
G29 ; mesh bed leveling 
M204 T2500 ; restore travel acceleration
M104 S215 ; set extruder temp
G92 E0
G1 Y-2 X179 F2400
G1 Z3 F720
M109 S215 ; wait for extruder temp

; intro line
G1 X170 F1000
G1 Z0.2 F720
G1 X110 E8 F900
G1 X40 E10 F700
G92 E0

M221 S95 ; set flow
G21 ; set units to millimeters
G90 ; use absolute coordinates
M83 ; use relative distances for extrusion
M900 K0.12 ; Filament gcode LA 1.5
; ; Filament gcode LA 1.0
M107
;LAYER_CHANGE
;Z:0.2
;HEIGHT:0.2
;BEFORE_LAYER_CHANGE
G92 E0.0
;0.2


G1 E-3.2 F4200
M73 P1 R24
G1 Z.2 F720
;AFTER_LAYER_CHANGE
;0.2
G1 Z.4
G1 X61.461 Y86.853 F9000
G1 Z.2 F720
G1 E3.2 F2400
M204 P800
;TYPE:Skirt/Brim
;WIDTH:0.65
G1 F1200
G1 X80.965 Y75.592 E1.13681
G1 X81.627 Y75.294 E.03667
G1 X82.759 Y75.109 E.05791
G1 X97.268 Y75.109 E.73241
G1 X98.138 Y75.225 E.0443
G1 X98.981 Y75.562 E.0458
G1 X118.539 Y86.853 E1.13998
G1 X119.41 Y87.521 E.05542
G1 X119.998 Y88.32 E.05007
G1 X120.291 Y89.078 E.04103
G1 X120.391 Y89.879 E.04074
G1 X120.309 Y90.642 E.03874
G1 X120.041 Y91.429 E.04197
G1 X113.359 Y103.038 E.67618
G1 X112.649 Y103.949 E.05831
G1 X112.155 Y104.341 E.03181
G1 X111.613 Y104.63 E.03101
G1 X111 Y104.821 E.0324
G1 X110.44 Y104.889 E.02851
G1 X69.67 Y104.891 E2.05801
G1 X69 Y104.821 E.03401
G1 X68.347 Y104.614 E.03457
G1 X67.756 Y104.281 E.03423
G1 X67.213 Y103.811 E.03629
G1 X66.646 Y103.047 E.04802
G1 X59.867 Y91.215 E.68831
G1 X59.623 Y90.207 E.05237
G1 X59.679 Y89.207 E.05053
G1 X60.061 Y88.214 E.05369
G1 X60.703 Y87.411 E.05194
G1 X61.389 Y86.906 E.04296
M204 P1250
; printing object side_block.stl id:0 copy 0
G1 E-2.24 F4200
;WIPE_START
G1 F7200
G1 X62.814 Y86.082 E-.912
;WIPE_END
G1 E-.048 F4200
G1 Z.4 F720
G1 X72.248 Y89.977 F9000
G1 Z.2 F720
G1 E3.2 F2400
M204 P800
;TYPE:Support material
G1 F1200
G1 X72.659 Y90.031 E.02095
G1 X72.86 Y90.085 E.01049
G1 X73.15 Y90.198 E.01571
G1 X73.509 Y90.405 E.02095
G1 X73.674 Y90.532 E.01049
G1 X73.899 Y90.747 E.01571
G1 X74.152 Y91.076 E.02095
G1 X74.302 Y91.35 E.01574
G1 X74.381 Y91.541 E.01047
G1 X74.444 Y91.739 E.01049
G1 X74.504 Y92.045 E.01572
G1 X74.523 Y92.459 E.02095
G1 X74.504 Y92.666 E.01049
G1 X74.444 Y92.972 E.01572
G1 X74.302 Y93.362 E.02094
G1 X74.152 Y93.635 E.01573
G1 X74.033 Y93.805 E.01049
G1 X73.753 Y94.111 E.02093
G1 X73.593 Y94.244 E.0105
G1 X73.334 Y94.417 E.01572
G1 X72.958 Y94.593 E.02096
G1 X72.659 Y94.68 E.01572
G1 X72.455 Y94.716 E.01048
G1 X72.04 Y94.734 E.02095
G1 X71.629 Y94.68 E.02095
G1 X71.428 Y94.626 E.0105
G1 X71.138 Y94.513 E.01571
G1 X70.865 Y94.364 E.01572
G1 X70.695 Y94.244 E.01048
G1 X70.389 Y93.964 E.02096
G1 X70.136 Y93.635 E.02094
G1 X70.032 Y93.455 E.01048
G1 X69.907 Y93.17 E.01571
G1 X69.799 Y92.769 E.02096
G1 X69.772 Y92.563 E.01049
G1 X69.765 Y92.252 E.01573
G1 X69.799 Y91.942 E.01572
G1 X69.844 Y91.739 E.01047
G1 X69.986 Y91.35 E.02094
G1 X70.194 Y90.99 E.02095
G1 X70.32 Y90.825 E.0105
G1 X70.536 Y90.6 E.01572
G1 X70.865 Y90.348 E.02094
G1 X71.138 Y90.198 E.01573
G1 X71.33 Y90.118 E.01048
G1 X71.731 Y90.011 E.02095
G1 X72.157 Y89.975 E.02159
M204 P1250
G1 X73.811 Y93.645 F9000
M204 P800
G1 F1200
G1 X73.811 Y91.591 E.10365
G1 X73.691 Y91.37 E.01272
G1 X73.549 Y91.177 E.01209
G1 X73.383 Y91.003 E.01211
G1 X73.137 Y90.813 E.01572
G1 X73.137 Y93.898 E.1557
G1 X72.846 Y94.05 E.01657
G1 X72.462 Y94.162 E.02018
G1 X72.462 Y90.549 E.18238
G1 X72.144 Y90.521 E.01612
G1 X71.788 Y90.557 E.01808
G1 X71.788 Y94.155 E.18161
G1 X71.442 Y94.05 E.01823
G1 X71.113 Y93.872 E.01887
G1 X71.113 Y90.839 E.15313
G1 X70.905 Y91.003 E.01339
G1 X70.689 Y91.239 E.01614
G1 X70.556 Y91.438 E.0121
G1 X70.439 Y91.681 E.01361
G1 X70.439 Y93.593 E.09651
M204 P1250
G1 E-2.24 F4200
;WIPE_START
G1 F7200
G1 X70.439 Y91.947 E-.912
;WIPE_END
G1 E-.048 F4200
G1 Z.4 F720
G1 X90.104 Y82.838 F9000
G1 Z.2 F720
G1 E3.2 F2400
M204 P800
G1 F1200
G1 X90.515 Y82.892 E.02093
G1 X90.716 Y82.946 E.01052
G1 X91.006 Y83.058 E.01569
G1 X91.191 Y83.155 E.01055
G1 X91.449 Y83.328 E.01568
G1 X91.756 Y83.609 E.021
G1 X91.95 Y83.851 E.01565
G1 X92.062 Y84.026 E.01051
G1 X92.237 Y84.402 E.02092
G1 X92.324 Y84.701 E.01572
G1 X92.36 Y84.905 E.01048
G1 X92.379 Y85.32 E.02095
G1 X92.36 Y85.527 E.01049
G1 X92.3 Y85.832 E.01571
G1 X92.158 Y86.222 E.02097
G1 X91.95 Y86.583 E.02101
G1 X91.754 Y86.826 E.01573
G1 X91.607 Y86.973 E.01049
G1 X91.366 Y87.167 E.01565
G1 X91.19 Y87.278 E.01051
G1 X90.814 Y87.454 E.02095
G1 X90.413 Y87.561 E.02095
G1 X90.207 Y87.588 E.01048
G1 X89.896 Y87.595 E.01568
G1 X89.587 Y87.561 E.01572
G1 X89.384 Y87.516 E.01048
G1 X88.994 Y87.374 E.02095
G1 X88.81 Y87.278 E.01049
G1 X88.551 Y87.105 E.01572
G1 X88.244 Y86.824 E.02103
G1 X88.11 Y86.665 E.01048
G1 X87.938 Y86.407 E.01567
G1 X87.763 Y86.031 E.02094
G1 X87.655 Y85.63 E.02094
G1 X87.628 Y85.424 E.0105
G1 X87.622 Y85.112 E.01576
G1 X87.655 Y84.803 E.01566
G1 X87.7 Y84.6 E.01048
G1 X87.842 Y84.21 E.02096
G1 X87.992 Y83.937 E.0157
G1 X88.111 Y83.767 E.01049
G1 X88.392 Y83.461 E.02098
G1 X88.721 Y83.208 E.02094
G1 X88.994 Y83.059 E.01571
G1 X89.186 Y82.979 E.01049
G1 X89.587 Y82.872 E.02096
G1 X90.013 Y82.836 E.02159
M204 P1250
G1 X91.349 Y86.835 F9000
M204 P800
G1 F1200
G1 X91.349 Y83.974 E.14445
G1 X91.052 Y83.714 E.01992
G1 X90.847 Y83.589 E.01211
G1 X90.675 Y83.511 E.00956
G1 X90.675 Y86.922 E.17217
G1 X90.318 Y87.023 E.01871
G1 X90 Y87.051 E.01611
G1 X90 Y83.382 E.18519
G1 X89.682 Y83.41 E.01614
G1 X89.325 Y83.511 E.01869
G1 X89.325 Y86.922 E.17217
G1 X89.153 Y86.843 E.00955
G1 X88.948 Y86.719 E.01211
G1 X88.651 Y86.459 E.01994
G1 X88.651 Y83.597 E.14445
M204 P1250
G1 E-2.24 F4200
;WIPE_START
G1 F7200
G1 X88.651 Y85.243 E-.912
;WIPE_END
G1 E-.048 F4200
G1 Z.4 F720
G1 X107.96 Y89.977 F9000
G1 Z.2 F720
G1 E3.2 F2400
M204 P800
G1 F1200
G1 X108.371 Y90.031 E.02095
G1 X108.67 Y90.118 E.01572
G1 X108.862 Y90.198 E.01048
G1 X109.222 Y90.405 E.02095
G1 X109.386 Y90.532 E.01049
G1 X109.611 Y90.747 E.01572
G1 X109.864 Y91.076 E.02094
G1 X109.968 Y91.256 E.01049
G1 X110.093 Y91.541 E.01571
G1 X110.201 Y91.942 E.02096
G1 X110.228 Y92.148 E.01049
G1 X110.235 Y92.46 E.01573
G1 X110.201 Y92.769 E.01571
G1 X110.156 Y92.972 E.01048
G1 X110.014 Y93.362 E.02094
G1 X109.806 Y93.721 E.02095
G1 X109.68 Y93.886 E.0105
G1 X109.464 Y94.111 E.01571
G1 X109.135 Y94.364 E.02095
G1 X108.862 Y94.513 E.01572
G1 X108.67 Y94.593 E.01049
G1 X108.371 Y94.68 E.01572
G1 X108.167 Y94.716 E.01048
G1 X107.752 Y94.734 E.02095
G1 X107.341 Y94.68 E.02095
G1 X107.14 Y94.626 E.0105
G1 X106.85 Y94.513 E.01571
G1 X106.666 Y94.417 E.01048
G1 X106.407 Y94.244 E.01572
G1 X106.101 Y93.964 E.02095
G1 X105.848 Y93.635 E.02095
G1 X105.698 Y93.362 E.01573
G1 X105.619 Y93.17 E.01047
G1 X105.556 Y92.972 E.01049
G1 X105.496 Y92.666 E.01572
G1 X105.477 Y92.252 E.02094
G1 X105.532 Y91.84 E.02095
G1 X105.619 Y91.541 E.01574
G1 X105.698 Y91.35 E.01046
G1 X105.848 Y91.076 E.01574
G1 X105.967 Y90.906 E.01048
G1 X106.248 Y90.6 E.02094
G1 X106.491 Y90.405 E.01573
G1 X106.666 Y90.294 E.01047
G1 X107.042 Y90.118 E.02096
G1 X107.443 Y90.011 E.02095
G1 X107.869 Y89.975 E.02159
M204 P1250
G1 X109.561 Y93.593 F9000
M204 P800
G1 F1200
M73 P2 R24
G1 X109.561 Y91.681 E.09651
G1 X109.444 Y91.438 E.01361
G1 X109.311 Y91.239 E.0121
G1 X109.095 Y91.003 E.01614
G1 X108.887 Y90.839 E.01339
G1 X108.887 Y93.872 E.15313
G1 X108.558 Y94.05 E.01887
G1 X108.212 Y94.155 E.01823
G1 X108.212 Y90.557 E.18161
G1 X107.856 Y90.521 E.01808
G1 X107.538 Y90.549 E.01612
G1 X107.538 Y94.162 E.18238
G1 X107.154 Y94.05 E.02018
G1 X106.863 Y93.898 E.01657
G1 X106.863 Y90.813 E.1557
G1 X106.617 Y91.003 E.01572
G1 X106.451 Y91.177 E.01211
G1 X106.309 Y91.37 E.01209
G1 X106.189 Y91.591 E.01272
G1 X106.189 Y93.645 E.10365
M204 P1250
G1 E-2.24 F4200
;WIPE_START
G1 F7200
G1 X106.189 Y91.999 E-.912
;WIPE_END
G1 E-.048 F4200
G1 Z.4 F720
G1 X97.304 Y93.913 F9000
G1 Z.2 F720
G1 E3.2 F2400
M204 P800
;TYPE:Perimeter
;WIDTH:0.649999
G1 F1200
G1 X82.765 Y93.905 E.73395
G1 X82.197 Y93.983 E.02895
G1 X81.704 Y94.189 E.02694
G1 X69.813 Y101.053 E.6931
G1 X63.446 Y90.026 E.64276
G1 X82.126 Y79.239 E1.08887
G1 X82.845 Y78.848 E.04131
G1 X97.048 Y78.849 E.71696
G1 X97.266 Y78.889 E.01119
G1 X116.555 Y90.025 E1.12427
G1 X110.187 Y101.054 E.64287
G1 X98.234 Y94.156 E.69663
G1 X97.753 Y93.969 E.02605
G1 X97.394 Y93.924 E.01829
M204 P1250
G1 X97.251 Y94.514 F9000
M204 P800
;TYPE:External perimeter
G1 F1200
G1 X83.032 Y94.512 E.71776
G1 X82.429 Y94.551 E.03048
G1 X82.008 Y94.715 E.0228
G1 X70.032 Y101.627 E.69799
G1 X69.706 Y101.737 E.01737
G1 X69.591 Y101.73 E.00581
G1 X69.365 Y101.492 E.01655
G1 X62.871 Y90.244 E.65563
G1 X62.747 Y89.902 E.01837
G1 X62.761 Y89.819 E.00428
G1 X62.991 Y89.587 E.01647
G1 X82.494 Y78.326 E1.13681
G1 X82.796 Y78.241 E.01584
G1 X97.211 Y78.242 E.72762
G1 X97.505 Y78.325 E.01545
G1 X116.908 Y89.527 E1.13094
G1 X117.113 Y89.667 E.01254
G1 X117.252 Y89.855 E.0118
G1 X117.132 Y90.239 E.02028
G1 X110.67 Y101.432 E.65247
G1 X110.433 Y101.717 E.01869
G1 X110.286 Y101.733 E.00749
G1 X110.018 Y101.657 E.01405
G1 X98.183 Y94.825 E.68984
G1 X97.629 Y94.566 E.03087
G1 X97.34 Y94.526 E.01472
M204 P1250
G1 X97.008 Y93.965 F9000
G1 E-2.24 F4200
;WIPE_START
G1 F7200
G1 X95.694 Y94.525 E-.912
;WIPE_END
G1 E-.048 F4200
G1 Z.4 F720
G1 X67.792 Y92.046 F9000
G1 Z.2 F720
M73 P3 R24
G1 E3.2 F2400
M204 P800
;TYPE:Perimeter
G1 F1200
G1 X67.818 Y91.674 E.01882
G1 X68.062 Y90.773 E.04712
G1 X68.408 Y90.07 E.03955
G1 X68.979 Y89.331 E.04713
G1 X69.568 Y88.814 E.03952
G1 X70.377 Y88.35 E.04713
G1 X71.119 Y88.098 E.03952
G1 X72.029 Y87.979 E.04635
G1 X72.824 Y88.03 E.04021
G1 X73.727 Y88.274 E.04723
G1 X74.43 Y88.62 E.03954
G1 X75.169 Y89.191 E.04713
G1 X75.782 Y89.92 E.04811
G1 X76.159 Y90.607 E.03953
G1 X76.358 Y91.228 E.03294
G1 X76.47 Y91.673 E.02317
G1 X76.523 Y92.276 E.03055
G1 X76.47 Y93.038 E.03854
G1 X76.226 Y93.939 E.04711
G1 X75.88 Y94.641 E.03954
G1 X75.309 Y95.38 E.04713
G1 X74.579 Y95.994 E.04812
G1 X73.893 Y96.371 E.03952
G1 X73.169 Y96.613 E.03853
G1 X72.243 Y96.732 E.04713
G1 X71.293 Y96.65 E.04812
G1 X70.542 Y96.431 E.03953
G1 X69.858 Y96.091 E.03853
G1 X69.119 Y95.521 E.04711
G1 X68.506 Y94.791 E.04812
G1 X68.129 Y94.104 E.03955
G1 X67.851 Y93.213 E.04713
G1 X67.765 Y92.435 E.03952
G1 X67.786 Y92.135 E.01516
M204 P1250
G1 X68.378 Y92.469 F9000
M204 P800
;TYPE:External perimeter
G1 F1200
G1 X68.37 Y92.382 E.0044
G1 X68.423 Y91.726 E.0332
G1 X68.645 Y90.942 E.04113
G1 X68.947 Y90.35 E.03356
G1 X69.453 Y89.711 E.04114
G1 X69.958 Y89.279 E.03354
G1 X70.669 Y88.882 E.04114
G1 X71.301 Y88.677 E.03354
G1 X72.096 Y88.583 E.04042
G1 X72.773 Y88.634 E.03424
G1 X73.557 Y88.857 E.04117
G1 X74.15 Y89.159 E.03355
G1 X74.789 Y89.664 E.04115
G1 X75.309 Y90.3 E.04146
G1 X75.621 Y90.887 E.03355
G1 X75.865 Y91.726 E.04412
G1 X75.918 Y92.329 E.03055
G1 X75.865 Y92.985 E.03321
G1 X75.643 Y93.769 E.04113
G1 X75.341 Y94.361 E.03355
G1 X74.835 Y95 E.04115
G1 X74.199 Y95.52 E.04147
G1 X73.613 Y95.832 E.03354
G1 X72.987 Y96.034 E.03321
G1 X72.177 Y96.129 E.04115
G1 X71.359 Y96.047 E.04148
G1 X70.724 Y95.852 E.03354
G1 X70.138 Y95.553 E.03321
G1 X69.499 Y95.047 E.04113
G1 X68.979 Y94.411 E.04148
G1 X68.667 Y93.824 E.03356
G1 X68.434 Y93.043 E.04114
G1 X68.387 Y92.558 E.02459
M204 P1250
G1 X68.298 Y92.436 F9000
G1 E-2.24 F4200
;WIPE_START
G1 F7200
G1 X68.37 Y92.382 E-.09819
G1 X68.423 Y91.726 E-.36451
G1 X68.644 Y90.946 E-.4493
;WIPE_END
G1 E-.048 F4200
G1 Z.4 F720
G1 X87.655 Y88.904 F9000
G1 Z.2 F720
G1 E3.2 F2400
M204 P800
;TYPE:Perimeter
G1 F1200
G1 X87.1 Y88.498 E.03469
G1 X86.574 Y87.945 E.03855
G1 X86.075 Y87.156 E.04713
G1 X85.791 Y86.426 E.03953
G1 X85.632 Y85.507 E.04708
G1 X85.648 Y84.723 E.03958
G1 X85.853 Y83.813 E.0471
G1 X86.202 Y83.056 E.04204
G1 X86.349 Y82.797 E.01504
G1 X86.718 Y82.317 E.03056
G1 X87.408 Y81.688 E.04712
G1 X88.078 Y81.281 E.03957
G1 X88.956 Y80.965 E.04711
G1 X89.732 Y80.845 E.03962
G1 X90.662 Y80.889 E.04702
G1 X91.423 Y81.074 E.03952
G1 X92.122 Y81.385 E.03863
G1 X92.884 Y81.923 E.04707
G1 X93.527 Y82.623 E.04799
G1 X93.893 Y83.221 E.03539
G1 X94.009 Y83.456 E.01324
G1 X94.251 Y84.172 E.03813
G1 X94.371 Y84.945 E.03951
G1 X94.352 Y85.709 E.03856
G1 X94.215 Y86.342 E.0327
G1 X94.088 Y86.788 E.02341
G1 X93.832 Y87.337 E.03058
G1 X93.294 Y88.1 E.04714
G1 X92.591 Y88.745 E.04811
G1 X91.921 Y89.152 E.03957
G1 X91.045 Y89.468 E.04704
G1 X90.27 Y89.587 E.03955
G1 X89.338 Y89.544 E.04712
G1 X88.577 Y89.358 E.03952
G1 X87.727 Y88.957 E.04744
M204 P1250
G1 X87.882 Y88.327 F9000
M204 P800
;TYPE:External perimeter
G1 F1200
G1 X87.47 Y88.017 E.02607
G1 X87.022 Y87.535 E.03322
G1 X86.594 Y86.841 E.04114
G1 X86.361 Y86.218 E.03354
G1 X86.232 Y85.415 E.0411
G1 X86.255 Y84.749 E.03359
G1 X86.443 Y83.957 E.04111
G1 X86.747 Y83.325 E.0354
G1 X87.2 Y82.686 E.03951
G1 X87.808 Y82.145 E.04114
G1 X88.381 Y81.807 E.03358
G1 X89.151 Y81.54 E.04112
G1 X89.811 Y81.447 E.03363
G1 X90.622 Y81.495 E.04104
G1 X91.266 Y81.661 E.03354
G1 X91.865 Y81.936 E.0333
G1 X92.525 Y82.412 E.04108
G1 X93.071 Y83.023 E.04136
G1 X93.367 Y83.525 E.02941
G1 X93.677 Y84.367 E.04528
G1 X93.769 Y85.025 E.03353
G1 X93.745 Y85.682 E.03323
G1 X93.537 Y86.531 E.04412
G1 X93.281 Y87.081 E.03058
G1 X92.804 Y87.741 E.04115
G1 X92.191 Y88.288 E.04147
G1 X91.618 Y88.626 E.03358
G1 X90.85 Y88.893 E.04106
G1 X90.191 Y88.985 E.03356
G1 X89.378 Y88.938 E.04113
G1 X88.735 Y88.772 E.03353
G1 X87.954 Y88.382 E.04404
M204 P1250
G1 X87.426 Y88.569 F9000
G1 E-2.24 F4200
;WIPE_START
G1 F7200
G1 X87.47 Y88.017 E-.33611
G1 X87.022 Y87.535 E-.36471
G1 X86.822 Y87.21 E-.21119
;WIPE_END
G1 E-.048 F4200
G1 Z.4 F720
G1 X112.228 Y92.367 F9000
G1 Z.2 F720
G1 E3.2 F2400
M204 P800
;TYPE:Perimeter
G1 F1200
G1 X112.182 Y93.038 E.03394
G1 X111.938 Y93.939 E.04712
G1 X111.592 Y94.642 E.03955
G1 X111.021 Y95.381 E.04714
G1 X110.291 Y95.994 E.04809
G1 X109.605 Y96.371 E.03952
G1 X108.908 Y96.605 E.03711
G1 X107.955 Y96.732 E.04854
G1 X107.005 Y96.65 E.04812
G1 X106.254 Y96.431 E.03953
G1 X105.57 Y96.091 E.03854
G1 X104.831 Y95.521 E.04712
G1 X104.218 Y94.791 E.04813
G1 X103.841 Y94.104 E.03953
G1 X103.563 Y93.213 E.04712
G1 X103.477 Y92.435 E.03952
G1 X103.53 Y91.673 E.03854
G1 X103.658 Y91.173 E.02607
G1 X103.817 Y90.656 E.02732
G1 X104.12 Y90.07 E.03329
G1 X104.691 Y89.331 E.04713
G1 X105.421 Y88.718 E.04812
G1 X106.107 Y88.341 E.03952
G1 X106.831 Y88.098 E.03853
G1 X107.741 Y87.979 E.04634
G1 X108.536 Y88.029 E.0402
G1 X109.439 Y88.274 E.04723
G1 X110.285 Y88.713 E.04812
G1 X110.896 Y89.203 E.03954
G1 X111.494 Y89.92 E.04712
G1 X111.871 Y90.607 E.03955
G1 X112.082 Y91.267 E.03496
G1 X112.182 Y91.674 E.02116
G1 X112.235 Y92.277 E.03058
M204 P1250
G1 X111.622 Y92.242 F9000
M204 P800
;TYPE:External perimeter
G1 F1200
G1 X111.63 Y92.329 E.00444
G1 X111.577 Y92.985 E.0332
G1 X111.355 Y93.769 E.04114
G1 X111.053 Y94.361 E.03356
G1 X110.547 Y95.001 E.04115
G1 X109.911 Y95.52 E.04145
G1 X109.325 Y95.832 E.03354
G1 X108.726 Y96.026 E.03179
G1 X107.889 Y96.129 E.04255
G1 X107.072 Y96.047 E.04147
G1 X106.436 Y95.852 E.03354
G1 X105.851 Y95.553 E.03321
G1 X105.211 Y95.047 E.04114
G1 X104.691 Y94.411 E.04148
