; generated by PrusaSlicer 2.4.2 on 2022-05-07 at 18:20:02 UTC


;
;

;
;
; 

; external perimeters extrusion width = 0.45mm
; perimeters extrusion width = 0.45mm
; infill extrusion width = 0.45mm
; solid infill extrusion width = 0.45mm
; top infill extrusion width = 0.40mm
; support material extrusion width = 0.35mm
; first layer extrusion width = 0.42mm

M73 P0 R8
M201 X1250 Y1250 Z400 E5000 ; sets maximum accelerations, mm/sec^2
M203 X180 Y180 Z12 E80 ; sets maximum feedrates, mm / sec
M204 P1250 R1250 T1250 ; sets acceleration (P, T) and retract acceleration (R), mm/sec^2
M205 X8.00 Y8.00 Z2.00 E10.00 ; sets the jerk limits, mm/sec
M205 S0 T0 ; sets the minimum extruding and travel feed rate, mm/sec
M107
;TYPE:Custom
G90 ; use absolute coordinates
M83 ; extruder relative mode
M104 S170 ; set extruder temp for bed leveling
M140 S60 ; set bed temp
M109 R170 ; wait for bed leveling temp
M190 S60 ; wait for bed temp
G28 ; home all without mesh bed level
G29 ; mesh bed leveling 
M104 S215 ; set extruder temp
G92 E0.0
G1 Y-2.0 X179 F2400
G1 Z3 F720
M109 S215 ; wait for extruder temp

; intro line
G1 X170 F1000
G1 Z0.2 F720
M73 P1 R7
G1 X110.0 E8.0 F900
G1 X40.0 E10.0 F700
G92 E0.0

M221 S95 ; set flow
G21 ; set units to millimeters
G90 ; use absolute coordinates
M83 ; use relative distances for extrusion
M900 K0.2 ; Filament gcode LA 1.5
; ; Filament gcode LA 1.0
M107
;LAYER_CHANGE
;Z:0.2
;HEIGHT:0.2
;BEFORE_LAYER_CHANGE
G92 E0.0
;0.2


G1 E-3.2 F4200
M73 P3 R7
G1 Z.2 F9000
;AFTER_LAYER_CHANGE
;0.2
G1 Z.4
G1 X75.735 Y77.372
G1 Z.2
G1 E3.2 F2400
M204 S800
;TYPE:Skirt/Brim
;WIDTH:0.42
G1 F1200
G1 X78.543 Y74.623 E.12319
G1 X80.36 Y73.437 E.06804
G1 X82.388 Y72.423 E.0711
G1 X84.27 Y71.767 E.0625
G1 X85.141 Y71.625 E.02767
G1 X94.859 Y71.625 E.30469
G1 X95.73 Y71.767 E.02767
G1 X97.612 Y72.423 E.0625
G1 X99.64 Y73.437 E.0711
G1 X101.877 Y74.967 E.08498
G1 X105.377 Y78.543 E.15687
G1 X106.563 Y80.36 E.06804
G1 X107.577 Y82.388 E.0711
G1 X108.233 Y84.27 E.0625
G1 X108.375 Y85.141 E.02767
G1 X108.375 Y94.859 E.30469
G1 X108.233 Y95.73 E.02767
G1 X107.726 Y97.251 E.05028
G1 X106.391 Y99.936 E.09403
G1 X105.033 Y101.877 E.07428
G1 X101.457 Y105.377 E.15687
M73 P4 R7
G1 X99.64 Y106.563 E.06804
G1 X97.612 Y107.577 E.0711
G1 X95.73 Y108.233 E.0625
G1 X94.859 Y108.375 E.02767
G1 X85.141 Y108.375 E.30469
G1 X84.27 Y108.233 E.02767
G1 X82.749 Y107.726 E.05028
G1 X80.064 Y106.391 E.09403
G1 X78.123 Y105.033 E.07428
G1 X74.623 Y101.457 E.15687
G1 X73.437 Y99.64 E.06804
G1 X72.423 Y97.612 E.0711
G1 X71.767 Y95.73 E.0625
G1 X71.625 Y94.859 E.02767
G1 X71.625 Y85.141 E.30469
G1 X71.767 Y84.27 E.02767
G1 X72.274 Y82.749 E.05028
G1 X73.609 Y80.064 E.09403
G1 X74.967 Y78.123 E.07428
G1 X75.692 Y77.414 E.03179
M204 S1250
G1 X75.955 Y77.682 F9000
M204 S800
G1 F1200
G1 X78.752 Y74.937 E.12287
G1 X80.529 Y73.775 E.06657
G1 X82.557 Y72.76 E.0711
G1 X84.39 Y72.124 E.06082
G1 X85.141 Y72.002 E.02388
G1 X94.859 Y72.002 E.30469
G1 X95.61 Y72.124 E.02388
G1 X97.443 Y72.76 E.06082
G1 X99.471 Y73.775 E.0711
G1 X101.61 Y75.234 E.08119
G1 X105.063 Y78.752 E.15455
G1 X106.225 Y80.529 E.06657
G1 X107.24 Y82.557 E.0711
M73 P5 R7
G1 X107.876 Y84.39 E.06082
G1 X107.998 Y85.141 E.02388
G1 X107.998 Y94.859 E.30469
G1 X107.876 Y95.61 E.02388
G1 X107.369 Y97.132 E.05028
G1 X106.077 Y99.727 E.09089
G1 X104.766 Y101.61 E.07196
G1 X101.248 Y105.063 E.15455
G1 X99.471 Y106.225 E.06657
G1 X97.443 Y107.24 E.0711
G1 X95.61 Y107.876 E.06082
G1 X94.859 Y107.998 E.02388
G1 X85.141 Y107.998 E.30469
G1 X84.39 Y107.876 E.02388
G1 X82.868 Y107.369 E.05028
G1 X80.273 Y106.077 E.09089
G1 X78.39 Y104.766 E.07196
G1 X74.937 Y101.248 E.15455
G1 X73.775 Y99.471 E.06657
G1 X72.76 Y97.443 E.0711
G1 X72.124 Y95.61 E.06082
G1 X72.002 Y94.859 E.02388
G1 X72.002 Y85.141 E.30469
G1 X72.124 Y84.39 E.02388
G1 X72.631 Y82.868 E.05028
G1 X73.923 Y80.273 E.09089
G1 X75.234 Y78.39 E.07196
G1 X75.912 Y77.724 E.0298
M204 S1250
; printing object spacer_s19p2_l4_t1p5.stl id:0 copy 0
G1 E-2.24 F4200
;WIPE_START
G1 F7200
G1 X77.087 Y76.571 E-.912
;WIPE_END
G1 E-.048 F4200
G1 Z.4 F9000
G1 X95.366 Y74.887
G1 Z.2
G1 E3.2 F2400
M204 S800
;TYPE:Support material
G1 F1200
G1 X96.38 Y74.887 E.0318
G1 X96.887 Y75.394 E.02248
G1 X97.394 Y75.394 E.0159
G1 X97.901 Y75.901 E.02248
G1 X98.408 Y75.901 E.0159
G1 X99.422 Y76.915 E.04497
M73 P6 R7
G1 X99.93 Y76.915 E.0159
G1 X103.085 Y80.07 E.13992
G1 X103.085 Y80.578 E.0159
G1 X104.099 Y81.592 E.04497
G1 X104.099 Y82.099 E.0159
G1 X104.606 Y82.606 E.02248
G1 X104.606 Y83.113 E.0159
G1 X105.113 Y83.62 E.02248
G1 X105.113 Y84.634 E.0318
G1 X105.621 Y85.141 E.02248
G1 X105.621 Y94.859 E.30469
G1 X105.113 Y95.366 E.02248
G1 X105.113 Y96.38 E.0318
G1 X104.606 Y96.887 E.02248
G1 X104.606 Y97.394 E.0159
G1 X104.099 Y97.901 E.02248
G1 X104.099 Y98.408 E.0159
G1 X103.085 Y99.422 E.04497
G1 X103.085 Y99.93 E.0159
G1 X99.93 Y103.085 E.13992
G1 X99.422 Y103.085 E.0159
G1 X98.408 Y104.099 E.04497
G1 X97.901 Y104.099 E.0159
G1 X97.394 Y104.606 E.02248
G1 X96.887 Y104.606 E.0159
G1 X96.38 Y105.113 E.02248
G1 X95.366 Y105.113 E.0318
G1 X94.859 Y105.621 E.02248
G1 X85.141 Y105.621 E.30469
G1 X84.634 Y105.113 E.02248
G1 X83.62 Y105.113 E.0318
G1 X83.113 Y104.606 E.02248
G1 X82.606 Y104.606 E.0159
G1 X82.099 Y104.099 E.02248
G1 X81.592 Y104.099 E.0159
G1 X80.578 Y103.085 E.04497
G1 X80.07 Y103.085 E.0159
G1 X76.915 Y99.93 E.13992
G1 X76.915 Y99.422 E.0159
G1 X75.901 Y98.408 E.04497
G1 X75.901 Y97.901 E.0159
G1 X75.394 Y97.394 E.02248
G1 X75.394 Y96.887 E.0159
G1 X74.887 Y96.38 E.02248
G1 X74.887 Y95.366 E.0318
G1 X74.379 Y94.859 E.02248
G1 X74.379 Y85.141 E.30469
G1 X74.887 Y84.634 E.02248
G1 X74.887 Y83.62 E.0318
G1 X75.394 Y83.113 E.02248
G1 X75.394 Y82.606 E.0159
G1 X75.901 Y82.099 E.02248
G1 X75.901 Y81.592 E.0159
G1 X76.915 Y80.578 E.04497
G1 X76.915 Y80.07 E.0159
G1 X80.07 Y76.915 E.13992
G1 X80.578 Y76.915 E.0159
G1 X81.592 Y75.901 E.04497
G1 X82.099 Y75.901 E.0159
G1 X82.606 Y75.394 E.02248
G1 X83.113 Y75.394 E.0159
G1 X83.62 Y74.887 E.02248
G1 X84.634 Y74.887 E.0318
G1 X85.141 Y74.379 E.02248
M73 P7 R7
G1 X94.859 Y74.379 E.30469
G1 X95.326 Y74.847 E.02071
M204 S1250
G1 E-2.24 F4200
;WIPE_START
G1 F7200
G1 X94.859 Y74.379 E-.36606
G1 X93.874 Y74.379 E-.54594
;WIPE_END
G1 E-.048 F4200
G1 Z.4 F9000
G1 X89.281 Y85.337
G1 Z.2
G1 E3.2 F2400
M204 S800
G1 F1200
G1 X88.774 Y85.844 E.02248
G1 X88.267 Y85.844 E.0159
G1 X87.76 Y86.352 E.02248
G1 X87.253 Y86.352 E.0159
G1 X86.352 Y87.253 E.03995
G1 X86.352 Y87.76 E.0159
G1 X85.844 Y88.267 E.02248
G1 X85.844 Y88.774 E.0159
G1 X85.337 Y89.281 E.02248
G1 X85.337 Y90.719 E.04509
G1 X85.844 Y91.226 E.02248
G1 X85.844 Y91.733 E.0159
G1 X86.352 Y92.24 E.02248
G1 X86.352 Y92.747 E.0159
G1 X87.253 Y93.649 E.03995
G1 X87.76 Y93.649 E.0159
G1 X88.267 Y94.156 E.02248
G1 X88.774 Y94.156 E.0159
G1 X89.281 Y94.663 E.02248
G1 X90.719 Y94.663 E.04509
G1 X91.226 Y94.156 E.02248
G1 X91.733 Y94.156 E.0159
G1 X92.24 Y93.649 E.02248
G1 X92.747 Y93.649 E.0159
G1 X93.649 Y92.747 E.03995
G1 X93.649 Y92.24 E.0159
G1 X94.156 Y91.733 E.02248
G1 X94.156 Y91.226 E.0159
G1 X94.663 Y90.719 E.02248
G1 X94.663 Y89.281 E.04509
G1 X94.156 Y88.774 E.02248
G1 X94.156 Y88.267 E.0159
G1 X93.649 Y87.76 E.02248
G1 X93.649 Y87.253 E.0159
G1 X92.747 Y86.352 E.03995
G1 X92.24 Y86.352 E.0159
G1 X91.733 Y85.844 E.02248
G1 X91.226 Y85.844 E.0159
G1 X90.719 Y85.337 E.02248
G1 X89.337 Y85.337 E.04332
M204 S1250
G1 E-2.24 F4200
;WIPE_START
G1 F7200
G1 X90.719 Y85.337 E-.76568
G1 X90.906 Y85.524 E-.14632
;WIPE_END
G1 E-.048 F4200
G1 Z.4 F9000
G1 X96.392 Y75.379
G1 Z.2
G1 E3.2 F2400
M204 S800
G1 F1200
G1 X96.747 Y75.733 E.01571
M204 S1250
G1 E-2.24 F4200
;WIPE_START
G1 F7200
G1 X96.392 Y75.379 E-.27774
;WIPE_END
G1 E-.68226 F4200
G1 Z.4 F9000
G1 X83.608 Y104.621
G1 Z.2
G1 E3.2 F2400
M204 S800
G1 F1200
G1 X83.254 Y104.267 E.01571
M204 S1250
G1 E-2.24 F4200
;WIPE_START
G1 F7200
G1 X83.608 Y104.621 E-.27774
;WIPE_END
G1 E-.68226 F4200
G1 Z.4 F9000
G1 X102.746 Y80.23
G1 Z.2
G1 E3.2 F2400
M204 S800
G1 F1200
G1 X99.77 Y77.254 E.13195
M204 S1250
G1 E-2.24 F4200
;WIPE_START
G1 F7200
G1 X100.934 Y78.418 E-.912
;WIPE_END
G1 E-.048 F4200
M73 P8 R7
G1 Z.4 F9000
G1 X103.76 Y81.837
G1 Z.2
G1 E3.2 F2400
M204 S800
G1 F1200
G1 X98.163 Y76.24 E.24816
M204 S1250
G1 E-2.24 F4200
;WIPE_START
G1 F7200
G1 X99.327 Y77.404 E-.912
;WIPE_END
G1 E-.048 F4200
G1 Z.4 F9000
G1 X104.267 Y82.936
G1 Z.2
G1 E3.2 F2400
M204 S800
G1 F1200
G1 X97.064 Y75.733 E.3194
M204 S1250
G1 E-2.24 F4200
;WIPE_START
G1 F7200
G1 X98.228 Y76.897 E-.912
;WIPE_END
G1 E-.048 F4200
G1 Z.4 F9000
G1 X104.774 Y84.44
G1 Z.2
G1 E3.2 F2400
M204 S800
G1 F1200
G1 X104.774 Y84.036 E.01267
G1 X95.964 Y75.226 E.39064
G1 X95.56 Y75.226 E.01267
M204 S1250
G1 X94.718 Y74.719 F9000
M204 S800
G1 F1200
G1 X95.225 Y75.226 E.02248
G1 X95.372 Y75.226 E.00459
G1 X104.774 Y84.628 E.41692
G1 X104.774 Y84.775 E.00459
G1 X105.281 Y85.282 E.02248
G1 X105.281 Y85.728 E.01399
G1 X94.272 Y74.719 E.48816
G1 X93.68 Y74.719 E.01858
G1 X105.281 Y86.32 E.51443
G1 X105.281 Y86.913 E.01858
M73 P9 R7
G1 X93.087 Y74.719 E.54071
G1 X92.495 Y74.719 E.01858
G1 X105.281 Y87.506 E.56698
G1 X105.281 Y88.098 E.01858
G1 X91.902 Y74.719 E.59325
G1 X91.31 Y74.719 E.01858
G1 X105.281 Y88.691 E.61953
G1 X105.281 Y89.283 E.01858
G1 X90.717 Y74.719 E.6458
G1 X90.124 Y74.719 E.01858
M73 P10 R7
G1 X105.281 Y89.876 E.67207
G1 X105.281 Y90.468 E.01858
G1 X89.532 Y74.719 E.69835
G1 X88.939 Y74.719 E.01858
G1 X105.281 Y91.061 E.72462
G1 X105.281 Y91.653 E.01858
G1 X88.347 Y74.719 E.7509
G1 X87.754 Y74.719 E.01858
M73 P11 R7
G1 X105.281 Y92.246 E.77717
G1 X105.281 Y92.838 E.01858
G1 X87.162 Y74.719 E.80344
G1 X86.569 Y74.719 E.01858
G1 X105.281 Y93.431 E.82972
G1 X105.281 Y94.023 E.01858
G1 X85.977 Y74.719 E.85599
G1 X85.384 Y74.719 E.01858
M73 P12 R7
G1 X105.281 Y94.616 E.88226
G1 X105.281 Y94.718 E.00321
G1 X105.036 Y94.963 E.01087
G1 X85.037 Y74.964 E.8868
G1 X84.775 Y75.226 E.01162
G1 X84.706 Y75.226 E.00215
G1 X104.774 Y95.294 E.88984
G1 X104.774 Y95.886 E.01858
M73 P13 R7
G1 X84.114 Y75.226 E.91611
G1 X83.761 Y75.226 E.01108
G1 X83.641 Y75.346 E.00531
G1 X104.654 Y96.359 E.93177
G1 X104.358 Y96.655 E.01314
M73 P13 R6
G1 X83.345 Y75.642 E.93177
G1 X83.254 Y75.733 E.00404
M73 P14 R6
G1 X82.843 Y75.733 E.01286
G1 X104.267 Y97.157 E.94996
G1 X104.267 Y97.254 E.00304
G1 X104.019 Y97.501 E.01099
G1 X93.988 Y87.47 E.4448
M204 S1250
G1 E-2.24 F4200
;WIPE_START
G1 F7200
G1 X95.152 Y88.634 E-.912
;WIPE_END
G1 E-.048 F4200
G1 Z.4 F9000
G1 X91.43 Y85.505
G1 Z.2
G1 E3.2 F2400
M204 S800
G1 F1200
G1 X82.165 Y76.24 E.41082
G1 X82.239 Y76.24 E.00232
G1 X82.499 Y75.981 E.0115
G1 X92.53 Y86.012 E.44481
M204 S1250
G1 E-2.24 F4200
;WIPE_START
G1 F7200
G1 X91.366 Y84.848 E-.912
;WIPE_END
G1 E-.048 F4200
G1 Z.4 F9000
G1 X94.495 Y88.57
G1 Z.2
G1 E3.2 F2400
M204 S800
G1 F1200
G1 X103.76 Y97.835 E.41083
G1 X103.76 Y98.268 E.01358
M73 P15 R6
G1 X103.68 Y98.348 E.00354
G1 X95.002 Y89.669 E.3848
G1 X95.002 Y90.262 E.01858
G1 X103.384 Y98.644 E.37167
G1 X103.088 Y98.94 E.01314
G1 X95.002 Y90.854 E.35853
G1 X94.708 Y91.153 E.01314
G1 X102.791 Y99.236 E.35841
G1 X102.746 Y99.282 E.00202
G1 X102.746 Y99.783 E.01572
G1 X94.495 Y91.532 E.36586
G1 X94.495 Y91.874 E.01071
G1 X94.369 Y91.999 E.00557
G1 X102.452 Y100.082 E.35841
G1 X102.156 Y100.379 E.01314
G1 X94.073 Y92.296 E.35841
G1 X93.988 Y92.381 E.00378
G1 X93.988 Y92.803 E.01323
M73 P16 R6
G1 X101.86 Y100.675 E.34906
G1 X101.564 Y100.971 E.01314
G1 X93.734 Y93.142 E.34717
G1 X93.438 Y93.438 E.01314
G1 X101.267 Y101.267 E.34717
G1 X100.971 Y101.564 E.01314
G1 X93.142 Y93.734 E.34717
G1 X92.888 Y93.988 E.01125
G1 X92.803 Y93.988 E.00267
G1 X100.675 Y101.86 E.34906
G1 X100.379 Y102.156 E.01314
G1 X92.296 Y94.073 E.35841
G1 X91.999 Y94.369 E.01314
G1 X100.082 Y102.452 E.35841
G1 X99.789 Y102.746 E.01301
G1 X91.532 Y94.495 E.36598
G1 X91.367 Y94.495 E.00519
G1 X91.153 Y94.708 E.00947
G1 X99.236 Y102.791 E.35841
G1 X98.94 Y103.088 E.01314
M73 P17 R6
G1 X90.854 Y95.002 E.35853
G1 X90.262 Y95.002 E.01858
G1 X98.644 Y103.384 E.37167
G1 X98.347 Y103.68 E.01314
G1 X89.669 Y95.002 E.3848
M204 S1250
G1 E-2.24 F4200
;WIPE_START
G1 F7200
G1 X90.833 Y96.166 E-.912
;WIPE_END
G1 E-.048 F4200
G1 Z.4 F9000
G1 X84.998 Y90.331
G1 Z.2
G1 E3.2 F2400
M204 S800
G1 F1200
G1 X76.32 Y81.653 E.3848
G1 X76.616 Y81.356 E.01314
G1 X84.998 Y89.738 E.37167
G1 X84.998 Y89.146 E.01858
G1 X76.912 Y81.06 E.35853
G1 X77.209 Y80.764 E.01314
G1 X85.292 Y88.847 E.35841
G1 X85.505 Y88.633 E.00947
M73 P18 R6
G1 X85.505 Y88.468 E.00519
G1 X77.254 Y80.217 E.36586
G1 X77.548 Y79.918 E.01314
G1 X85.631 Y88.001 E.35841
G1 X85.927 Y87.704 E.01314
G1 X77.844 Y79.621 E.35841
G1 X78.14 Y79.325 E.01314
G1 X86.012 Y87.197 E.34906
G1 X86.012 Y87.112 E.00267
G1 X86.266 Y86.858 E.01125
G1 X78.436 Y79.029 E.34717
G1 X78.733 Y78.733 E.01314
G1 X86.562 Y86.562 E.34717
G1 X86.858 Y86.266 E.01314
G1 X79.029 Y78.436 E.34717
G1 X79.325 Y78.14 E.01314
G1 X87.197 Y86.012 E.34906
G1 X87.619 Y86.012 E.01323
M73 P19 R6
G1 X87.704 Y85.927 E.00378
G1 X79.621 Y77.844 E.35841
G1 X79.918 Y77.548 E.01314
G1 X88.001 Y85.631 E.35841
G1 X88.126 Y85.505 E.00556
G1 X88.468 Y85.505 E.01071
G1 X80.217 Y77.254 E.36585
G1 X80.718 Y77.254 E.01571
G1 X80.764 Y77.209 E.00202
G1 X88.847 Y85.292 E.35841
G1 X89.146 Y84.998 E.01314
G1 X81.06 Y76.912 E.35853
G1 X81.356 Y76.616 E.01314
G1 X89.738 Y84.998 E.37167
G1 X90.331 Y84.998 E.01858
G1 X81.653 Y76.32 E.3848
G1 X81.732 Y76.24 E.00353
G1 X81.977 Y76.24 E.00767
M204 S1250
G1 E-2.24 F4200
;WIPE_START
G1 F7200
G1 X81.732 Y76.24 E-.13552
G1 X81.653 Y76.32 E-.06247
G1 X82.564 Y77.231 E-.71401
;WIPE_END
G1 E-.048 F4200
M73 P20 R6
G1 Z.4 F9000
G1 X88.57 Y94.495
G1 Z.2
G1 E3.2 F2400
M204 S800
G1 F1200
G1 X97.835 Y103.76 E.41082
G1 X97.761 Y103.76 E.00232
G1 X97.501 Y104.019 E.0115
G1 X87.47 Y93.988 E.44481
M204 S1250
G1 E-2.24 F4200
;WIPE_START
G1 F7200
G1 X88.634 Y95.152 E-.912
;WIPE_END
G1 E-.048 F4200
G1 Z.4 F9000
G1 X86.012 Y92.53
G1 Z.2
G1 E3.2 F2400
M204 S800
G1 F1200
G1 X75.981 Y82.499 E.4448
G1 X76.24 Y82.239 E.01149
G1 X76.24 Y82.165 E.00232
G1 X85.505 Y91.43 E.41083
M204 S1250
G1 E-2.24 F4200
;WIPE_START
G1 F7200
G1 X84.341 Y90.267 E-.912
;WIPE_END
G1 E-.048 F4200
G1 Z.4 F9000
G1 X85.282 Y105.281
G1 Z.2
G1 E3.2 F2400
M204 S800
G1 F1200
G1 X84.775 Y104.774 E.02248
G1 X84.628 Y104.774 E.00459
G1 X75.226 Y95.372 E.41692
G1 X75.226 Y95.225 E.00459
G1 X74.719 Y94.718 E.02248
M73 P21 R6
G1 X74.719 Y94.272 E.01399
G1 X85.728 Y105.281 E.48816
G1 X86.32 Y105.281 E.01858
G1 X74.719 Y93.68 E.51443
G1 X74.719 Y93.087 E.01858
G1 X86.913 Y105.281 E.54071
G1 X87.505 Y105.281 E.01858
G1 X74.719 Y92.495 E.56698
G1 X74.719 Y91.902 E.01858
G1 X88.098 Y105.281 E.59325
G1 X88.691 Y105.281 E.01858
G1 X74.719 Y91.309 E.61953
G1 X74.719 Y90.717 E.01858
M73 P22 R6
G1 X89.283 Y105.281 E.6458
G1 X89.876 Y105.281 E.01858
G1 X74.719 Y90.124 E.67207
G1 X74.719 Y89.532 E.01858
G1 X90.468 Y105.281 E.69835
G1 X91.061 Y105.281 E.01858
G1 X74.719 Y88.939 E.72462
G1 X74.719 Y88.347 E.01858
M73 P23 R6
G1 X91.653 Y105.281 E.7509
G1 X92.246 Y105.281 E.01858
G1 X74.719 Y87.754 E.77717
G1 X74.719 Y87.162 E.01858
G1 X92.838 Y105.281 E.80344
G1 X93.431 Y105.281 E.01858
G1 X74.719 Y86.569 E.82972
G1 X74.719 Y85.977 E.01858
M73 P24 R6
G1 X94.023 Y105.281 E.85599
G1 X94.616 Y105.281 E.01858
G1 X74.719 Y85.384 E.88226
G1 X74.719 Y85.282 E.00321
G1 X74.964 Y85.037 E.01087
G1 X94.963 Y105.036 E.8868
G1 X95.225 Y104.774 E.01162
M73 P25 R6
G1 X95.294 Y104.774 E.00215
G1 X75.226 Y84.706 E.88984
G1 X75.226 Y84.114 E.01858
G1 X95.886 Y104.774 E.91611
G1 X96.239 Y104.774 E.01108
G1 X96.359 Y104.654 E.00531
G1 X75.346 Y83.641 E.93177
G1 X75.642 Y83.345 E.01314
M73 P25 R5
G1 X96.655 Y104.358 E.93177
G1 X96.747 Y104.267 E.00404
M73 P26 R5
G1 X97.157 Y104.267 E.01286
G1 X75.733 Y82.843 E.94996
G1 X75.733 Y82.746 E.00304
G1 X75.848 Y82.632 E.00508
M204 S1250
G1 E-2.24 F4200
;WIPE_START
G1 F7200
G1 X75.733 Y82.746 E-.08976
G1 X75.733 Y82.843 E-.05365
G1 X76.714 Y83.824 E-.76859
;WIPE_END
G1 E-.048 F4200
G1 Z.4 F9000
G1 X83.608 Y104.621
G1 Z.2
