; generated by PrusaSlicer 2.3.3 on 2022-01-25 at 22:28:52 UTC


;
;

;
;
; 

; external perimeters extrusion width = 0.45mm
; perimeters extrusion width = 0.45mm
; infill extrusion width = 0.45mm
; solid infill extrusion width = 0.45mm
; top infill extrusion width = 0.40mm
; support material extrusion width = 0.35mm
; first layer extrusion width = 0.42mm

M73 P0 R6
M201 X1250 Y1250 Z400 E5000 ; sets maximum accelerations, mm/sec^2
M203 X180 Y180 Z12 E80 ; sets maximum feedrates, mm/sec
M204 P1250 R1250 T1250 ; sets acceleration (P, T) and retract acceleration (R), mm/sec^2
M205 X8.00 Y8.00 Z2.00 E10.00 ; sets the jerk limits, mm/sec
M205 S0 T0 ; sets the minimum extruding and travel feed rate, mm/sec
M107
;TYPE:Custom
G90 ; use absolute coordinates
M83 ; extruder relative mode
M104 S170 ; set extruder temp for bed leveling
M140 S60 ; set bed temp
M109 R170 ; wait for bed leveling temp
M190 S60 ; wait for bed temp
G28 ; home all without mesh bed level
G29 ; mesh bed leveling 
M104 S215 ; set extruder temp
G92 E0.0
G1 Y-2.0 X179 F2400
M73 P1 R6
G1 Z3 F720
M109 S215 ; wait for extruder temp

; intro line
G1 X170 F1000
G1 Z0.2 F720
G1 X110.0 E8.0 F900
M73 P2 R6
G1 X40.0 E10.0 F700
G92 E0.0

M221 S95 ; set flow
G21 ; set units to millimeters
G90 ; use absolute coordinates
M83 ; use relative distances for extrusion
M900 K0.2 ; Filament gcode LA 1.5
; ; Filament gcode LA 1.0
;LAYER_CHANGE
;Z:0.2
;HEIGHT:0.2
;BEFORE_LAYER_CHANGE
G92 E0.0
;0.2


M73 P4 R6
G1 E-3.20000 F4200.000
G1 Z0.200 F9000.000
;AFTER_LAYER_CHANGE
;0.2
G1 Z0.400
G1 X81.510 Y79.859
G1 Z0.200
G1 E3.20000 F2400.000
M204 S800
;TYPE:Skirt
;WIDTH:0.42
G1 F1200.000
G1 X81.577 Y79.791 E0.00299
G1 X82.262 Y79.324 E0.02600
G1 X84.942 Y78.054 E0.09299
G1 X86.208 Y77.773 E0.04067
G1 X93.450 Y77.745 E0.22707
G1 X93.996 Y77.800 E0.01720
G1 X94.524 Y77.963 E0.01733
G1 X97.495 Y79.334 E0.10259
G1 X98.041 Y79.688 E0.02039
G1 X100.553 Y82.219 E0.11181
G1 X101.953 Y84.815 E0.09250
G1 X102.173 Y85.401 E0.01963
G1 X102.254 Y86.018 E0.01950
G1 X102.254 Y93.973 E0.24943
M73 P5 R6
G1 X102.126 Y94.764 E0.02511
G1 X100.559 Y97.910 E0.11020
G1 X100.105 Y98.529 E0.02409
G1 X98.100 Y100.467 E0.08744
G1 X95.179 Y101.895 E0.10194
G1 X94.618 Y102.078 E0.01848
G1 X93.473 Y102.254 E0.03633
G1 X86.504 Y102.254 E0.21850
G1 X85.718 Y102.126 E0.02498
G1 X82.501 Y100.664 E0.11079
G1 X81.863 Y100.229 E0.02422
G1 X79.437 Y97.768 E0.10834
G1 X78.002 Y95.093 E0.09520
G1 X77.814 Y94.543 E0.01822
G1 X77.746 Y93.970 E0.01809
G1 X77.746 Y86.027 E0.24905
G1 X77.874 Y85.236 E0.02511
G1 X79.656 Y81.751 E0.12272
G1 X81.468 Y79.902 E0.08118
M204 S1250
G1 X81.751 Y80.194 F9000.000
M204 S800
G1 F1200.000
G1 X82.109 Y79.846 E0.01564
G1 X84.931 Y78.470 E0.09844
G1 X85.438 Y78.296 E0.01680
G1 X86.496 Y78.125 E0.03360
G1 X93.450 Y78.123 E0.21806
G1 X94.384 Y78.314 E0.02989
G1 X97.326 Y79.671 E0.10158
M73 P6 R6
G1 X97.813 Y79.989 E0.01823
G1 X100.254 Y82.448 E0.10866
G1 X101.625 Y85.002 E0.09087
G1 X101.810 Y85.505 E0.01680
G1 X101.877 Y86.033 E0.01669
G1 X101.877 Y93.963 E0.24864
G1 X101.762 Y94.663 E0.02225
G1 X100.227 Y97.731 E0.10757
G1 X99.831 Y98.270 E0.02095
G1 X97.885 Y100.158 E0.08504
G1 X95.017 Y101.554 E0.10000
G1 X94.532 Y101.710 E0.01597
G1 X93.458 Y101.877 E0.03407
G1 X86.515 Y101.877 E0.21770
G1 X85.819 Y101.762 E0.02213
G1 X82.674 Y100.329 E0.10836
G1 X82.116 Y99.948 E0.02119
G1 X79.737 Y97.539 E0.10615
G1 X78.342 Y94.930 E0.09278
G1 X78.181 Y94.454 E0.01574
G1 X78.123 Y93.960 E0.01562
G1 X78.123 Y86.037 E0.24840
G1 X78.238 Y85.337 E0.02225
G1 X79.773 Y82.269 E0.10757
G1 X80.166 Y81.733 E0.02083
G1 X81.708 Y80.235 E0.06740
M204 S1250
; printing object spacer_s4p2_l8_t2.stl id:0 copy 0
G1 E-2.24000 F4200.000
;WIPE_START
G1 F7200.000
G1 X82.109 Y79.846 E-0.30965
G1 X83.086 Y79.370 E-0.60235
;WIPE_END
G1 E-0.04800 F4200.000
G1 Z0.400 F9000.000
G1 X98.363 Y83.888
G1 Z0.200
G1 E3.20000 F2400.000
M204 S800
;TYPE:Support material
M73 P7 R6
G1 F1200.000
G1 X96.281 Y81.807 E0.09231
G1 X95.519 Y81.807 E0.02389
G1 X98.193 Y84.481 E0.11857
G1 X98.193 Y84.761 E0.00878
G1 X99.500 Y86.068 E0.05796
G1 X99.500 Y86.550 E0.01511
G1 X93.450 Y80.500 E0.26826
G1 X92.689 Y80.500 E0.02389
G1 X99.500 Y87.311 E0.30204
M73 P7 R5
G1 X99.500 Y88.073 E0.02389
G1 X91.927 Y80.500 E0.33582
G1 X91.165 Y80.500 E0.02389
G1 X99.500 Y88.835 E0.36960
G1 X99.500 Y89.597 E0.02389
G1 X90.403 Y80.500 E0.40338
G1 X89.641 Y80.500 E0.02389
M73 P8 R5
G1 X99.500 Y90.359 E0.43717
G1 X99.500 Y91.120 E0.02389
G1 X88.880 Y80.500 E0.47095
G1 X88.118 Y80.500 E0.02389
G1 X99.500 Y91.882 E0.50473
G1 X99.500 Y92.644 E0.02389
G1 X87.356 Y80.500 E0.53851
G1 X86.594 Y80.500 E0.02389
G1 X99.500 Y93.406 E0.57229
M73 P9 R5
G1 X99.500 Y93.932 E0.01650
G1 X99.383 Y94.050 E0.00522
G1 X85.950 Y80.617 E0.59563
G1 X85.569 Y80.998 E0.01689
G1 X99.002 Y94.431 E0.59563
G1 X98.621 Y94.812 E0.01689
G1 X85.188 Y81.379 E0.59563
M73 P10 R5
G1 X84.807 Y81.760 E0.01689
G1 X98.240 Y95.193 E0.59563
G1 X98.193 Y95.239 E0.00207
G1 X98.193 Y95.908 E0.02096
G1 X84.092 Y81.807 E0.62527
G1 X83.454 Y81.807 E0.02002
G1 X83.392 Y81.868 E0.00273
G1 X98.132 Y96.608 E0.65358
G1 X97.751 Y96.989 E0.01689
G1 X83.011 Y82.249 E0.65358
M73 P11 R5
G1 X82.630 Y82.630 E0.01689
G1 X97.370 Y97.370 E0.65358
G1 X96.989 Y97.751 E0.01689
G1 X82.249 Y83.011 E0.65358
G1 X81.868 Y83.392 E0.01689
G1 X96.608 Y98.132 E0.65358
M73 P12 R5
G1 X96.546 Y98.193 E0.00273
G1 X95.908 Y98.193 E0.02002
G1 X81.807 Y84.092 E0.62527
G1 X81.807 Y84.761 E0.02096
G1 X81.760 Y84.807 E0.00207
G1 X95.193 Y98.240 E0.59563
G1 X94.812 Y98.621 E0.01689
G1 X81.379 Y85.188 E0.59563
G1 X80.998 Y85.569 E0.01689
G1 X94.431 Y99.002 E0.59563
M73 P13 R5
G1 X94.050 Y99.383 E0.01689
G1 X80.617 Y85.950 E0.59563
G1 X80.500 Y86.068 E0.00522
G1 X80.500 Y86.594 E0.01650
G1 X93.406 Y99.500 E0.57229
G1 X92.644 Y99.500 E0.02389
G1 X80.500 Y87.356 E0.53851
M73 P14 R5
G1 X80.500 Y88.118 E0.02389
G1 X91.882 Y99.500 E0.50473
G1 X91.120 Y99.500 E0.02389
G1 X80.500 Y88.880 E0.47095
G1 X80.500 Y89.641 E0.02389
G1 X90.359 Y99.500 E0.43717
G1 X89.597 Y99.500 E0.02389
G1 X80.500 Y90.403 E0.40338
G1 X80.500 Y91.165 E0.02389
G1 X88.835 Y99.500 E0.36960
M73 P15 R5
G1 X88.073 Y99.500 E0.02389
G1 X80.500 Y91.927 E0.33582
G1 X80.500 Y92.689 E0.02389
G1 X87.311 Y99.500 E0.30204
G1 X86.550 Y99.500 E0.02389
G1 X80.500 Y93.450 E0.26826
G1 X80.500 Y93.932 E0.01511
G1 X81.807 Y95.239 E0.05796
G1 X81.807 Y95.519 E0.00878
G1 X84.481 Y98.193 E0.11857
G1 X83.719 Y98.193 E0.02389
G1 X81.637 Y96.111 E0.09231
M204 S1250
; stop printing object spacer_s4p2_l8_t2.stl id:0 copy 0
M106 S84.15
;LAYER_CHANGE
;Z:0.5
;HEIGHT:0.3
;BEFORE_LAYER_CHANGE
G92 E0.0
;0.5


G1 E-2.24000 F4200.000
;WIPE_START
G1 F7200.000
G1 X82.801 Y97.275 E-0.91200
;WIPE_END
G1 E-0.04800 F4200.000
G1 Z0.400 F9000.000
G1 Z0.500
;AFTER_LAYER_CHANGE
;0.5
G1 Z0.700
G1 X80.849 Y99.200
G1 Z0.500
G1 E3.20000 F2400.000
;TYPE:Skirt
G1 F1875
G1 X79.437 Y97.768 E0.08919
G1 X78.002 Y95.093 E0.13467
G1 X77.814 Y94.543 E0.02578
G1 X77.746 Y93.970 E0.02559
G1 X77.746 Y86.027 E0.35231
G1 X77.874 Y85.236 E0.03552
G1 X79.656 Y81.751 E0.17361
G1 X81.577 Y79.791 E0.12174
M73 P16 R5
G1 X82.262 Y79.324 E0.03678
G1 X84.942 Y78.054 E0.13154
G1 X86.208 Y77.773 E0.05753
G1 X93.450 Y77.745 E0.32123
G1 X93.996 Y77.800 E0.02433
G1 X94.524 Y77.963 E0.02451
G1 X97.495 Y79.334 E0.14513
G1 X98.041 Y79.688 E0.02885
G1 X100.553 Y82.219 E0.15817
G1 X101.953 Y84.815 E0.13085
G1 X102.173 Y85.401 E0.02776
G1 X102.254 Y86.018 E0.02758
G1 X102.254 Y93.973 E0.35285
G1 X102.126 Y94.764 E0.03552
G1 X100.559 Y97.910 E0.15589
G1 X100.105 Y98.529 E0.03408
G1 X98.100 Y100.467 E0.12369
G1 X95.179 Y101.895 E0.14421
G1 X94.618 Y102.078 E0.02614
G1 X93.473 Y102.254 E0.05140
G1 X86.504 Y102.254 E0.30910
G1 X85.718 Y102.126 E0.03534
G1 X82.501 Y100.664 E0.15673
G1 X81.863 Y100.229 E0.03426
G1 X80.891 Y99.243 E0.06141
G1 X81.158 Y98.979 F9000.000
G1 F1875
G1 X79.737 Y97.539 E0.08974
G1 X78.342 Y94.930 E0.13125
G1 X78.181 Y94.454 E0.02226
G1 X78.123 Y93.960 E0.02209
G1 X78.123 Y86.037 E0.35140
G1 X78.238 Y85.337 E0.03148
G1 X79.773 Y82.269 E0.15218
G1 X80.166 Y81.733 E0.02947
G1 X82.109 Y79.846 E0.12014
G1 X84.931 Y78.470 E0.13926
G1 X85.438 Y78.296 E0.02377
G1 X86.496 Y78.125 E0.04753
G1 X93.450 Y78.123 E0.30847
G1 X94.384 Y78.314 E0.04229
G1 X97.326 Y79.671 E0.14369
G1 X97.813 Y79.989 E0.02578
G1 X100.254 Y82.448 E0.15371
G1 X101.625 Y85.002 E0.12854
G1 X101.810 Y85.505 E0.02377
G1 X101.877 Y86.033 E0.02360
G1 X101.877 Y93.963 E0.35173
M73 P17 R5
G1 X101.762 Y94.663 E0.03148
G1 X100.227 Y97.731 E0.15218
G1 X99.831 Y98.270 E0.02964
G1 X97.885 Y100.158 E0.12030
G1 X95.017 Y101.554 E0.14146
G1 X94.532 Y101.710 E0.02260
G1 X93.458 Y101.877 E0.04819
G1 X86.515 Y101.877 E0.30796
G1 X85.819 Y101.762 E0.03131
G1 X82.674 Y100.329 E0.15330
G1 X82.116 Y99.948 E0.02997
G1 X81.200 Y99.022 E0.05777
; printing object spacer_s4p2_l8_t2.stl id:0 copy 0
G1 E-2.24000 F4200.000
;WIPE_START
G1 F7200.000
G1 X80.044 Y97.851 E-0.91200
;WIPE_END
G1 E-0.04800 F4200.000
G1 Z0.700 F9000.000
G1 X96.085 Y92.752
G1 Z0.500
G1 E3.20000 F2400.000
;TYPE:Support material interface
;WIDTH:0.35
G1 F1875
G1 X96.085 Y87.386 E0.19118
G1 X95.578 Y87.386 E0.01806
G1 X95.578 Y92.614 E0.18625
G1 X95.228 Y92.614 E0.01245
G1 X95.228 Y95.228 E0.09313
G1 X95.071 Y95.228 E0.00561
G1 X95.071 Y84.772 E0.37251
G1 X94.564 Y84.772 E0.01806
G1 X94.564 Y95.228 E0.37251
G1 X94.057 Y95.228 E0.01806
G1 X94.057 Y84.772 E0.37251
G1 X93.550 Y84.772 E0.01806
G1 X93.550 Y95.228 E0.37251
G1 X93.042 Y95.228 E0.01806
G1 X93.042 Y84.772 E0.37251
M73 P18 R5
G1 X92.614 Y84.772 E0.01526
G1 X92.614 Y83.465 E0.04656
G1 X92.535 Y83.465 E0.00281
G1 X92.535 Y96.535 E0.46564
G1 X92.028 Y96.535 E0.01806
G1 X92.028 Y83.465 E0.46564
G1 X91.521 Y83.465 E0.01806
G1 X91.521 Y96.535 E0.46564
G1 X91.014 Y96.535 E0.01806
G1 X91.014 Y83.465 E0.46564
G1 X90.507 Y83.465 E0.01806
G1 X90.507 Y96.535 E0.46564
G1 X90.000 Y96.535 E0.01806
G1 X90.000 Y83.465 E0.46564
G1 X89.493 Y83.465 E0.01806
G1 X89.493 Y96.535 E0.46564
G1 X88.986 Y96.535 E0.01806
M73 P19 R5
G1 X88.986 Y83.465 E0.46564
G1 X88.479 Y83.465 E0.01806
G1 X88.479 Y96.535 E0.46564
G1 X87.972 Y96.535 E0.01806
G1 X87.972 Y83.465 E0.46564
G1 X87.465 Y83.465 E0.01806
G1 X87.465 Y96.535 E0.46564
G1 X87.386 Y96.535 E0.00281
G1 X87.386 Y95.228 E0.04656
G1 X86.958 Y95.228 E0.01526
G1 X86.958 Y84.772 E0.37251
G1 X86.450 Y84.772 E0.01806
G1 X86.450 Y95.228 E0.37251
G1 X85.943 Y95.228 E0.01806
G1 X85.943 Y84.772 E0.37251
G1 X85.436 Y84.772 E0.01806
G1 X85.436 Y95.228 E0.37251
G1 X84.929 Y95.228 E0.01806
G1 X84.929 Y84.772 E0.37251
M73 P20 R5
G1 X84.772 Y84.772 E0.00561
G1 X84.772 Y87.386 E0.09313
G1 X84.422 Y87.386 E0.01245
G1 X84.422 Y92.614 E0.18625
G1 X83.915 Y92.614 E0.01806
G1 X83.915 Y87.248 E0.19118
; stop printing object spacer_s4p2_l8_t2.stl id:0 copy 0
M106 S170.85
;LAYER_CHANGE
;Z:1
;HEIGHT:0.5
;BEFORE_LAYER_CHANGE
G92 E0.0
;1


G1 E-2.24000 F4200.000
;WIPE_START
G1 F7200.000
G1 X83.915 Y88.893 E-0.91200
;WIPE_END
G1 E-0.04800 F4200.000
G1 Z0.700 F9000.000
G1 Z1.000
;AFTER_LAYER_CHANGE
;1
G1 Z1.200
G1 X77.874 Y85.236
G1 Z1.000
G1 E3.20000 F2400.000
;TYPE:Skirt
;WIDTH:0.42
G1 F996
G1 X79.656 Y81.751 E0.25443
G1 X81.577 Y79.791 E0.17842
G1 X82.262 Y79.324 E0.05390
G1 X84.942 Y78.054 E0.19278
G1 X86.208 Y77.773 E0.08431
G1 X93.450 Y77.745 E0.47076
G1 X93.996 Y77.800 E0.03565
G1 X94.524 Y77.963 E0.03592
G1 X97.495 Y79.334 E0.21269
G1 X98.041 Y79.688 E0.04228
G1 X100.553 Y82.219 E0.23179
G1 X101.953 Y84.815 E0.19176
G1 X102.173 Y85.401 E0.04069
G1 X102.254 Y86.018 E0.04042
G1 X102.254 Y93.973 E0.51711
M73 P21 R5
G1 X102.126 Y94.764 E0.05205
G1 X100.559 Y97.910 E0.22846
G1 X100.105 Y98.529 E0.04994
G1 X98.100 Y100.467 E0.18127
G1 X95.179 Y101.895 E0.21135
G1 X94.618 Y102.078 E0.03830
G1 X93.473 Y102.254 E0.07532
G1 X86.504 Y102.254 E0.45299
G1 X85.718 Y102.126 E0.05179
G1 X82.501 Y100.664 E0.22969
G1 X81.863 Y100.229 E0.05020
G1 X79.437 Y97.768 E0.22461
G1 X78.002 Y95.093 E0.19737
G1 X77.814 Y94.543 E0.03777
G1 X77.746 Y93.970 E0.03751
G1 X77.746 Y86.027 E0.51631
G1 X77.864 Y85.296 E0.04815
G1 X78.234 Y85.356 F9000.000
G1 F996
G1 X79.773 Y82.269 E0.22423
G1 X80.166 Y81.733 E0.04319
G1 X82.109 Y79.846 E0.17606
G1 X84.931 Y78.470 E0.20409
G1 X85.438 Y78.296 E0.03484
G1 X86.496 Y78.125 E0.06966
G1 X93.450 Y78.123 E0.45207
M73 P22 R5
G1 X94.384 Y78.314 E0.06197
G1 X97.326 Y79.671 E0.21058
G1 X97.813 Y79.989 E0.03779
G1 X100.254 Y82.448 E0.22527
G1 X101.625 Y85.002 E0.18838
G1 X101.810 Y85.505 E0.03484
G1 X101.877 Y86.033 E0.03459
G1 X101.877 Y93.963 E0.51547
G1 X101.762 Y94.663 E0.04613
G1 X100.227 Y97.731 E0.22302
G1 X99.831 Y98.270 E0.04343
G1 X97.885 Y100.158 E0.17630
G1 X95.017 Y101.554 E0.20732
G1 X94.532 Y101.710 E0.03311
G1 X93.458 Y101.877 E0.07063
G1 X86.515 Y101.877 E0.45132
G1 X85.819 Y101.762 E0.04588
G1 X82.674 Y100.329 E0.22466
G1 X82.116 Y99.948 E0.04392
G1 X79.737 Y97.539 E0.22007
G1 X78.342 Y94.930 E0.19235
G1 X78.181 Y94.454 E0.03262
G1 X78.123 Y93.960 E0.03238
G1 X78.123 Y86.037 E0.51498
M73 P23 R5
G1 X78.225 Y85.415 E0.04096
; printing object spacer_s4p2_l8_t2.stl id:0 copy 0
G1 E-2.24000 F4200.000
;WIPE_START
G1 F7200.000
G1 X78.951 Y83.939 E-0.91200
;WIPE_END
G1 E-0.04800 F4200.000
G1 Z1.200 F9000.000
G1 X87.512 Y88.970
G1 Z1.000
G1 E3.20000 F2400.000
M204 S800
;TYPE:Overhang perimeter
;WIDTH:0.389872
;HEIGHT:0.389872
G1 F1500.000
G1 X87.791 Y88.461 E0.02878
G1 X88.097 Y88.097 E0.02361
G1 X88.461 Y87.791 E0.02361
G1 X88.964 Y87.515 E0.02845
G1 X89.424 Y87.370 E0.02392
G1 X89.991 Y87.308 E0.02833
G1 X90.474 Y87.350 E0.02405
G1 X91.030 Y87.512 E0.02879
G1 X91.539 Y87.791 E0.02878
G1 X91.903 Y88.097 E0.02361
G1 X92.209 Y88.461 E0.02361
G1 X92.488 Y88.970 E0.02878
G1 X92.650 Y89.526 E0.02878
G1 X92.691 Y90.000 E0.02361
G1 X92.650 Y90.474 E0.02361
G1 X92.488 Y91.030 E0.02877
G1 X92.210 Y91.537 E0.02865
G1 X91.903 Y91.903 E0.02373
G1 X91.539 Y92.209 E0.02362
G1 X91.030 Y92.488 E0.02878
G1 X90.474 Y92.650 E0.02878
G1 X90.000 Y92.691 E0.02361
G1 X89.526 Y92.650 E0.02361
G1 X88.970 Y92.488 E0.02877
G1 X88.463 Y92.210 E0.02865
G1 X88.097 Y91.903 E0.02373
G1 X87.791 Y91.539 E0.02362
G1 X87.512 Y91.030 E0.02878
G1 X87.350 Y90.474 E0.02878
G1 X87.309 Y90.000 E0.02361
G1 X87.350 Y89.526 E0.02361
G1 X87.495 Y89.027 E0.02580
M204 S1250
G1 X87.845 Y89.129 F9000.000
M204 S800
G1 F1500.000
G1 X88.093 Y88.668 E0.02599
G1 X88.355 Y88.355 E0.02025
G1 X88.668 Y88.093 E0.02025
G1 X89.108 Y87.852 E0.02489
G1 X89.499 Y87.729 E0.02037
G1 X89.995 Y87.674 E0.02478
G1 X90.406 Y87.710 E0.02048
G1 X90.890 Y87.851 E0.02502
G1 X91.332 Y88.093 E0.02502
G1 X91.645 Y88.355 E0.02025
G1 X91.907 Y88.668 E0.02025
G1 X92.149 Y89.110 E0.02502
G1 X92.290 Y89.594 E0.02502
G1 X92.326 Y90.000 E0.02025
G1 X92.290 Y90.406 E0.02025
G1 X92.149 Y90.890 E0.02501
G1 X91.908 Y91.330 E0.02490
G1 X91.645 Y91.645 E0.02036
G1 X91.332 Y91.907 E0.02025
G1 X90.890 Y92.149 E0.02502
G1 X90.406 Y92.290 E0.02502
G1 X90.000 Y92.326 E0.02025
G1 X89.594 Y92.290 E0.02025
G1 X89.110 Y92.149 E0.02501
G1 X88.670 Y91.908 E0.02490
G1 X88.355 Y91.645 E0.02036
G1 X88.093 Y91.332 E0.02025
G1 X87.851 Y90.890 E0.02502
G1 X87.710 Y90.406 E0.02502
G1 X87.674 Y90.000 E0.02025
G1 X87.710 Y89.594 E0.02025
G1 X87.828 Y89.187 E0.02104
M204 S1250
G1 X86.730 Y88.732 F9000.000
M204 S800
G1 F1500.000
G1 X86.816 Y88.522 E0.01124
G1 X87.041 Y88.112 E0.02322
G1 X87.215 Y87.863 E0.01510
G1 X87.412 Y87.628 E0.01519
G1 X87.628 Y87.412 E0.01520
G1 X87.863 Y87.215 E0.01520
G1 X88.109 Y87.043 E0.01488
G1 X88.522 Y86.816 E0.02343
G1 X88.799 Y86.701 E0.01488
G1 X89.091 Y86.609 E0.01520
G1 X89.390 Y86.543 E0.01520
G1 X89.688 Y86.504 E0.01489
G1 X90.155 Y86.494 E0.02322
G1 X90.458 Y86.520 E0.01510
G1 X90.753 Y86.572 E0.01487
G1 X91.207 Y86.704 E0.02343
G1 X91.478 Y86.816 E0.01457
G1 X91.888 Y87.041 E0.02322
G1 X92.137 Y87.215 E0.01510
G1 X92.372 Y87.412 E0.01519
G1 X92.588 Y87.628 E0.01520
G1 X92.785 Y87.863 E0.01520
G1 X92.957 Y88.109 E0.01488
G1 X93.184 Y88.522 E0.02343
G1 X93.299 Y88.799 E0.01488
G1 X93.391 Y89.091 E0.01520
G1 X93.457 Y89.390 E0.01520
