; generated by PrusaSlicer 2.4.1 on 2022-05-05 at 17:40:55 UTC


;
;

;
;
; 

; external perimeters extrusion width = 0.45mm
; perimeters extrusion width = 0.45mm
; infill extrusion width = 0.45mm
; solid infill extrusion width = 0.45mm
; top infill extrusion width = 0.40mm
; support material extrusion width = 0.35mm
; first layer extrusion width = 0.42mm

M73 P0 R4
M201 X1250 Y1250 Z400 E5000 ; sets maximum accelerations, mm/sec^2
M203 X180 Y180 Z12 E80 ; sets maximum feedrates, mm / sec
M204 P1250 R1250 T1250 ; sets acceleration (P, T) and retract acceleration (R), mm/sec^2
M205 X8.00 Y8.00 Z2.00 E10.00 ; sets the jerk limits, mm/sec
M205 S0 T0 ; sets the minimum extruding and travel feed rate, mm/sec
M107
;TYPE:Custom
G90 ; use absolute coordinates
M83 ; extruder relative mode
M104 S170 ; set extruder temp for bed leveling
M140 S60 ; set bed temp
M109 R170 ; wait for bed leveling temp
M190 S60 ; wait for bed temp
G28 ; home all without mesh bed level
G29 ; mesh bed leveling 
M104 S215 ; set extruder temp
G92 E0.0
G1 Y-2.0 X179 F2400
G1 Z3 F720
M109 S215 ; wait for extruder temp

; intro line
M73 P1 R4
G1 X170 F1000
G1 Z0.2 F720
M73 P2 R4
G1 X110.0 E8.0 F900
G1 X40.0 E10.0 F700
G92 E0.0

M221 S95 ; set flow
G21 ; set units to millimeters
G90 ; use absolute coordinates
M83 ; use relative distances for extrusion
M900 K0.2 ; Filament gcode LA 1.5
; ; Filament gcode LA 1.0
M107
;LAYER_CHANGE
;Z:0.2
;HEIGHT:0.2
;BEFORE_LAYER_CHANGE
G92 E0.0
;0.2


M73 P3 R3
G1 E-3.2 F4200
M73 P6 R3
G1 Z.2 F9000
;AFTER_LAYER_CHANGE
;0.2
G1 Z.4
G1 X81.87 Y81.87
G1 Z.2
G1 E3.2 F2400
M204 S800
;TYPE:Skirt/Brim
;WIDTH:0.42
G1 F1200
G1 X83.194 Y80.545 E.05872
G1 X83.91 Y80.029 E.02767
G1 X85.284 Y79.373 E.04777
G1 X86.806 Y78.866 E.05028
G1 X87.677 Y78.724 E.02767
G1 X92.323 Y78.724 E.14569
G1 X93.194 Y78.866 E.02767
G1 X95.076 Y79.522 E.0625
G1 X96.09 Y80.029 E.03555
M73 P7 R3
G1 X96.806 Y80.545 E.02767
G1 X99.455 Y83.194 E.11744
G1 X99.971 Y83.91 E.02766
G1 X100.627 Y85.284 E.04777
G1 X101.134 Y86.806 E.05028
G1 X101.276 Y87.677 E.02767
G1 X101.276 Y92.323 E.14569
G1 X101.134 Y93.194 E.02767
G1 X100.478 Y95.076 E.0625
G1 X99.971 Y96.09 E.03555
G1 X99.455 Y96.806 E.02766
G1 X96.806 Y99.455 E.11744
G1 X96.09 Y99.971 E.02766
G1 X94.716 Y100.627 E.04777
G1 X93.194 Y101.134 E.05028
G1 X92.323 Y101.276 E.02767
G1 X87.677 Y101.276 E.14569
G1 X86.806 Y101.134 E.02767
G1 X84.924 Y100.478 E.0625
G1 X83.91 Y99.971 E.03555
G1 X83.194 Y99.455 E.02766
G1 X80.545 Y96.806 E.11744
G1 X80.029 Y96.09 E.02767
G1 X79.373 Y94.716 E.04777
G1 X78.866 Y93.194 E.05028
G1 X78.724 Y92.323 E.02767
G1 X78.724 Y87.677 E.14569
G1 X78.866 Y86.806 E.02767
M73 P8 R3
G1 X79.522 Y84.924 E.0625
G1 X80.029 Y83.91 E.03555
G1 X80.545 Y83.194 E.02767
G1 X81.827 Y81.912 E.05684
M204 S1250
G1 X82.094 Y82.179 F9000
M204 S800
G1 F1200
G1 X83.46 Y80.812 E.0606
G1 X84.078 Y80.367 E.02388
G1 X85.404 Y79.731 E.0461
G1 X86.925 Y79.223 E.05028
G1 X87.677 Y79.102 E.02388
G1 X92.323 Y79.102 E.14569
G1 X93.075 Y79.223 E.02388
G1 X94.908 Y79.86 E.06082
G1 X95.922 Y80.367 E.03555
G1 X96.54 Y80.812 E.02388
G1 X99.188 Y83.46 E.11744
G1 X99.633 Y84.078 E.02388
G1 X100.269 Y85.404 E.0461
G1 X100.777 Y86.925 E.05028
G1 X100.899 Y87.677 E.02388
G1 X100.899 Y92.323 E.14569
G1 X100.777 Y93.075 E.02388
G1 X100.14 Y94.908 E.06082
G1 X99.633 Y95.922 E.03555
G1 X99.188 Y96.54 E.02388
G1 X96.54 Y99.188 E.11744
G1 X95.922 Y99.633 E.02388
G1 X94.596 Y100.269 E.0461
M73 P9 R3
G1 X93.075 Y100.777 E.05028
G1 X92.323 Y100.899 E.02388
G1 X87.677 Y100.899 E.14569
G1 X86.925 Y100.777 E.02388
G1 X85.092 Y100.14 E.06082
G1 X84.078 Y99.633 E.03555
G1 X83.46 Y99.188 E.02388
G1 X80.812 Y96.54 E.11744
G1 X80.367 Y95.922 E.02388
G1 X79.731 Y94.596 E.0461
G1 X79.223 Y93.075 E.05028
G1 X79.102 Y92.323 E.02388
G1 X79.102 Y87.677 E.14569
G1 X79.223 Y86.925 E.02388
G1 X79.86 Y85.092 E.06082
G1 X80.367 Y84.078 E.03555
G1 X80.812 Y83.46 E.02388
G1 X82.051 Y82.221 E.05496
M204 S1250
; printing object spacer_s4p2_l6_t1p5.stl id:0 copy 0
G1 E-2.24 F4200
;WIPE_START
G1 F7200
G1 X83.215 Y81.057 E-.912
;WIPE_END
G1 E-.048 F4200
G1 Z.4 F9000
G1 X92.83 Y81.986
G1 Z.2
G1 E3.2 F2400
M204 S800
;TYPE:Support material
G1 F1200
G1 X93.845 Y81.986 E.0318
G1 X94.352 Y82.493 E.02248
G1 X94.859 Y82.493 E.0159
G1 X97.507 Y85.141 E.11744
G1 X97.507 Y85.648 E.0159
G1 X98.014 Y86.155 E.02248
G1 X98.014 Y87.17 E.0318
M73 P10 R3
G1 X98.521 Y87.677 E.02248
G1 X98.521 Y92.323 E.14569
G1 X98.014 Y92.83 E.02248
G1 X98.014 Y93.845 E.0318
G1 X97.507 Y94.352 E.02248
G1 X97.507 Y94.859 E.0159
G1 X97.062 Y95.304 E.01976
G1 X94.859 Y97.507 E.09768
G1 X94.352 Y97.507 E.0159
G1 X93.845 Y98.014 E.02248
G1 X92.83 Y98.014 E.0318
G1 X92.323 Y98.521 E.02248
G1 X87.677 Y98.521 E.14569
G1 X87.17 Y98.014 E.02248
G1 X86.155 Y98.014 E.0318
G1 X85.648 Y97.507 E.02248
G1 X85.141 Y97.507 E.0159
G1 X84.696 Y97.062 E.01976
G1 X82.493 Y94.859 E.09768
G1 X82.493 Y94.352 E.0159
G1 X81.986 Y93.845 E.02248
G1 X81.986 Y92.83 E.0318
G1 X81.479 Y92.323 E.02248
G1 X81.479 Y87.677 E.14569
G1 X81.986 Y87.17 E.02248
G1 X81.986 Y86.155 E.0318
G1 X82.493 Y85.648 E.02248
G1 X82.493 Y85.141 E.0159
G1 X85.141 Y82.493 E.11744
G1 X85.648 Y82.493 E.0159
G1 X86.155 Y81.986 E.02248
G1 X87.17 Y81.986 E.0318
G1 X87.677 Y81.479 E.02248
G1 X92.323 Y81.479 E.14569
G1 X92.79 Y81.946 E.02071
M204 S1250
M73 P11 R3
G1 X92.335 Y81.97 F9000
M204 S800
G1 F1200
G1 X92.69 Y82.325 E.01576
M204 S1250
G1 E-2.24 F4200
;WIPE_START
G1 F7200
G1 X92.335 Y81.97 E-.27846
;WIPE_END
G1 E-.68154 F4200
G1 Z.4 F9000
G1 X87.665 Y98.03
G1 Z.2
G1 E3.2 F2400
M204 S800
G1 F1200
G1 X87.31 Y97.675 E.01576
M204 S1250
G1 E-2.24 F4200
;WIPE_START
G1 F7200
G1 X87.665 Y98.03 E-.27846
;WIPE_END
G1 E-.68154 F4200
G1 Z.4 F9000
G1 X97.168 Y85.317
G1 Z.2
G1 E3.2 F2400
M204 S800
G1 F1200
G1 X94.683 Y82.832 E.1102
M204 S1250
G1 X93.583 Y82.325 F9000
M204 S800
G1 F1200
G1 X97.675 Y86.417 E.18145
G1 X97.675 Y87.01 E.01858
G1 X92.99 Y82.325 E.20772
M204 S1250
G1 E-2.24 F4200
;WIPE_START
G1 F7200
G1 X94.154 Y83.489 E-.912
;WIPE_END
G1 E-.048 F4200
G1 Z.4 F9000
G1 X87.665 Y98.03
G1 Z.2
M73 P12 R3
G1 E3.2 F2400
M204 S800
G1 F1200
G1 X87.817 Y98.182 E.00673
G1 X88.109 Y98.182 E.00915
G1 X81.818 Y91.891 E.27896
G1 X81.818 Y91.298 E.01858
G1 X88.702 Y98.182 E.30524
G1 X89.294 Y98.182 E.01858
G1 X81.818 Y90.706 E.33151
G1 X81.818 Y90.113 E.01858
G1 X89.887 Y98.182 E.35778
G1 X90.479 Y98.182 E.01858
M73 P13 R3
G1 X81.818 Y89.521 E.38406
G1 X81.818 Y88.928 E.01858
G1 X91.072 Y98.182 E.41033
G1 X91.664 Y98.182 E.01858
G1 X81.818 Y88.336 E.4366
G1 X81.818 Y87.817 E.01626
G1 X81.855 Y87.78 E.00164
G1 X92.22 Y98.145 E.45959
G1 X92.516 Y97.849 E.01314
M73 P14 R3
G1 X82.151 Y87.484 E.45959
G1 X82.325 Y87.31 E.00771
G1 X82.325 Y87.065 E.00768
G1 X92.935 Y97.675 E.47045
G1 X93.527 Y97.675 E.01858
G1 X82.325 Y86.473 E.49673
G1 X82.325 Y86.296 E.00554
M73 P15 R3
G1 X82.533 Y86.088 E.00922
G1 X93.912 Y97.467 E.50456
G1 X94.208 Y97.171 E.01314
G1 X82.829 Y85.792 E.50456
G1 X82.832 Y85.282 E.01599
G1 X82.872 Y85.242 E.00177
G1 X94.758 Y97.128 E.52705
G1 X95.054 Y96.832 E.01314
M73 P16 R3
G1 X83.168 Y84.946 E.52705
G1 X83.464 Y84.649 E.01314
G1 X95.351 Y96.536 E.52705
G1 X95.647 Y96.239 E.01314
G1 X83.761 Y84.353 E.52705
G1 X84.057 Y84.057 E.01314
M73 P17 R3
G1 X95.943 Y95.943 E.52705
G1 X96.239 Y95.647 E.01314
G1 X84.353 Y83.761 E.52705
G1 X84.65 Y83.464 E.01314
G1 X96.536 Y95.351 E.52705
G1 X96.832 Y95.054 E.01314
M73 P18 R3
G1 X84.946 Y83.168 E.52705
G1 X85.242 Y82.872 E.01314
G1 X97.128 Y94.758 E.52705
G1 X97.168 Y94.718 E.00177
M73 P19 R3
G1 X97.171 Y94.208 E.01599
G1 X85.792 Y82.829 E.50456
G1 X86.088 Y82.533 E.01314
G1 X97.467 Y93.912 E.50456
G1 X97.675 Y93.704 E.00922
G1 X97.675 Y93.527 E.00554
G1 X86.473 Y82.325 E.49673
G1 X87.065 Y82.325 E.01858
M73 P20 R3
G1 X97.675 Y92.935 E.47045
G1 X97.675 Y92.69 E.00768
G1 X97.849 Y92.516 E.00771
G1 X87.484 Y82.151 E.45959
G1 X87.78 Y81.855 E.01314
G1 X98.145 Y92.22 E.45959
G1 X98.182 Y92.183 E.00164
M73 P21 R3
G1 X98.182 Y91.664 E.01626
G1 X88.336 Y81.818 E.4366
G1 X88.928 Y81.818 E.01858
G1 X98.182 Y91.072 E.41033
G1 X98.182 Y90.479 E.01858
G1 X89.521 Y81.818 E.38406
G1 X90.113 Y81.818 E.01858
G1 X98.182 Y89.887 E.35778
G1 X98.182 Y89.294 E.01858
M73 P22 R3
G1 X90.706 Y81.818 E.33151
G1 X91.298 Y81.818 E.01858
G1 X98.182 Y88.702 E.30524
G1 X98.182 Y88.109 E.01858
G1 X91.891 Y81.818 E.27896
G1 X92.183 Y81.818 E.00915
G1 X92.335 Y81.97 E.00673
M204 S1250
G1 E-2.24 F4200
;WIPE_START
G1 F7200
G1 X92.183 Y81.818 E-.11894
G1 X91.891 Y81.818 E-.16178
G1 X92.696 Y82.623 E-.63128
;WIPE_END
G1 E-.048 F4200
G1 Z.4 F9000
G1 X82.325 Y92.99
G1 Z.2
G1 E3.2 F2400
M204 S800
G1 F1200
G1 X87.01 Y97.675 E.20772
G1 X86.417 Y97.675 E.01858
M73 P23 R3
G1 X82.325 Y93.583 E.18145
M204 S1250
G1 E-2.24 F4200
;WIPE_START
G1 F7200
G1 X83.489 Y94.747 E-.912
;WIPE_END
G1 E-.048 F4200
G1 Z.4 F9000
G1 X85.317 Y97.168
G1 Z.2
G1 E3.2 F2400
M204 S800
G1 F1200
G1 X82.832 Y94.683 E.1102
M204 S1250
; stop printing object spacer_s4p2_l6_t1p5.stl id:0 copy 0
M106 S84.15
;LAYER_CHANGE
;Z:0.5
;HEIGHT:0.3
;BEFORE_LAYER_CHANGE
G92 E0.0
;0.5


G1 E-2.24 F4200
;WIPE_START
G1 F7200
G1 X83.996 Y95.846 E-.912
;WIPE_END
G1 E-.048 F4200
G1 Z.4 F9000
G1 Z.5
;AFTER_LAYER_CHANGE
;0.5
G1 Z.7
G1 X81.791 Y98.052
G1 Z.5
G1 E3.2 F2400
;TYPE:Skirt/Brim
G1 F1827
G1 X80.545 Y96.806 E.07811
G1 X80.029 Y96.09 E.03914
G1 X79.373 Y94.716 E.06758
G1 X78.866 Y93.194 E.07112
G1 X78.724 Y92.323 E.03914
G1 X78.724 Y87.677 E.2061
G1 X78.866 Y86.806 E.03914
G1 X79.522 Y84.924 E.08841
G1 X80.029 Y83.91 E.05029
G1 X80.545 Y83.194 E.03914
G1 X83.194 Y80.545 E.16613
G1 X83.91 Y80.029 E.03914
G1 X85.284 Y79.373 E.06758
G1 X86.806 Y78.866 E.07112
G1 X87.677 Y78.724 E.03914
G1 X92.323 Y78.724 E.2061
M73 P24 R3
G1 X93.194 Y78.866 E.03914
G1 X95.076 Y79.522 E.08841
G1 X96.09 Y80.029 E.05029
G1 X96.806 Y80.545 E.03914
G1 X99.455 Y83.194 E.16613
G1 X99.971 Y83.91 E.03914
G1 X100.627 Y85.284 E.06758
G1 X101.134 Y86.806 E.07112
G1 X101.276 Y87.677 E.03914
G1 X101.276 Y92.323 E.2061
G1 X101.134 Y93.194 E.03914
G1 X100.478 Y95.076 E.08841
G1 X99.971 Y96.09 E.05029
G1 X99.455 Y96.806 E.03914
G1 X96.806 Y99.455 E.16613
G1 X96.09 Y99.971 E.03914
G1 X94.716 Y100.627 E.06758
G1 X93.194 Y101.134 E.07112
G1 X92.323 Y101.276 E.03914
G1 X87.677 Y101.276 E.2061
G1 X86.806 Y101.134 E.03914
G1 X84.924 Y100.478 E.08841
G1 X83.91 Y99.971 E.05029
G1 X83.194 Y99.455 E.03914
G1 X81.833 Y98.094 E.08536
G1 X82.1 Y97.827 F9000
G1 F1827
G1 X80.812 Y96.54 E.08077
G1 X80.367 Y95.922 E.03378
G1 X79.731 Y94.596 E.06521
G1 X79.223 Y93.075 E.07112
G1 X79.102 Y92.323 E.03378
G1 X79.102 Y87.677 E.2061
G1 X79.223 Y86.925 E.03378
G1 X79.86 Y85.092 E.08604
G1 X80.367 Y84.078 E.05029
G1 X80.812 Y83.46 E.03378
G1 X83.46 Y80.812 E.16613
G1 X84.078 Y80.367 E.03378
G1 X85.404 Y79.731 E.06521
G1 X86.925 Y79.223 E.07112
G1 X87.677 Y79.102 E.03378
G1 X92.323 Y79.102 E.2061
G1 X93.075 Y79.223 E.03378
M73 P25 R3
G1 X94.908 Y79.86 E.08604
G1 X95.922 Y80.367 E.05029
G1 X96.54 Y80.812 E.03378
G1 X99.188 Y83.46 E.16613
G1 X99.633 Y84.078 E.03378
G1 X100.269 Y85.404 E.06521
G1 X100.777 Y86.925 E.07112
G1 X100.899 Y87.677 E.03378
G1 X100.899 Y92.323 E.2061
G1 X100.777 Y93.075 E.03378
G1 X100.14 Y94.908 E.08604
G1 X99.633 Y95.922 E.05029
G1 X99.188 Y96.54 E.03378
G1 X96.54 Y99.188 E.16613
G1 X95.922 Y99.633 E.03378
G1 X94.596 Y100.269 E.06521
G1 X93.075 Y100.777 E.07112
G1 X92.323 Y100.899 E.03378
G1 X87.677 Y100.899 E.2061
G1 X86.925 Y100.777 E.03378
G1 X85.092 Y100.14 E.08604
G1 X84.078 Y99.633 E.05029
G1 X83.46 Y99.188 E.03378
G1 X82.142 Y97.87 E.0827
; printing object spacer_s4p2_l6_t1p5.stl id:0 copy 0
G1 E-2.24 F4200
;WIPE_START
G1 F7200
G1 X80.978 Y96.706 E-.912
;WIPE_END
G1 E-.048 F4200
G1 Z.7 F9000
G1 X86.45 Y94.564
G1 Z.5
G1 E3.2 F2400
;TYPE:Support material interface
;WIDTH:0.35
G1 F1827
G1 X86.45 Y94.057 E.01806
G1 X86.336 Y94.057 E.00407
G1 X86.336 Y85.943 E.28903
G1 X86.45 Y85.943 E.00407
G1 X86.45 Y85.436 E.01806
G1 X86.743 Y85.436 E.01044
G1 X86.743 Y94.564 E.32516
G1 X87.15 Y94.564 E.0145
M73 P26 R3
G1 X87.15 Y85.436 E.32516
G1 X87.312 Y85.436 E.00577
G1 X87.558 Y84.929 F9000
G1 F1827
G1 X87.558 Y95.071 E.36129
G1 X87.965 Y95.071 E.0145
G1 X87.965 Y84.929 E.36129
G1 X88.372 Y84.929 E.0145
G1 X88.372 Y95.071 E.36129
G1 X88.779 Y95.071 E.0145
G1 X88.779 Y84.929 E.36129
G1 X88.941 Y84.929 E.00577
G1 E-2.24 F4200
;WIPE_START
G1 F7200
M73 P26 R2
G1 X88.779 Y84.929 E-.0897
G1 X88.779 Y86.413 E-.8223
;WIPE_END
G1 E-.048 F4200
G1 Z.7 F9000
G1 X86.336 Y85.943
G1 Z.5
G1 E3.2 F2400
G1 F1827
G1 X85.943 Y85.943 E.014
G1 X85.943 Y86.45 E.01806
G1 X85.929 Y86.45 E.0005
G1 X85.929 Y93.55 E.2529
G1 X85.943 Y93.55 E.0005
M73 P27 R2
G1 X85.943 Y94.057 E.01806
G1 X86.336 Y94.057 E.014
G1 X85.776 Y93.55 F9000
G1 F1827
G1 X85.522 Y93.55 E.00903
G1 X85.522 Y86.45 E.2529
G1 X85.776 Y86.45 E.00903
G1 E-2.24 F4200
;WIPE_START
G1 F7200
G1 X85.522 Y86.45 E-.1405
G1 X85.522 Y87.843 E-.7715
;WIPE_END
G1 E-.048 F4200
G1 Z.7 F9000
G1 X84.554 Y88.986
G1 Z.5
G1 E3.2 F2400
G1 F1827
G1 X84.422 Y88.986 E.00471
G1 X84.422 Y91.014 E.07226
G1 X84.708 Y91.014 E.01018
G1 X84.708 Y88.986 E.07226
G1 X84.869 Y88.986 E.00575
G1 X84.929 Y87.826 F9000
G1 F1827
G1 X84.929 Y87.465 E.01287
G1 X85.115 Y87.465 E.00662
G1 X85.115 Y92.535 E.18064
G1 X84.929 Y92.535 E.00662
G1 X84.929 Y92.174 E.01287
G1 E-2.24 F4200
;WIPE_START
G1 F7200
G1 X84.929 Y92.535 E-.20027
G1 X85.115 Y92.535 E-.103
G1 X85.115 Y91.437 E-.60874
;WIPE_END
G1 E-.048 F4200
G1 Z.7 F9000
G1 X92.442 Y84.929
G1 Z.5
G1 E3.2 F2400
G1 F1827
G1 X92.442 Y95.071 E.36129
G1 X92.035 Y95.071 E.0145
G1 X92.035 Y84.929 E.36129
G1 X91.628 Y84.929 E.0145
M73 P28 R2
G1 X91.628 Y95.071 E.36129
G1 X91.221 Y95.071 E.0145
G1 X91.221 Y84.929 E.36129
G1 X91.059 Y84.929 E.00577
G1 X91.014 Y84.802 F9000
G1 F1827
G1 X91.014 Y84.422 E.01352
G1 X90.814 Y84.422 E.00713
G1 X90.814 Y95.578 E.39741
G1 X90.407 Y95.578 E.0145
G1 X90.407 Y84.422 E.39741
G1 X90 Y84.422 E.0145
G1 X90 Y95.578 E.39741
G1 X89.593 Y95.578 E.0145
G1 X89.593 Y84.422 E.39741
G1 X89.186 Y84.422 E.0145
M73 P29 R2
G1 X89.186 Y95.578 E.39741
G1 X88.986 Y95.578 E.00713
G1 X88.986 Y95.199 E.01352
G1 E-2.24 F4200
;WIPE_START
G1 F7200
G1 X88.986 Y95.578 E-.21025
G1 X89.186 Y95.578 E-.11084
G1 X89.186 Y94.512 E-.59091
;WIPE_END
G1 E-.048 F4200
G1 Z.7 F9000
G1 X92.688 Y94.564
G1 Z.5
G1 E3.2 F2400
G1 F1827
G1 X92.85 Y94.564 E.00577
G1 X92.85 Y85.436 E.32516
G1 X93.257 Y85.436 E.0145
G1 X93.257 Y94.564 E.32516
G1 X93.55 Y94.564 E.01044
G1 X93.55 Y94.057 E.01806
G1 X93.664 Y94.057 E.00407
G1 X93.664 Y85.943 E.28903
G1 X93.55 Y85.943 E.00407
G1 X93.55 Y85.436 E.01806
G1 X93.664 Y85.943 F9000
G1 F1827
G1 X94.057 Y85.943 E.014
G1 X94.057 Y86.45 E.01806
G1 X94.071 Y86.45 E.0005
G1 X94.071 Y93.55 E.2529
G1 X94.057 Y93.55 E.0005
G1 X94.057 Y94.057 E.01806
G1 X93.664 Y94.057 E.014
G1 X94.224 Y93.55 F9000
M73 P30 R2
G1 F1827
G1 X94.478 Y93.55 E.00903
G1 X94.478 Y86.45 E.2529
G1 X94.224 Y86.45 E.00903
G1 X94.724 Y87.465 F9000
G1 F1827
G1 X94.885 Y87.465 E.00575
G1 X94.885 Y92.535 E.18064
G1 X94.724 Y92.535 E.00575
G1 E-2.24 F4200
;WIPE_START
G1 F7200
G1 X94.885 Y92.535 E-.08945
G1 X94.885 Y91.051 E-.82255
;WIPE_END
G1 E-.048 F4200
G1 Z.7 F9000
G1 X95.131 Y91.014
G1 Z.5
G1 E3.2 F2400
G1 F1827
G1 X95.292 Y91.014 E.00575
G1 X95.292 Y88.986 E.07226
G1 X95.131 Y88.986 E.00575
G1 X95.446 Y88.986 F9000
G1 F1827
G1 X95.578 Y88.986 E.00471
G1 X95.578 Y91.014 E.07226
G1 X95.446 Y91.014 E.00471
; stop printing object spacer_s4p2_l6_t1p5.stl id:0 copy 0
M106 S170.85
;LAYER_CHANGE
;Z:0.8
;HEIGHT:0.3
;BEFORE_LAYER_CHANGE
G92 E0.0
;0.8


G1 E-2.24 F4200
;WIPE_START
G1 F7200
G1 X95.578 Y91.014 E-.07333
G1 X95.578 Y89.501 E-.83867
;WIPE_END
G1 E-.048 F4200
G1 Z.7 F9000
G1 Z.8
;AFTER_LAYER_CHANGE
;0.8
G1 Z1
G1 X101.276 Y89.501
G1 Z.8
G1 E3.2 F2400
;TYPE:Skirt/Brim
;WIDTH:0.42
G1 F907
G1 X101.276 Y92.323 E.12519
G1 X101.134 Y93.194 E.03914
G1 X100.478 Y95.076 E.08841
G1 X99.971 Y96.09 E.05029
G1 X99.455 Y96.806 E.03914
G1 X96.806 Y99.455 E.16613
G1 X96.09 Y99.971 E.03914
G1 X94.716 Y100.627 E.06758
