; generated by PrusaSlicer 2.6.0-alpha6 on 2023-04-16 at 19:06:02 UTC


;
;

;
;
; 

; external perimeters extrusion width = 0.68mm
; perimeters extrusion width = 0.68mm
; infill extrusion width = 0.68mm
; solid infill extrusion width = 0.68mm
; top infill extrusion width = 0.60mm
; support material extrusion width = 0.55mm
; first layer extrusion width = 0.65mm

M73 P0 R2
M201 X2500 Y2500 Z400 E5000 ; sets maximum accelerations, mm/sec^2
M203 X180 Y180 Z12 E80 ; sets maximum feedrates, mm / sec
M204 P1250 R1250 T2500 ; sets acceleration (P, T) and retract acceleration (R), mm/sec^2
M205 X8.00 Y8.00 Z2.00 E10.00 ; sets the jerk limits, mm/sec
M205 S0 T0 ; sets the minimum extruding and travel feed rate, mm/sec
;TYPE:Custom
M862.3 P "MINI" ; printer model check
G90 ; use absolute coordinates
M83 ; extruder relative mode
M104 S170 ; set extruder temp for bed leveling
M140 S60 ; set bed temp
M109 R170 ; wait for bed leveling temp
M190 S60 ; wait for bed temp
M204 T1250 ; set travel acceleration
G28 ; home all without mesh bed level
G29 ; mesh bed leveling 
M204 T2500 ; restore travel acceleration
M104 S215 ; set extruder temp
G92 E0
G1 Y-2 X179 F2400
G1 Z3 F720
M109 S215 ; wait for extruder temp

; intro line
M73 P2 R2
G1 X170 F1000
G1 Z0.2 F720
G1 X110 E8 F900
M73 P3 R2
G1 X40 E10 F700
G92 E0

M221 S95 ; set flow
G21 ; set units to millimeters
G90 ; use absolute coordinates
M83 ; use relative distances for extrusion
M900 K0.12 ; Filament gcode LA 1.5
; ; Filament gcode LA 1.0
M107
;LAYER_CHANGE
;Z:0.2
;HEIGHT:0.2
;BEFORE_LAYER_CHANGE
G92 E0.0
;0.2


M73 P5 R2
G1 E-3.2 F4200
M73 P8 R2
G1 Z.2 F720
;AFTER_LAYER_CHANGE
;0.2
G1 Z.4
G1 X80.688 Y79.942 F9000
G1 Z.2 F720
M73 P9 R2
G1 E3.2 F2400
M204 P800
;TYPE:Skirt/Brim
;WIDTH:0.65
G1 F1015
G1 X81.611 Y79.161 E.06103
G1 X82.684 Y78.41 E.06611
G1 X84.122 Y77.618 E.08287
G1 X85.259 Y77.14 E.06226
G1 X86.494 Y76.75 E.06538
G1 X87.676 Y76.492 E.06107
G1 X88.849 Y76.342 E.05969
G1 X90.471 Y76.303 E.0819
G1 X91.72 Y76.402 E.06325
G1 X93.009 Y76.628 E.06606
G1 X94.622 Y77.096 E.08478
G1 X95.741 Y77.554 E.06103
G1 X96.804 Y78.101 E.06035
G1 X97.897 Y78.797 E.06541
G1 X98.854 Y79.537 E.06107
G1 X100.058 Y80.688 E.08408
G1 X100.838 Y81.609 E.06092
G1 X101.59 Y82.684 E.06622
G1 X102.184 Y83.722 E.06037
G1 X102.86 Y85.256 E.08462
M73 P10 R2
G1 X103.225 Y86.398 E.06052
G1 X103.508 Y87.676 E.06607
G1 X103.659 Y88.862 E.06035
G1 X103.696 Y90.541 E.08477
G1 X103.582 Y91.845 E.06608
G1 X103.369 Y93.022 E.06038
G1 X103.055 Y94.176 E.06037
G1 X102.446 Y95.741 E.08477
G1 X101.842 Y96.902 E.06606
G1 X101.195 Y97.908 E.06038
G1 X100.463 Y98.854 E.06038
G1 X99.31 Y100.06 E.08422
G1 X98.389 Y100.839 E.06089
G1 X97.316 Y101.59 E.06611
G1 X96.278 Y102.184 E.06037
G1 X94.741 Y102.86 E.08476
G1 X93.602 Y103.225 E.06038
G1 X92.324 Y103.508 E.06607
G1 X91.138 Y103.659 E.06035
G1 X89.459 Y103.696 E.08477
G1 X88.168 Y103.583 E.06542
G1 X86.991 Y103.372 E.06036
M73 P11 R2
G1 X85.824 Y103.055 E.06104
G1 X84.259 Y102.446 E.08477
G1 X83.109 Y101.848 E.06543
G1 X82.103 Y101.202 E.06035
G1 X81.146 Y100.463 E.06103
G1 X79.942 Y99.312 E.08408
G1 X79.162 Y98.391 E.06092
G1 X78.41 Y97.316 E.06622
G1 X77.816 Y96.278 E.06037
G1 X77.14 Y94.741 E.08476
G1 X76.775 Y93.602 E.06038
G1 X76.492 Y92.324 E.06607
G1 X76.312 Y90.692 E.08288
G1 X76.304 Y89.459 E.06224
G1 X76.417 Y88.168 E.06542
G1 X76.628 Y86.991 E.06036
G1 X76.941 Y85.837 E.06036
G1 X77.548 Y84.271 E.08478
G1 X78.152 Y83.109 E.06611
G1 X78.797 Y82.103 E.06032
G1 X79.808 Y80.837 E.08178
G1 X80.625 Y80.006 E.05883
M204 P1250
; printing object spacer_emergency_button.stl id:0 copy 0
G1 E-2.24 F4200
;WIPE_START
M73 P12 R2
G1 F7200
G1 X81.611 Y79.161 E-.71961
G1 X81.966 Y78.912 E-.24039
;WIPE_END
G1 Z.4 F720
G1 X79.863 Y93.224 F9000
G1 Z.2 F720
G1 E3.2 F2400
M204 P800
;TYPE:External perimeter
;WIDTH:0.648839
G1 F1015
G1 X79.861 Y93.217 E.00037
;WIDTH:0.658879
G1 X79.71 Y92.736 E.02582
G1 X79.503 Y91.811 E.04855
;WIDTH:0.649875
G1 X79.386 Y90.901 E.0463
G1 X79.347 Y90 E.04551
;WIDTH:0.649766
G1 X79.349 Y89.947 E.00268
;WIDTH:0.65899
G1 X79.391 Y89.086 E.04416
G1 X79.449 Y88.584 E.02589
;WIDTH:0.645254
G1 X79.599 Y87.733 E.04328
;WIDTH:0.654579
G1 X79.716 Y87.231 E.02622
G1 X79.987 Y86.37 E.04591
;WIDTH:0.654385
G1 X80.175 Y85.902 E.02564
;WIDTH:0.645114
G1 X80.545 Y85.108 E.04386
;WIDTH:0.658952
G1 X80.785 Y84.664 E.02585
G1 X81.302 Y83.853 E.04927
;WIDTH:0.648836
G1 X81.855 Y83.157 E.04479
;WIDTH:0.645014
G1 X82.454 Y82.492 E.04481
;WIDTH:0.658953
G1 X82.816 Y82.14 E.02586
G1 X83.547 Y81.525 E.04893
;WIDTH:0.649462
G1 X84.31 Y80.995 E.04685
G1 X85.123 Y80.532 E.04719
;WIDTH:0.654239
G1 X86.345 Y79.997 E.06781
G1 X86.824 Y79.839 E.02564
;WIDTH:0.645119
G1 X87.67 Y79.613 E.04385
;WIDTH:0.658964
G1 X88.164 Y79.511 E.02584
G1 X89.118 Y79.386 E.04929
;WIDTH:0.654388
G1 X90.443 Y79.36 E.06738
G1 X90.954 Y79.397 E.02605
;WIDTH:0.64511
G1 X91.823 Y79.512 E.04389
;WIDTH:0.658952
G1 X92.318 Y79.607 E.02582
M73 P13 R2
G1 X93.247 Y79.856 E.04927
;WIDTH:0.654023
G1 X94.501 Y80.347 E.06843
G1 X94.952 Y80.586 E.02594
;WIDTH:0.658736
G1 X95.71 Y81.013 E.04455
G1 X96.128 Y81.295 E.02582
;WIDTH:0.645244
G1 X96.853 Y81.854 E.04585
G1 X97.509 Y82.454 E.04452
;WIDTH:0.658953
G1 X97.86 Y82.816 E.02583
G1 X98.475 Y83.547 E.04893
;WIDTH:0.649852
G1 X98.999 Y84.3 E.0463
G1 X99.468 Y85.123 E.0478
;WIDTH:0.648829
G1 X99.836 Y85.947 E.04547
;WIDTH:0.645109
G1 X100.145 Y86.774 E.04421
;WIDTH:0.658952
G1 X100.289 Y87.257 E.02582
G1 X100.497 Y88.19 E.04896
;WIDTH:0.649556
G1 X100.615 Y89.111 E.04684
G1 X100.652 Y90.04 E.0469
G1 X100.606 Y90.981 E.04752
;WIDTH:0.658968
G1 X100.489 Y91.836 E.04421
G1 X100.387 Y92.33 E.02584
;WIDTH:0.645123
G1 X100.161 Y93.176 E.04385
;WIDTH:0.654383
G1 X100.004 Y93.655 E.02563
G1 X99.654 Y94.498 E.04641
;WIDTH:0.654242
G1 X99.42 Y94.941 E.02547
;WIDTH:0.649532
G1 X98.955 Y95.767 E.04781
;WIDTH:0.658954
G1 X98.456 Y96.472 E.04424
G1 X98.138 Y96.863 E.02582
;WIDTH:0.645129
G1 X97.546 Y97.509 E.04388
;WIDTH:0.658952
G1 X97.184 Y97.86 E.02583
G1 X96.453 Y98.475 E.04893
;WIDTH:0.649467
G1 X95.69 Y99.005 E.04685
G1 X94.883 Y99.467 E.0469
G1 X94.033 Y99.857 E.04717
;WIDTH:0.64884
G1 X93.217 Y100.139 E.0435
;WIDTH:0.658878
G1 X92.736 Y100.29 E.02582
G1 X91.81 Y100.497 E.0486
;WIDTH:0.649557
G1 X90.889 Y100.615 E.04684
G1 X89.96 Y100.652 E.0469
M73 P14 R2
G1 X89.019 Y100.606 E.04752
;WIDTH:0.658968
G1 X88.164 Y100.489 E.04421
G1 X87.67 Y100.387 E.02584
;WIDTH:0.645122
G1 X86.824 Y100.161 E.04385
;WIDTH:0.654384
G1 X86.345 Y100.004 E.02563
G1 X85.502 Y99.654 E.04641
;WIDTH:0.654243
G1 X85.059 Y99.42 E.02547
;WIDTH:0.649533
G1 X84.233 Y98.955 E.04781
;WIDTH:0.658956
G1 X83.528 Y98.456 E.04424
G1 X83.137 Y98.138 E.02582
;WIDTH:0.645131
G1 X82.491 Y97.546 E.04388
;WIDTH:0.658955
G1 X82.14 Y97.184 E.02583
G1 X81.525 Y96.453 E.04893
;WIDTH:0.649466
G1 X80.995 Y95.69 E.04685
G1 X80.533 Y94.883 E.0469
G1 X80.143 Y94.033 E.04717
;WIDTH:0.648839
G1 X79.892 Y93.309 E.03861
M204 P1250
G1 E-2.24 F4200
;WIPE_START
G1 F7200
G1 X79.861 Y93.217 E-.0538
G1 X79.71 Y92.736 E-.27938
G1 X79.503 Y91.811 E-.52528
G1 X79.48 Y91.629 E-.10154
;WIPE_END
G1 Z.4 F720
G1 X89.211 Y79.99 F9000
G1 Z.2 F720
G1 E3.2 F2400
M204 P800
;WIDTH:0.649567
G1 F1015
G1 X89.975 Y79.959 E.03857
;WIDTH:0.645003
G1 X90.862 Y79.994 E.04444
;WIDTH:0.64511
G1 X91.731 Y80.107 E.04388
;WIDTH:0.649554
G1 X93.002 Y80.414 E.06596
G1 X93.83 Y80.719 E.04451
;WIDTH:0.640118
G1 X94.625 Y81.087 E.0435
;WIDTH:0.658736
G1 X95.402 Y81.546 E.04621
G1 X96.112 Y82.035 E.04414
;WIDTH:0.654591
G1 X96.782 Y82.598 E.04451
;WIDTH:0.658953
G1 X97.392 Y83.217 E.04452
M73 P15 R2
G1 X97.958 Y83.869 E.04423
;WIDTH:0.649544
G1 X98.459 Y84.581 E.04391
G1 X98.904 Y85.349 E.04477
G1 X99.272 Y86.146 E.04428
;WIDTH:0.645109
G1 X99.575 Y86.967 E.04382
;WIDTH:0.649559
G1 X99.889 Y88.236 E.06594
G1 X100.006 Y89.111 E.04453
G1 X100.046 Y89.987 E.04423
G1 X100.009 Y90.862 E.04418
;WIDTH:0.658968
G1 X99.879 Y91.749 E.04592
G1 X99.697 Y92.598 E.04448
;WIDTH:0.654385
G1 X99.434 Y93.434 E.04456
G1 X99.101 Y94.237 E.0442
;WIDTH:0.654242
G1 X98.479 Y95.386 E.06641
;WIDTH:0.658954
G1 X97.955 Y96.113 E.0459
G1 X97.402 Y96.782 E.04446
G1 X96.783 Y97.392 E.04452
G1 X96.131 Y97.958 E.04423
;WIDTH:0.649545
G1 X95.409 Y98.465 E.0445
G1 X94.65 Y98.905 E.04425
G1 X93.857 Y99.276 E.04416
G1 X93.032 Y99.572 E.04421
G1 X91.764 Y99.889 E.06593
G1 X90.889 Y100.006 E.04453
G1 X90.013 Y100.046 E.04423
G1 X89.138 Y100.009 E.04418
;WIDTH:0.658968
G1 X88.251 Y99.879 E.04592
G1 X87.402 Y99.697 E.04448
;WIDTH:0.654384
G1 X86.566 Y99.434 E.04456
G1 X85.763 Y99.101 E.0442
;WIDTH:0.654243
G1 X84.614 Y98.479 E.06641
;WIDTH:0.658956
G1 X83.887 Y97.955 E.0459
G1 X83.218 Y97.402 E.04446
M73 P16 R2
G1 X82.608 Y96.783 E.04452
G1 X82.042 Y96.131 E.04423
;WIDTH:0.649546
G1 X81.535 Y95.409 E.0445
G1 X81.095 Y94.65 E.04425
G1 X80.724 Y93.857 E.04416
G1 X80.428 Y93.032 E.04421
G1 X80.111 Y91.764 E.06593
G1 X79.995 Y90.901 E.04392
G1 X79.954 Y90.014 E.04479
;WIDTH:0.65899
G1 X80.006 Y89.119 E.04592
G1 X80.113 Y88.257 E.0445
;WIDTH:0.654579
G1 X80.303 Y87.401 E.0446
G1 X80.566 Y86.566 E.04452
;WIDTH:0.654385
G1 X80.901 Y85.757 E.04452
;WIDTH:0.658952
G1 X81.308 Y84.99 E.04448
G1 X81.76 Y84.254 E.04424
;WIDTH:0.649544
G1 X82.292 Y83.565 E.04391
;WIDTH:0.645014
G1 X82.889 Y82.908 E.04444
;WIDTH:0.649545
G1 X83.869 Y82.042 E.06597
G1 X84.591 Y81.535 E.0445
G1 X85.35 Y81.095 E.04425
G1 X86.146 Y80.728 E.04421
;WIDTH:0.645111
G1 X86.967 Y80.425 E.04382
G1 X87.813 Y80.197 E.04387
;WIDTH:0.649567
G1 X89.121 Y79.994 E.06677
M204 P1250
; stop printing object spacer_emergency_button.stl id:0 copy 0
M106 S84.15
;LAYER_CHANGE
;Z:0.5
;HEIGHT:0.3
;BEFORE_LAYER_CHANGE
G92 E0.0
;0.5


G1 E-2.24 F4200
;WIPE_START
G1 F7200
G1 X89.975 Y79.959 E-.47366
G1 X90.852 Y79.994 E-.48634
;WIPE_END
G1 Z.4 F720
G1 Z.5
;AFTER_LAYER_CHANGE
;0.5
G1 Z.7
G1 X91.142 Y76.356 F9000
G1 Z.5 F720
G1 E3.2 F2400
;TYPE:Skirt/Brim
;WIDTH:0.65
G1 F981
M73 P17 R2
G1 X91.72 Y76.402 E.04235
G1 X93.009 Y76.628 E.09559
G1 X94.622 Y77.096 E.12268
G1 X95.741 Y77.554 E.08831
G1 X96.804 Y78.101 E.08732
G1 X97.897 Y78.797 E.09465
G1 X98.854 Y79.537 E.08836
G1 X100.058 Y80.688 E.12166
G1 X100.838 Y81.609 E.08816
G1 X101.59 Y82.684 E.09582
G1 X102.184 Y83.722 E.08735
G1 X102.86 Y85.256 E.12244
G1 X103.225 Y86.398 E.08757
G1 X103.508 Y87.676 E.09561
G1 X103.659 Y88.862 E.08733
G1 X103.696 Y90.541 E.12267
G1 X103.582 Y91.845 E.09561
G1 X103.369 Y93.022 E.08737
G1 X103.055 Y94.176 E.08735
G1 X102.446 Y95.741 E.12266
G1 X101.842 Y96.902 E.09559
G1 X101.195 Y97.908 E.08736
G1 X100.463 Y98.854 E.08737
M73 P18 R2
G1 X99.31 Y100.06 E.12187
G1 X98.389 Y100.839 E.08811
G1 X97.316 Y101.59 E.09566
G1 X96.278 Y102.184 E.08735
G1 X94.741 Y102.86 E.12264
G1 X93.602 Y103.225 E.08736
G1 X92.324 Y103.508 E.09561
G1 X91.138 Y103.659 E.08733
G1 X89.459 Y103.696 E.12267
G1 X88.168 Y103.583 E.09466
G1 X86.991 Y103.372 E.08734
G1 X85.824 Y103.055 E.08833
G1 X84.259 Y102.446 E.12266
G1 X83.109 Y101.848 E.09468
G1 X82.103 Y101.202 E.08733
G1 X81.146 Y100.463 E.08832
G1 X79.942 Y99.312 E.12166
G1 X79.162 Y98.391 E.08816
G1 X78.41 Y97.316 E.09582
G1 X77.816 Y96.278 E.08735
G1 X77.14 Y94.741 E.12264
G1 X76.775 Y93.602 E.08736
M73 P19 R2
G1 X76.492 Y92.324 E.09561
G1 X76.312 Y90.692 E.11993
G1 X76.304 Y89.459 E.09006
G1 X76.417 Y88.168 E.09466
G1 X76.628 Y86.991 E.08734
G1 X76.941 Y85.837 E.08734
G1 X77.548 Y84.271 E.12268
G1 X78.152 Y83.109 E.09566
G1 X78.797 Y82.103 E.08729
G1 X79.808 Y80.837 E.11834
G1 X80.688 Y79.942 E.09168
G1 X81.611 Y79.161 E.08831
G1 X82.684 Y78.41 E.09566
G1 X84.122 Y77.618 E.11991
G1 X85.259 Y77.14 E.09009
G1 X86.494 Y76.75 E.0946
G1 X87.676 Y76.492 E.08837
G1 X88.849 Y76.342 E.08638
G1 X90.471 Y76.303 E.11851
G1 X91.052 Y76.349 E.04257
; printing object spacer_emergency_button.stl id:0 copy 0
G1 E-2.24 F4200
;WIPE_START
G1 F7200
M73 P20 R2
G1 X91.72 Y76.402 E-.37135
G1 X92.766 Y76.585 E-.58865
;WIPE_END
G1 Z.7 F720
G1 X79.81 Y93.24 F9000
G1 Z.5 F720
G1 E3.2 F2400
M204 P800
;TYPE:External perimeter
;WIDTH:0.780746
G1 F981
G1 X79.809 Y93.237 E.00028
;WIDTH:0.790826
G1 X79.655 Y92.747 E.04654
G1 X79.448 Y91.813 E.08668
;WIDTH:0.78256
G1 X79.332 Y90.918 E.08084
G1 X79.291 Y90 E.08231
;WIDTH:0.781825
G1 X79.294 Y89.937 E.00564
;WIDTH:0.790938
G1 X79.336 Y89.083 E.07748
G1 X79.395 Y88.573 E.04652
;WIDTH:0.777263
G1 X79.546 Y87.716 E.07737
;WIDTH:0.786924
G1 X79.663 Y87.214 E.04645
G1 X79.935 Y86.353 E.08137
;WIDTH:0.786406
G1 X80.126 Y85.876 E.04627
;WIDTH:0.777233
G1 X80.494 Y85.086 E.07749
;WIDTH:0.790902
G1 X80.738 Y84.635 E.04647
G1 X81.256 Y83.821 E.08743
;WIDTH:0.782035
G1 X81.8 Y83.115 E.07978
G1 X82.41 Y82.457 E.08031
;WIDTH:0.790905
G1 X82.781 Y82.098 E.04678
G1 X83.519 Y81.477 E.0874
;WIDTH:0.782543
G1 X84.26 Y80.961 E.08088
G1 X85.098 Y80.481 E.0865
;WIDTH:0.781476
G1 X85.954 Y80.089 E.08421
;WIDTH:0.780747
G1 X86.807 Y79.795 E.08061
;WIDTH:0.777246
G1 X87.654 Y79.56 E.07815
;WIDTH:0.790917
G1 X88.157 Y79.456 E.04654
G1 X89.121 Y79.331 E.08809
;WIDTH:0.780791
G1 X89.943 Y79.307 E.07348
;WIDTH:0.786368
G1 X90.453 Y79.305 E.04593
G1 X91.382 Y79.384 E.08396
G1 X91.889 Y79.467 E.04626
;WIDTH:0.777243
G1 X92.74 Y79.656 E.07751
;WIDTH:0.790919
M73 P21 R2
G1 X93.234 Y79.797 E.04655
G1 X94.148 Y80.131 E.08818
;WIDTH:0.780739
G1 X94.917 Y80.505 E.0764
;WIDTH:0.790815
G1 X95.372 Y80.743 E.04652
G1 X96.185 Y81.262 E.08739
;WIDTH:0.78073
G1 X96.864 Y81.802 E.07751
;WIDTH:0.777274
G1 X97.543 Y82.41 E.08104
;WIDTH:0.790902
G1 X97.902 Y82.781 E.04678
G1 X98.523 Y83.519 E.0874
;WIDTH:0.782542
G1 X99.039 Y84.26 E.08088
G1 X99.519 Y85.098 E.0865
;WIDTH:0.781476
G1 X99.911 Y85.954 E.08421
;WIDTH:0.780745
G1 X100.191 Y86.763 E.07649
;WIDTH:0.790826
G1 X100.345 Y87.253 E.04654
G1 X100.552 Y88.187 E.08668
;WIDTH:0.782559
G1 X100.668 Y89.082 E.08084
G1 X100.706 Y90.063 E.08794
;WIDTH:0.790938
G1 X100.661 Y90.948 E.0803
G1 X100.546 Y91.844 E.08186
;WIDTH:0.786417
G1 X100.44 Y92.346 E.04621
;WIDTH:0.777247
G1 X100.215 Y93.188 E.07749
;WIDTH:0.786406
G1 X100.055 Y93.676 E.04625
G1 X99.709 Y94.51 E.08131
G1 X99.477 Y94.969 E.04632
;WIDTH:0.77723
G1 X99.042 Y95.723 E.0774
;WIDTH:0.790651
G1 X98.758 Y96.152 E.0466
G1 X98.176 Y96.891 E.08521
;WIDTH:0.777235
G1 X97.589 Y97.545 E.07813
;WIDTH:0.790902
G1 X97.219 Y97.902 E.04659
G1 X96.48 Y98.523 E.08747
;WIDTH:0.781476
G1 X95.713 Y99.055 E.08349
G1 X94.903 Y99.518 E.08345
;WIDTH:0.782229
G1 X94.079 Y99.899 E.08128
G1 X93.237 Y100.191 E.07979
;WIDTH:0.790826
G1 X92.747 Y100.345 E.04654
G1 X91.813 Y100.552 E.08668
;WIDTH:0.782558
G1 X90.918 Y100.668 E.08084
M73 P22 R2
G1 X89.937 Y100.706 E.08794
;WIDTH:0.790938
G1 X89.052 Y100.661 E.0803
G1 X88.156 Y100.546 E.08186
;WIDTH:0.786416
G1 X87.654 Y100.44 E.04621
;WIDTH:0.777246
G1 X86.812 Y100.215 E.07749
;WIDTH:0.786406
G1 X86.324 Y100.055 E.04625
G1 X85.49 Y99.709 E.08131
G1 X85.031 Y99.477 E.04632
;WIDTH:0.777232
G1 X84.277 Y99.042 E.0774
;WIDTH:0.790653
G1 X83.848 Y98.758 E.0466
G1 X83.109 Y98.176 E.08521
;WIDTH:0.777235
G1 X82.455 Y97.589 E.07813
;WIDTH:0.790904
G1 X82.098 Y97.219 E.04659
G1 X81.477 Y96.48 E.08747
;WIDTH:0.781476
G1 X80.945 Y95.713 E.08349
G1 X80.481 Y94.902 E.08357
G1 X80.089 Y94.046 E.08421
;WIDTH:0.780746
G1 X79.84 Y93.325 E.06815
M204 P1250
G1 E-2.24 F4200
;WIPE_START
G1 F7200
G1 X79.809 Y93.237 E-.0517
G1 X79.655 Y92.747 E-.28464
G1 X79.448 Y91.813 E-.53015
G1 X79.426 Y91.646 E-.09351
;WIPE_END
G1 Z.7 F720
G1 X89.192 Y80.046 F9000
G1 Z.5 F720
G1 E3.2 F2400
M204 P800
;WIDTH:0.781595
G1 F981
G1 X89.952 Y80.015 E.06804
;WIDTH:0.776618
G1 X90.854 Y80.049 E.08019
;WIDTH:0.777226
G1 X91.719 Y80.161 E.07755
G1 X92.57 Y80.348 E.07747
;WIDTH:0.781596
G1 X93.802 Y80.762 E.11626
G1 X94.597 Y81.136 E.07859
G1 X95.711 Y81.803 E.11615
G1 X96.381 Y82.32 E.0757
;WIDTH:0.777274
M73 P23 R2
G1 X97.051 Y82.926 E.08033
;WIDTH:0.781576
G1 X97.912 Y83.9 E.11629
G1 X98.399 Y84.592 E.07569
;WIDTH:0.781475
G1 X98.854 Y85.372 E.08077
G1 X99.224 Y86.162 E.07802
G1 X99.519 Y86.983 E.07803
;WIDTH:0.781594
G1 X99.834 Y88.243 E.11618
G1 X99.947 Y89.081 E.07564
;WIDTH:0.781475
