; generated by PrusaSlicer 2.4.2 on 2022-05-07 at 18:19:18 UTC


;
;

;
;
; 

; external perimeters extrusion width = 0.45mm
; perimeters extrusion width = 0.45mm
; infill extrusion width = 0.45mm
; solid infill extrusion width = 0.45mm
; top infill extrusion width = 0.40mm
; support material extrusion width = 0.35mm
; first layer extrusion width = 0.42mm

M73 P0 R17
M201 X1250 Y1250 Z400 E5000 ; sets maximum accelerations, mm/sec^2
M203 X180 Y180 Z12 E80 ; sets maximum feedrates, mm / sec
M204 P1250 R1250 T1250 ; sets acceleration (P, T) and retract acceleration (R), mm/sec^2
M205 X8.00 Y8.00 Z2.00 E10.00 ; sets the jerk limits, mm/sec
M205 S0 T0 ; sets the minimum extruding and travel feed rate, mm/sec
M107
;TYPE:Custom
G90 ; use absolute coordinates
M83 ; extruder relative mode
M104 S170 ; set extruder temp for bed leveling
M140 S60 ; set bed temp
M109 R170 ; wait for bed leveling temp
M190 S60 ; wait for bed temp
G28 ; home all without mesh bed level
G29 ; mesh bed leveling 
M104 S215 ; set extruder temp
G92 E0.0
G1 Y-2.0 X179 F2400
G1 Z3 F720
M109 S215 ; wait for extruder temp

; intro line
G1 X170 F1000
G1 Z0.2 F720
G1 X110.0 E8.0 F900
G1 X40.0 E10.0 F700
G92 E0.0

M221 S95 ; set flow
G21 ; set units to millimeters
G90 ; use absolute coordinates
M83 ; use relative distances for extrusion
M900 K0.2 ; Filament gcode LA 1.5
; ; Filament gcode LA 1.0
M107
;LAYER_CHANGE
;Z:0.2
;HEIGHT:0.2
;BEFORE_LAYER_CHANGE
G92 E0.0
;0.2


G1 E-3.2 F4200
M73 P1 R17
G1 Z.2 F9000
;AFTER_LAYER_CHANGE
;0.2
G1 Z.4
G1 X82.377 Y82.377
G1 Z.2
G1 E3.2 F2400
M204 S800
;TYPE:Skirt/Brim
;WIDTH:0.42
G1 F1200
G1 X83.701 Y81.052 E.05872
G1 X84.417 Y80.536 E.02766
G1 X85.431 Y80.029 E.03555
G1 X86.662 Y79.739 E.03968
G1 X93.338 Y79.739 E.20929
G1 X94.569 Y80.029 E.03968
G1 X95.583 Y80.536 E.03555
G1 X96.299 Y81.052 E.02766
G1 X98.948 Y83.701 E.11744
G1 X99.464 Y84.417 E.02767
G1 X99.971 Y85.431 E.03555
G1 X100.261 Y86.662 E.03968
G1 X100.261 Y93.338 E.20929
G1 X99.971 Y94.569 E.03968
G1 X99.464 Y95.583 E.03555
G1 X98.948 Y96.299 E.02767
G1 X96.299 Y98.948 E.11744
G1 X95.583 Y99.464 E.02767
G1 X94.569 Y99.971 E.03555
G1 X93.338 Y100.261 E.03968
G1 X86.662 Y100.261 E.20929
G1 X85.431 Y99.971 E.03968
G1 X84.417 Y99.464 E.03555
G1 X83.701 Y98.948 E.02767
G1 X81.052 Y96.299 E.11744
G1 X80.536 Y95.583 E.02766
G1 X80.029 Y94.569 E.03555
G1 X79.739 Y93.338 E.03968
G1 X79.739 Y86.662 E.20929
G1 X80.029 Y85.431 E.03968
G1 X80.536 Y84.417 E.03555
G1 X81.052 Y83.701 E.02766
G1 X82.334 Y82.419 E.05684
M204 S1250
G1 X82.601 Y82.686 F9000
M204 S800
G1 F1200
G1 X83.967 Y81.319 E.0606
G1 X84.585 Y80.874 E.02388
G1 X85.599 Y80.367 E.03555
G1 X86.662 Y80.116 E.03425
G1 X93.338 Y80.116 E.20929
G1 X94.401 Y80.367 E.03425
G1 X95.415 Y80.874 E.03555
G1 X96.033 Y81.319 E.02388
G1 X98.681 Y83.967 E.11744
G1 X99.126 Y84.585 E.02388
G1 X99.633 Y85.599 E.03555
G1 X99.884 Y86.662 E.03425
G1 X99.884 Y93.338 E.20929
G1 X99.633 Y94.401 E.03425
M73 P2 R17
G1 X99.126 Y95.415 E.03555
G1 X98.681 Y96.033 E.02388
G1 X96.033 Y98.681 E.11744
G1 X95.415 Y99.126 E.02388
G1 X94.401 Y99.633 E.03555
G1 X93.338 Y99.884 E.03425
G1 X86.662 Y99.884 E.20929
G1 X85.599 Y99.633 E.03425
G1 X84.585 Y99.126 E.03555
G1 X83.967 Y98.681 E.02388
G1 X81.319 Y96.033 E.11744
G1 X80.874 Y95.415 E.02388
G1 X80.367 Y94.401 E.03555
G1 X80.116 Y93.338 E.03425
G1 X80.116 Y86.662 E.20929
G1 X80.367 Y85.599 E.03425
G1 X80.874 Y84.585 E.03555
G1 X81.319 Y83.967 E.02388
G1 X82.558 Y82.728 E.05496
M204 S1250
; printing object starter_key.stl id:0 copy 0
G1 E-2.24 F4200
;WIPE_START
G1 F7200
G1 X83.722 Y81.564 E-.912
;WIPE_END
G1 E-.048 F4200
G1 Z.4 F9000
G1 X93.845 Y83
G1 Z.2
G1 E3.2 F2400
M204 S800
;TYPE:Support material
G1 F1200
G1 X94.352 Y83 E.0159
G1 X97 Y85.648 E.11744
G1 X97 Y86.155 E.0159
G1 X97.507 Y86.662 E.02248
G1 X97.507 Y93.338 E.20929
G1 X97 Y93.845 E.02248
G1 X97 Y94.352 E.0159
G1 X94.352 Y97 E.11744
G1 X93.845 Y97 E.0159
G1 X93.338 Y97.507 E.02248
G1 X86.662 Y97.507 E.20929
G1 X86.155 Y97 E.02248
G1 X85.648 Y97 E.0159
G1 X83 Y94.352 E.11744
G1 X83 Y93.845 E.0159
G1 X82.493 Y93.338 E.02248
G1 X82.493 Y86.662 E.20929
G1 X83 Y86.155 E.02248
G1 X83 Y85.648 E.0159
G1 X85.648 Y83 E.11744
G1 X86.155 Y83 E.0159
G1 X86.662 Y82.493 E.02248
G1 X93.338 Y82.493 E.20929
G1 X93.805 Y82.96 E.02071
M204 S1250
G1 X93.349 Y82.984 F9000
M204 S800
G1 F1200
G1 X93.704 Y83.339 E.01576
M204 S1250
G1 E-2.24 F4200
;WIPE_START
G1 F7200
G1 X93.349 Y82.984 E-.27846
;WIPE_END
G1 E-.68154 F4200
G1 Z.4 F9000
G1 X86.651 Y97.016
G1 Z.2
G1 E3.2 F2400
M204 S800
G1 F1200
G1 X86.296 Y96.661 E.01576
M204 S1250
G1 E-2.24 F4200
;WIPE_START
G1 F7200
G1 X86.651 Y97.016 E-.27846
;WIPE_END
G1 E-.68154 F4200
G1 Z.4 F9000
G1 X96.661 Y85.995
G1 Z.2
G1 E3.2 F2400
M204 S800
G1 F1200
G1 X94.005 Y83.339 E.11778
M204 S1250
G1 E-2.24 F4200
;WIPE_START
G1 F7200
G1 X95.168 Y84.503 E-.912
;WIPE_END
G1 E-.048 F4200
G1 Z.4 F9000
G1 X86.651 Y97.016
G1 Z.2
G1 E3.2 F2400
M204 S800
G1 F1200
G1 X86.803 Y97.168 E.00673
G1 X87.095 Y97.168 E.00915
G1 X82.832 Y92.905 E.18902
G1 X82.832 Y92.312 E.01858
G1 X87.688 Y97.168 E.2153
G1 X88.28 Y97.168 E.01858
G1 X82.832 Y91.72 E.24157
G1 X82.832 Y91.127 E.01858
G1 X88.873 Y97.168 E.26784
G1 X89.465 Y97.168 E.01858
G1 X82.832 Y90.535 E.29412
G1 X82.832 Y89.942 E.01858
G1 X90.058 Y97.168 E.32039
G1 X90.65 Y97.168 E.01858
G1 X82.832 Y89.35 E.34666
G1 X82.832 Y88.757 E.01858
G1 X91.243 Y97.168 E.37294
G1 X91.835 Y97.168 E.01858
M73 P3 R17
G1 X82.832 Y88.165 E.39921
G1 X82.832 Y87.572 E.01858
G1 X92.428 Y97.168 E.42548
G1 X93.02 Y97.168 E.01858
G1 X82.832 Y86.98 E.45176
G1 X82.832 Y86.803 E.00554
M73 P3 R16
G1 X83.04 Y86.595 E.00922
G1 X93.405 Y96.96 E.45959
G1 X93.701 Y96.664 E.01314
G1 X83.336 Y86.299 E.45959
G1 X83.339 Y85.789 E.01599
G1 X83.379 Y85.749 E.00177
G1 X94.251 Y96.621 E.48208
G1 X94.547 Y96.325 E.01314
G1 X83.675 Y85.453 E.48208
G1 X83.972 Y85.157 E.01314
G1 X94.843 Y96.028 E.48208
G1 X95.14 Y95.732 E.01314
G1 X84.268 Y84.86 E.48208
G1 X84.564 Y84.564 E.01314
G1 X95.436 Y95.436 E.48208
G1 X95.732 Y95.14 E.01314
G1 X84.86 Y84.268 E.48208
G1 X85.157 Y83.972 E.01314
G1 X96.028 Y94.843 E.48208
G1 X96.325 Y94.547 E.01314
G1 X85.453 Y83.675 E.48208
G1 X85.749 Y83.379 E.01314
M73 P4 R16
G1 X96.621 Y94.251 E.48208
G1 X96.661 Y94.211 E.00177
G1 X96.664 Y93.701 E.01599
G1 X86.299 Y83.336 E.45959
G1 X86.595 Y83.04 E.01314
G1 X96.96 Y93.405 E.45959
G1 X97.168 Y93.197 E.00922
G1 X97.168 Y93.02 E.00554
G1 X86.98 Y82.832 E.45176
G1 X87.572 Y82.832 E.01858
G1 X97.168 Y92.428 E.42548
G1 X97.168 Y91.835 E.01858
G1 X88.165 Y82.832 E.39921
G1 X88.757 Y82.832 E.01858
G1 X97.168 Y91.243 E.37294
G1 X97.168 Y90.65 E.01858
G1 X89.35 Y82.832 E.34666
G1 X89.942 Y82.832 E.01858
G1 X97.168 Y90.058 E.32039
G1 X97.168 Y89.465 E.01858
G1 X90.535 Y82.832 E.29412
G1 X91.127 Y82.832 E.01858
G1 X97.168 Y88.873 E.26784
G1 X97.168 Y88.28 E.01858
G1 X91.72 Y82.832 E.24157
G1 X92.312 Y82.832 E.01858
G1 X97.168 Y87.688 E.2153
G1 X97.168 Y87.095 E.01858
G1 X92.905 Y82.832 E.18902
G1 X93.197 Y82.832 E.00915
G1 X93.349 Y82.984 E.00673
M204 S1250
G1 E-2.24 F4200
;WIPE_START
G1 F7200
G1 X93.197 Y82.832 E-.11894
G1 X92.905 Y82.832 E-.16178
G1 X93.711 Y83.638 E-.63127
;WIPE_END
G1 E-.048 F4200
G1 Z.4 F9000
G1 X85.995 Y96.661
G1 Z.2
G1 E3.2 F2400
M204 S800
G1 F1200
G1 X83.339 Y94.005 E.11778
M204 S1250
; stop printing object starter_key.stl id:0 copy 0
M106 S84.15
;LAYER_CHANGE
;Z:0.5
;HEIGHT:0.3
;BEFORE_LAYER_CHANGE
G92 E0.0
;0.5


G1 E-2.24 F4200
;WIPE_START
G1 F7200
G1 X84.503 Y95.168 E-.912
;WIPE_END
G1 E-.048 F4200
G1 Z.4 F9000
G1 Z.5
;AFTER_LAYER_CHANGE
;0.5
G1 Z.7
G1 X82.212 Y97.459
G1 Z.5
G1 E3.2 F2400
;TYPE:Skirt/Brim
G1 F1422
G1 X81.052 Y96.299 E.07275
G1 X80.536 Y95.583 E.03914
G1 X80.029 Y94.569 E.05029
G1 X79.739 Y93.338 E.05613
G1 X79.739 Y86.662 E.29607
G1 X80.029 Y85.431 E.05613
G1 X80.536 Y84.417 E.05029
G1 X81.052 Y83.701 E.03914
G1 X83.701 Y81.052 E.16613
G1 X84.417 Y80.536 E.03914
G1 X85.431 Y80.029 E.05029
G1 X86.662 Y79.739 E.05613
M73 P5 R16
G1 X93.338 Y79.739 E.29607
G1 X94.569 Y80.029 E.05613
G1 X95.583 Y80.536 E.05029
G1 X96.299 Y81.052 E.03914
G1 X98.948 Y83.701 E.16613
G1 X99.464 Y84.417 E.03914
G1 X99.971 Y85.431 E.05029
G1 X100.261 Y86.662 E.05613
G1 X100.261 Y93.338 E.29607
G1 X99.971 Y94.569 E.05613
G1 X99.464 Y95.583 E.05029
G1 X98.948 Y96.299 E.03914
G1 X96.299 Y98.948 E.16613
G1 X95.583 Y99.464 E.03914
G1 X94.569 Y99.971 E.05029
G1 X93.338 Y100.261 E.05613
G1 X86.662 Y100.261 E.29607
G1 X85.431 Y99.971 E.05613
G1 X84.417 Y99.464 E.05029
G1 X83.701 Y98.948 E.03914
G1 X82.255 Y97.501 E.09072
G1 X82.521 Y97.235 F9000
G1 F1422
G1 X81.319 Y96.033 E.07541
G1 X80.874 Y95.415 E.03378
G1 X80.367 Y94.401 E.05029
G1 X80.116 Y93.338 E.04845
G1 X80.116 Y86.662 E.29607
G1 X80.367 Y85.599 E.04845
G1 X80.874 Y84.585 E.05029
G1 X81.319 Y83.967 E.03378
G1 X83.967 Y81.319 E.16613
G1 X84.585 Y80.874 E.03378
G1 X85.599 Y80.367 E.05029
G1 X86.662 Y80.116 E.04845
G1 X93.338 Y80.116 E.29607
G1 X94.401 Y80.367 E.04845
G1 X95.415 Y80.874 E.05029
G1 X96.033 Y81.319 E.03378
G1 X98.681 Y83.967 E.16613
G1 X99.126 Y84.585 E.03378
G1 X99.633 Y85.599 E.05029
G1 X99.884 Y86.662 E.04845
G1 X99.884 Y93.338 E.29607
G1 X99.633 Y94.401 E.04845
G1 X99.126 Y95.415 E.05029
G1 X98.681 Y96.033 E.03378
G1 X96.033 Y98.681 E.16613
G1 X95.415 Y99.126 E.03378
G1 X94.401 Y99.633 E.05029
G1 X93.338 Y99.884 E.04845
G1 X86.662 Y99.884 E.29607
G1 X85.599 Y99.633 E.04845
G1 X84.585 Y99.126 E.05029
G1 X83.967 Y98.681 E.03378
G1 X82.564 Y97.277 E.08806
; printing object starter_key.stl id:0 copy 0
G1 E-2.24 F4200
;WIPE_START
G1 F7200
G1 X81.4 Y96.114 E-.912
;WIPE_END
G1 E-.048 F4200
G1 Z.7 F9000
G1 X86.336 Y93.042
G1 Z.5
G1 E3.2 F2400
;TYPE:Support material interface
;WIDTH:0.35
G1 F1422
G1 X85.943 Y93.042 E.014
G1 X85.943 Y92.028 E.03613
G1 X85.929 Y92.028 E.0005
G1 X85.943 Y86.958 E.18064
G1 X86.336 Y86.958 E.014
G1 X86.45 Y86.45 F9000
G1 F1422
G1 X86.45 Y86.958 E.01806
G1 X86.336 Y86.958 E.00407
G1 X86.336 Y93.042 E.21677
G1 X86.45 Y93.042 E.00407
G1 X86.45 Y93.55 E.01806
G1 X86.743 Y93.55 E.01044
G1 X86.743 Y86.45 E.2529
G1 X86.905 Y86.45 E.00577
G1 X86.958 Y86.313 F9000
G1 F1422
G1 X86.958 Y85.943 E.01318
G1 X87.15 Y85.943 E.00687
G1 X87.15 Y94.057 E.28903
G1 X87.558 Y94.057 E.0145
G1 X87.558 Y85.943 E.28903
G1 X87.811 Y85.943 E.00903
G1 E-2.24 F4200
;WIPE_START
G1 F7200
G1 X87.558 Y85.943 E-.1405
G1 X87.558 Y87.336 E-.7715
;WIPE_END
G1 E-.048 F4200
G1 Z.7 F9000
G1 X85.776 Y87.972
G1 Z.5
G1 E3.2 F2400
G1 F1422
G1 X85.522 Y87.972 E.00903
G1 X85.522 Y92.028 E.14451
G1 X85.776 Y92.028 E.00903
G1 E-2.24 F4200
;WIPE_START
G1 F7200
G1 X85.522 Y92.028 E-.1405
G1 X85.522 Y90.636 E-.7715
;WIPE_END
G1 E-.048 F4200
G1 Z.7 F9000
G1 X87.972 Y94.564
G1 Z.5
G1 E3.2 F2400
G1 F1422
G1 X87.972 Y85.436 E.32516
G1 X88.372 Y85.436 E.01425
G1 X88.372 Y94.564 E.32516
G1 X88.779 Y94.564 E.0145
G1 X88.779 Y85.436 E.32516
G1 X89.186 Y85.436 E.0145
G1 X89.186 Y94.564 E.32516
G1 X89.593 Y94.564 E.0145
G1 X89.593 Y85.436 E.32516
G1 X90 Y85.436 E.0145
G1 X90 Y94.564 E.32516
G1 X90.407 Y94.564 E.0145
M73 P6 R16
G1 X90.407 Y85.436 E.32516
G1 X90.814 Y85.436 E.0145
G1 X90.814 Y94.564 E.32516
G1 X91.221 Y94.564 E.0145
G1 X91.221 Y85.436 E.32516
G1 X91.628 Y85.436 E.0145
G1 X91.628 Y94.564 E.32516
G1 X92.028 Y94.564 E.01425
G1 X92.028 Y85.436 E.32516
G1 X92.189 Y85.943 F9000
G1 F1422
G1 X92.442 Y85.943 E.00903
G1 X92.442 Y94.057 E.28903
G1 X92.85 Y94.057 E.0145
G1 X92.85 Y85.943 E.28903
G1 X93.042 Y85.943 E.00687
G1 X93.042 Y86.313 E.01318
G1 X93.095 Y86.45 F9000
G1 F1422
G1 X93.257 Y86.45 E.00577
G1 X93.257 Y93.55 E.2529
G1 X93.55 Y93.55 E.01044
G1 X93.55 Y93.042 E.01806
G1 X93.664 Y93.042 E.00407
G1 X93.664 Y86.958 E.21677
G1 X93.55 Y86.958 E.00407
G1 X93.55 Y86.45 E.01806
G1 X93.664 Y86.958 F9000
G1 F1422
G1 X94.057 Y86.958 E.014
G1 X94.057 Y87.972 E.03613
G1 X94.071 Y87.972 E.0005
G1 X94.057 Y93.042 E.18064
G1 X93.664 Y93.042 E.014
G1 X94.224 Y92.028 F9000
G1 F1422
G1 X94.478 Y92.028 E.00903
G1 X94.478 Y87.972 E.14451
G1 X94.224 Y87.972 E.00903
; stop printing object starter_key.stl id:0 copy 0
M106 S170.85
;LAYER_CHANGE
;Z:0.8
;HEIGHT:0.3
;BEFORE_LAYER_CHANGE
G92 E0.0
;0.8


G1 E-2.24 F4200
;WIPE_START
G1 F7200
G1 X94.478 Y87.972 E-.1405
G1 X94.478 Y89.364 E-.7715
;WIPE_END
G1 E-.048 F4200
G1 Z.7 F9000
G1 Z.8
;AFTER_LAYER_CHANGE
;0.8
G1 Z1
G1 X100.261 Y89.364
G1 Z.8
G1 E3.2 F2400
;TYPE:Skirt/Brim
;WIDTH:0.42
G1 F900
G1 X100.261 Y93.338 E.17625
G1 X99.971 Y94.569 E.05613
G1 X99.464 Y95.583 E.05029
G1 X98.948 Y96.299 E.03914
G1 X96.299 Y98.948 E.16613
G1 X95.583 Y99.464 E.03914
G1 X94.569 Y99.971 E.05029
G1 X93.338 Y100.261 E.05613
G1 X86.662 Y100.261 E.29607
G1 X85.431 Y99.971 E.05613
G1 X84.417 Y99.464 E.05029
G1 X83.701 Y98.948 E.03914
G1 X81.052 Y96.299 E.16613
G1 X80.536 Y95.583 E.03914
G1 X80.029 Y94.569 E.05029
G1 X79.739 Y93.338 E.05613
G1 X79.739 Y86.662 E.29607
G1 X80.029 Y85.431 E.05613
G1 X80.536 Y84.417 E.05029
G1 X81.052 Y83.701 E.03914
G1 X83.701 Y81.052 E.16613
G1 X84.417 Y80.536 E.03914
G1 X85.431 Y80.029 E.05029
G1 X86.662 Y79.739 E.05613
G1 X93.338 Y79.739 E.29607
G1 X94.569 Y80.029 E.05613
G1 X95.583 Y80.536 E.05029
G1 X96.299 Y81.052 E.03914
G1 X96.745 Y81.498 E.02795
G1 X98.948 Y83.701 E.13819
G1 X99.464 Y84.417 E.03914
G1 X99.971 Y85.431 E.05029
G1 X100.261 Y86.662 E.05613
G1 X100.261 Y89.304 E.11716
G1 X99.884 Y89.304 F9000
G1 F900
G1 X99.884 Y93.338 E.17891
G1 X99.633 Y94.401 E.04845
G1 X99.126 Y95.415 E.05029
G1 X98.681 Y96.033 E.03378
G1 X96.033 Y98.681 E.16613
G1 X95.415 Y99.126 E.03378
G1 X94.401 Y99.633 E.05029
G1 X93.338 Y99.884 E.04845
G1 X86.662 Y99.884 E.29607
G1 X85.599 Y99.633 E.04845
M73 P7 R16
G1 X84.585 Y99.126 E.05029
G1 X83.967 Y98.681 E.03378
G1 X81.319 Y96.033 E.16613
G1 X80.874 Y95.415 E.03378
G1 X80.367 Y94.401 E.05029
G1 X80.116 Y93.338 E.04845
G1 X80.116 Y86.662 E.29607
G1 X80.367 Y85.599 E.04845
G1 X80.874 Y84.585 E.05029
G1 X81.319 Y83.967 E.03378
G1 X83.967 Y81.319 E.16613
G1 X84.585 Y80.874 E.03378
G1 X85.599 Y80.367 E.05029
G1 X86.662 Y80.116 E.04845
G1 X93.338 Y80.116 E.29607
G1 X94.401 Y80.367 E.04845
G1 X95.415 Y80.874 E.05029
G1 X96.033 Y81.319 E.03378
G1 X98.681 Y83.967 E.16613
G1 X99.126 Y84.585 E.03378
G1 X99.633 Y85.599 E.05029
G1 X99.884 Y86.662 E.04845
G1 X99.884 Y89.244 E.1145
; printing object starter_key.stl id:0 copy 0
G1 E-2.24 F4200
;WIPE_START
G1 F7200
G1 X99.884 Y90.89 E-.912
;WIPE_END
G1 E-.048 F4200
G1 Z1 F9000
G1 X92.247 Y89.697
G1 Z.8
G1 E3.2 F2400
M204 S800
;TYPE:Perimeter
;WIDTH:0.45
;HEIGHT:0.2
G1 F900
G1 X92.267 Y90 E.01027
G1 X92.216 Y90.477 E.01624
G1 X92.093 Y90.867 E.01384
G1 X91.908 Y91.223 E.0136
G1 X91.732 Y91.462 E.01003
G1 X91.462 Y91.732 E.01291
G1 X91.224 Y91.907 E.01002
G1 X90.867 Y92.093 E.01361
G1 X90.482 Y92.214 E.01366
G1 X90.191 Y92.259 E.00998
G1 X89.809 Y92.259 E.01292
G1 X89.518 Y92.214 E.00998
G1 X89.133 Y92.093 E.01366
G1 X88.777 Y91.908 E.0136
G1 X88.538 Y91.732 E.01003
G1 X88.268 Y91.462 E.01291
G1 X88.093 Y91.224 E.01003
G1 X87.907 Y90.867 E.01361
G1 X87.784 Y90.477 E.01384
G1 X87.753 Y90.303 E.00599
G1 X87.733 Y90 E.01027
G1 X87.784 Y89.523 E.01624
G1 X87.907 Y89.133 E.01384
G1 X88.092 Y88.777 E.0136
G1 X88.268 Y88.538 E.01003
G1 X88.538 Y88.268 E.01291
G1 X88.776 Y88.093 E.01002
G1 X89.133 Y87.907 E.01361
G1 X89.518 Y87.786 E.01366
G1 X89.809 Y87.741 E.00998
G1 X89.994 Y87.733 E.00626
G1 X90.301 Y87.753 E.01043
G1 X90.476 Y87.784 E.006
G1 X90.867 Y87.907 E.01389
G1 X91.223 Y88.092 E.0136
G1 X91.462 Y88.268 E.01003
G1 X91.732 Y88.538 E.01291
G1 X91.907 Y88.776 E.01003
G1 X92.093 Y89.133 E.01361
G1 X92.236 Y89.638 E.01777
M204 S1250
G1 X92.656 Y89.718 F9000
M204 S800
;TYPE:External perimeter
G1 F900
G1 X92.675 Y90 E.00958
G1 X92.652 Y90.351 E.01192
G1 X92.612 Y90.574 E.00766
G1 X92.471 Y91.023 E.01595
G1 X92.254 Y91.439 E.01586
G1 X92.047 Y91.721 E.01184
G1 X91.721 Y92.047 E.01562
G1 X91.439 Y92.254 E.01183
G1 X91.023 Y92.471 E.01587
G1 X90.575 Y92.612 E.01592
G1 X90.231 Y92.665 E.01178
G1 X89.769 Y92.665 E.01562
G1 X89.425 Y92.612 E.01178
G1 X88.977 Y92.471 E.01592
