; generated by PrusaSlicer 2.6.0-alpha6 on 2023-04-17 at 18:26:59 UTC


;
;

;
;
; 

; external perimeters extrusion width = 0.68mm
; perimeters extrusion width = 0.68mm
; infill extrusion width = 0.68mm
; solid infill extrusion width = 0.68mm
; top infill extrusion width = 0.60mm
; support material extrusion width = 0.55mm
; first layer extrusion width = 0.65mm

M73 P0 R13
M201 X2500 Y2500 Z400 E5000 ; sets maximum accelerations, mm/sec^2
M203 X180 Y180 Z12 E80 ; sets maximum feedrates, mm / sec
M204 P1250 R1250 T2500 ; sets acceleration (P, T) and retract acceleration (R), mm/sec^2
M205 X8.00 Y8.00 Z2.00 E10.00 ; sets the jerk limits, mm/sec
M205 S0 T0 ; sets the minimum extruding and travel feed rate, mm/sec
;TYPE:Custom
M862.3 P "MINI" ; printer model check
G90 ; use absolute coordinates
M83 ; extruder relative mode
M104 S170 ; set extruder temp for bed leveling
M140 S60 ; set bed temp
M109 R170 ; wait for bed leveling temp
M190 S60 ; wait for bed temp
M204 T1250 ; set travel acceleration
G28 ; home all without mesh bed level
G29 ; mesh bed leveling 
M204 T2500 ; restore travel acceleration
M104 S215 ; set extruder temp
G92 E0
G1 Y-2 X179 F2400
G1 Z3 F720
M109 S215 ; wait for extruder temp

; intro line
G1 X170 F1000
G1 Z0.2 F720
G1 X110 E8 F900
G1 X40 E10 F700
G92 E0

M221 S95 ; set flow
G21 ; set units to millimeters
G90 ; use absolute coordinates
M83 ; use relative distances for extrusion
M900 K0.12 ; Filament gcode LA 1.5
; ; Filament gcode LA 1.0
M107
;LAYER_CHANGE
;Z:0.2
;HEIGHT:0.2
;BEFORE_LAYER_CHANGE
G92 E0.0
;0.2


M73 P1 R13
G1 E-3.2 F4200
G1 Z.2 F720
;AFTER_LAYER_CHANGE
;0.2
G1 Z.4
G1 X81.923 Y52.625 F9000
G1 Z.2 F720
G1 E3.2 F2400
M204 P800
;TYPE:Skirt/Brim
;WIDTH:0.65
M73 P2 R13
G1 F1200
G1 X82.982 Y51.663 E.07222
G1 X84.138 Y51.393 E.05992
G1 X95.762 Y51.393 E.58677
G1 X97.138 Y51.785 E.07222
G1 X98.099 Y52.844 E.07219
G1 X98.369 Y54 E.05992
G1 X98.37 Y124.038 E3.53544
G1 X97.606 Y125.881 E.10071
G1 X97.454 Y126.033 E.01085
G1 X96.993 Y126.494 E.03291
G1 X95.15 Y127.257 E.10069
G1 X84.75 Y127.257 E.52498
G1 X82.907 Y126.494 E.10069
G1 X82.294 Y125.881 E.04376
G1 X81.53 Y124.038 E.10071
G1 X81.53 Y54 E3.53544
G1 X81.898 Y52.711 E.06767
M204 P1250
; printing object starter_key.stl id:0 copy 0
M73 P3 R13
G1 E-2.24 F4200
;WIPE_START
G1 F7200
G1 X82.982 Y51.663 E-.83555
G1 X83.201 Y51.612 E-.12445
;WIPE_END
G1 Z.4 F720
G1 X94.2 Y58.066 F9000
G1 Z.2 F720
G1 E3.2 F2400
M204 P800
;TYPE:Perimeter
;WIDTH:0.649999
G1 F1200
G1 X94.2 Y58.471 E.02044
;WIDTH:0.657837
G1 X94.196 Y59.065 E.03037
;WIDTH:0.70115
G1 X94.174 Y59.162 E.00544
;WIDTH:0.744463
G1 X94.153 Y59.259 E.00579
;WIDTH:0.787776
G1 X94.131 Y59.355 E.0061
;WIDTH:0.831089
G1 X94.11 Y59.452 E.0065
;WIDTH:0.874402
G1 X94.088 Y59.549 E.00688
;WIDTH:0.917715
G1 X94.066 Y59.646 E.00723
G1 X94.071 Y59.967 E.02335
;WIDTH:0.926087
G1 X94.062 Y60.547 E.0426
G1 X94.085 Y60.644 E.00732
;WIDTH:0.88104
G1 X94.107 Y60.742 E.007
;WIDTH:0.835993
G1 X94.13 Y60.839 E.00657
;WIDTH:0.790946
G1 X94.152 Y60.936 E.00619
;WIDTH:0.745899
G1 X94.175 Y61.033 E.00583
;WIDTH:0.700852
G1 X94.197 Y61.13 E.00544
;WIDTH:0.655805
G1 X94.2 Y61.441 E.01585
;WIDTH:0.649999
G1 X94.2 Y122.968 E3.10581
G1 X85.7 Y122.968 E.42907
G1 X85.7 Y61.459 E3.1049
;WIDTH:0.698017
G1 X85.724 Y61.329 E.0072
;WIDTH:0.746035
M73 P4 R12
G1 X85.748 Y61.198 E.00779
;WIDTH:0.794053
G1 X85.772 Y61.068 E.00826
;WIDTH:0.842071
G1 X85.796 Y60.938 E.00878
;WIDTH:0.890089
G1 X85.82 Y60.807 E.00938
;WIDTH:0.938107
G1 X85.844 Y60.677 E.00984
G1 X85.829 Y60.033 E.04795
;WIDTH:0.936332
G1 X85.843 Y59.354 E.05045
G1 X85.82 Y59.257 E.00741
;WIDTH:0.889777
G1 X85.797 Y59.16 E.00702
;WIDTH:0.843222
G1 X85.773 Y59.063 E.00665
;WIDTH:0.796667
G1 X85.75 Y58.967 E.00619
;WIDTH:0.750112
G1 X85.727 Y58.87 E.00586
;WIDTH:0.703556
G1 X85.713 Y58.714 E.0086
;WIDTH:0.676778
G1 X85.7 Y58.559 E.0082
;WIDTH:0.649999
G1 X85.7 Y55.132 E.17299
G1 X94.2 Y55.132 E.42907
G1 X94.2 Y57.976 E.14356
M204 P1250
G1 E-2.24 F4200
;WIPE_START
G1 F7200
G1 X94.2 Y58.471 E-.27431
G1 X94.196 Y59.065 E-.32918
G1 X94.174 Y59.162 E-.05512
G1 X94.153 Y59.259 E-.055
G1 X94.131 Y59.355 E-.05458
G1 X94.11 Y59.452 E-.055
G1 X94.088 Y59.549 E-.05512
G1 X94.066 Y59.646 E-.05512
G1 X94.067 Y59.694 E-.02657
;WIPE_END
G1 Z.4 F720
G1 X94.807 Y123.575 F9000
G1 Z.2 F720
G1 E3.2 F2400
M204 P800
;TYPE:External perimeter
G1 F1200
G1 X85.093 Y123.575 E.49035
G1 X85.093 Y54.525 E3.48556
G1 X94.807 Y54.525 E.49035
G1 X94.807 Y123.485 E3.48102
M204 P1250
G1 X94.274 Y123.3 F9000
M73 P5 R12
G1 E-2.24 F4200
;WIPE_START
G1 F7200
G1 X93.075 Y123.501 E-.96
;WIPE_END
G1 Z.4 F720
G1 X92.335 Y57.999 F9000
G1 Z.2 F720
G1 E3.2 F2400
M204 P800
;TYPE:Perimeter
G1 F1200
G1 X92.731 Y58.572 E.03516
;WIDTH:0.657837
G1 X92.969 Y59.173 E.03305
;WIDTH:0.70115
G1 X93.007 Y59.264 E.0054
;WIDTH:0.744463
G1 X93.046 Y59.356 E.00583
;WIDTH:0.787776
G1 X93.084 Y59.447 E.00611
;WIDTH:0.831089
G1 X93.122 Y59.539 E.00652
;WIDTH:0.874402
G1 X93.16 Y59.63 E.00682
;WIDTH:0.917715
G1 X93.198 Y59.722 E.00724
G1 X93.195 Y60.335 E.04459
;WIDTH:0.915587
G1 X93.149 Y60.533 E.01475
;WIDTH:0.880244
G1 X93.092 Y60.656 E.00944
;WIDTH:0.834195
G1 X93.035 Y60.778 E.00886
;WIDTH:0.788146
G1 X92.977 Y60.9 E.00837
;WIDTH:0.742097
G1 X92.92 Y61.022 E.00783
;WIDTH:0.696048
G1 X92.863 Y61.145 E.00736
;WIDTH:0.649999
G1 X92.609 Y61.649 E.02849
G1 X92.188 Y62.185 E.0344
G1 X91.679 Y62.609 E.03344
G1 X91.201 Y62.869 E.02747
G1 X90.703 Y63.039 E.02656
G1 X90.24 Y63.113 E.02367
G1 X89.66 Y63.113 E.02928
G1 X88.973 Y62.972 E.0354
G1 X88.255 Y62.627 E.04021
G1 X87.633 Y62.1 E.04115
G1 X87.169 Y61.429 E.04118
;WIDTH:0.69449
G1 X87.085 Y61.272 E.00965
;WIDTH:0.73898
G1 X87.002 Y61.115 E.01028
;WIDTH:0.783471
G1 X86.918 Y60.959 E.01091
;WIDTH:0.827961
G1 X86.835 Y60.802 E.01159
;WIDTH:0.864677
G1 X86.801 Y60.741 E.00477
;WIDTH:0.901392
G1 X86.768 Y60.68 E.00495
;WIDTH:0.938107
G1 X86.735 Y60.618 E.00523
G1 X86.697 Y60.233 E.0288
;WIDTH:0.915552
G1 X86.705 Y59.665 E.04122
;WIDTH:0.936332
G1 X86.724 Y59.46 E.01529
G1 X86.776 Y59.359 E.00844
;WIDTH:0.88861
G1 X86.828 Y59.259 E.00793
;WIDTH:0.840888
G1 X86.88 Y59.158 E.00754
;WIDTH:0.793166
G1 X86.933 Y59.057 E.00712
;WIDTH:0.745444
G1 X86.985 Y58.956 E.00664
;WIDTH:0.697722
G1 X87.037 Y58.855 E.00619
;WIDTH:0.649999
G1 X87.292 Y58.351 E.02851
G1 X87.712 Y57.814 E.03441
G1 X88.221 Y57.391 E.03341
G1 X88.699 Y57.131 E.02747
G1 X89.217 Y56.957 E.02758
G1 X89.715 Y56.88 E.02544
G1 X90.28 Y56.888 E.02852
G1 X90.927 Y57.028 E.03342
G1 X91.645 Y57.373 E.04021
G1 X92.284 Y57.925 E.04262
M204 P1250
G1 X91.997 Y58.561 F9000
M204 P800
;TYPE:External perimeter
G1 F1200
G1 X92.219 Y58.898 E.02037
G1 X92.368 Y59.279 E.02065
G1 X92.468 Y59.85 E.02926
G1 X92.447 Y60.362 E.02587
G1 X92.313 Y60.888 E.0274
G1 X92.119 Y61.29 E.02253
G1 X91.788 Y61.729 E.02775
G1 X91.376 Y62.083 E.02742
G1 X90.993 Y62.299 E.0222
G1 X90.584 Y62.444 E.0219
G1 X90.24 Y62.506 E.01764
G1 X89.66 Y62.506 E.02928
G1 X89.118 Y62.382 E.02807
G1 X88.535 Y62.089 E.03294
G1 X88.043 Y61.652 E.03322
G1 X87.681 Y61.102 E.03324
G1 X87.494 Y60.578 E.02808
G1 X87.43 Y60.136 E.02254
G1 X87.453 Y59.638 E.02517
G1 X87.587 Y59.112 E.0274
G1 X87.781 Y58.71 E.02253
G1 X88.112 Y58.271 E.02775
G1 X88.524 Y57.917 E.02742
G1 X88.907 Y57.701 E.0222
G1 X89.329 Y57.554 E.02256
G1 X89.854 Y57.477 E.02678
G1 X90.312 Y57.503 E.02316
G1 X90.85 Y57.643 E.02806
G1 X91.365 Y57.911 E.02931
G1 X91.857 Y58.348 E.03322
G1 X91.948 Y58.486 E.00834
M204 P1250
G1 X92.398 Y58.512 F9000
G1 E-2.24 F4200
;WIPE_START
G1 F7200
G1 X92.219 Y58.898 E-.27328
G1 X92.368 Y59.279 E-.22671
G1 X92.468 Y59.85 E-.32125
G1 X92.458 Y60.1 E-.13876
;WIPE_END
G1 Z.4 F720
G1 X93.602 Y59.335 F9000
G1 Z.2 F720
G1 E3.2 F2400
M204 P800
;TYPE:Solid infill
G1 F1200
G1 X93.737 Y58.972 E.01955
G1 X93.744 Y55.587 E.17087
G1 X91.451 Y55.587 E.11575
;WIDTH:0.683717
G1 X91.205 Y55.604 E.01314
;WIDTH:0.717434
G1 X90.958 Y55.621 E.01389
;WIDTH:0.751151
G1 X90.712 Y55.638 E.01452
;WIDTH:0.761915
G1 X89.965 Y55.643 E.04466
;WIDTH:0.80527
G1 X89.129 Y55.665 E.05301
G1 X88.886 Y55.646 E.01545
;WIDTH:0.766453
G1 X88.644 Y55.626 E.01461
;WIDTH:0.727635
G1 X88.402 Y55.607 E.01382
;WIDTH:0.688817
G1 X88.16 Y55.587 E.01304
;WIDTH:0.649999
G1 X86.155 Y55.587 E.10121
G1 X86.155 Y58.546 E.14937
G1 X86.213 Y58.844 E.01532
G1 X86.324 Y59.074 E.01289
G1 X86.508 Y58.844 E.01487
G1 X86.791 Y58.306 E.03069
G1 X87.2 Y57.706 E.03665
G1 X87.728 Y57.197 E.03702
G1 X88.309 Y56.815 E.0351
;WIDTH:0.691053
G1 X88.572 Y56.696 E.01556
;WIDTH:0.732107
G1 X88.835 Y56.578 E.01652
;WIDTH:0.77316
G1 X89.097 Y56.459 E.01747
;WIDTH:0.80527
G1 X89.175 Y56.425 E.00539
G1 X89.864 Y56.362 E.04386
;WIDTH:0.785831
G1 X90.529 Y56.397 E.04114
G1 X90.784 Y56.492 E.01681
;WIDTH:0.740554
G1 X91.039 Y56.588 E.01581
;WIDTH:0.695277
G1 X91.294 Y56.683 E.01476
;WIDTH:0.649999
G1 X91.847 Y56.964 E.03131
G1 X92.182 Y57.205 E.02083
G1 X92.567 Y57.558 E.02637
G1 X92.813 Y57.853 E.01939
G1 X93.216 Y58.525 E.03955
G1 X93.401 Y59.029 E.0271
G1 X93.552 Y59.26 E.01393
M204 P1250
G1 E-2.24 F4200
;WIPE_START
G1 F7200
G1 X93.401 Y59.029 E-.15294
G1 X93.216 Y58.525 E-.29752
G1 X92.813 Y57.853 E-.43423
G1 X92.726 Y57.749 E-.07531
;WIPE_END
G1 Z.4 F720
G1 X88.158 Y56.205 F9000
G1 Z.2 F720
G1 E3.2 F2400
M204 P800
;WIDTH:0.671677
G1 F1200
G1 X86.773 Y56.205 E.07241
G1 X86.773 Y57.26 E.05516
G1 X87.304 Y56.748 E.03856
G1 X87.98 Y56.292 E.04263
G1 X88.077 Y56.245 E.00564
M204 P1250
G1 E-2.24 F4200
;WIPE_START
G1 F7200
G1 X87.98 Y56.292 E-.05973
G1 X87.304 Y56.748 E-.45188
G1 X86.773 Y57.26 E-.40877
G1 X86.773 Y57.189 E-.03962
;WIPE_END
G1 Z.4 F720
G1 X91.725 Y56.205 F9000
G1 Z.2 F720
G1 E3.2 F2400
M204 P800
;WIDTH:0.670619
G1 F1200
G1 X92.235 Y56.479 E.03022
G1 X92.599 Y56.75 E.02369
G1 X92.984 Y57.103 E.02726
G1 X93.123 Y57.256 E.01079
G1 X93.126 Y56.205 E.05486
G1 X91.815 Y56.205 E.06843
M204 P1250
G1 E-2.24 F4200
;WIPE_START
G1 F7200
G1 X93.126 Y56.205 E-.72651
G1 X93.125 Y56.626 E-.23349
;WIPE_END
G1 Z.4 F720
G1 X90.289 Y63.563 F9000
G1 Z.2 F720
G1 E3.2 F2400
M204 P800
;WIDTH:0.649999
G1 F1200
G1 X89.387 Y63.536 E.04555
G1 X88.606 Y63.317 E.04094
G1 X88.053 Y63.036 E.03131
G1 X87.745 Y62.82 E.01899
G1 X87.333 Y62.442 E.02822
G1 X87.084 Y62.143 E.01964
G1 X86.666 Y61.422 E.04207
G1 X86.328 Y61.016 E.02667
G1 X86.155 Y61.486 E.02528
G1 X86.155 Y122.513 E3.08057
G1 X93.745 Y122.513 E.38313
M73 P6 R12
G1 X93.745 Y61.443 E3.08274
G1 X93.722 Y61.127 E.01599
G1 X93.586 Y60.835 E.01626
G1 X93.341 Y61.154 E.0203
G1 X93.001 Y61.874 E.04019
G1 X92.52 Y62.493 E.03957
G1 X91.944 Y62.977 E.03798
G1 X91.386 Y63.283 E.03212
G1 X90.953 Y63.439 E.02323
G1 X90.377 Y63.547 E.02958
M204 P1250
G1 X90.4 Y64.16 F9000
M204 P800
G1 F1200
G1 X89.363 Y64.142 E.05235
G1 X88.435 Y63.9 E.04841
G1 X87.773 Y63.574 E.03725
G1 X87.335 Y63.268 E.02697
G1 X86.923 Y62.89 E.02822
G1 X86.762 Y62.711 E.01215
G1 X86.762 Y121.906 E2.98809
G1 X93.138 Y121.906 E.32185
M73 P7 R12
G1 X93.138 Y62.692 E2.98905
G1 X92.861 Y63.008 E.02121
G1 X92.329 Y63.446 E.03479
G1 X91.673 Y63.818 E.03807
G1 X91.065 Y64.036 E.0326
G1 X90.488 Y64.144 E.02963
M204 P1250
G1 X90.511 Y64.757 F9000
M204 P800
G1 F1200
G1 X90.051 Y64.777 E.02324
G1 X89.34 Y64.749 E.03592
G1 X88.973 Y64.689 E.01877
G1 X88.265 Y64.482 E.03724
G1 X87.369 Y64.038 E.05048
G1 X87.369 Y121.298 E2.89042
G1 X92.531 Y121.298 E.26057
M73 P8 R12
G1 X92.531 Y64.038 E2.89042
G1 X91.96 Y64.352 E.03289
G1 X91.417 Y64.567 E.02948
G1 X90.599 Y64.738 E.04218
M204 P1250
G1 X90.623 Y65.354 F9000
M204 P800
G1 F1200
G1 X90.027 Y65.383 E.03012
G1 X89.316 Y65.356 E.03592
G1 X88.803 Y65.272 E.02624
G1 X87.977 Y65.017 E.04364
G1 X87.976 Y120.691 E2.81036
G1 X91.924 Y120.691 E.19929
G1 X91.924 Y65.029 E2.80975
G1 X91.287 Y65.23 E.03372
M73 P9 R12
G1 X90.711 Y65.337 E.02957
M204 P1250
G1 X90.734 Y65.95 F9000
M204 P800
G1 F1200
G1 X90.126 Y65.995 E.03078
G1 X89.292 Y65.962 E.04213
G1 X88.584 Y65.84 E.03627
G1 X88.583 Y120.084 E2.73817
G1 X91.317 Y120.084 E.13801
G1 X91.316 Y65.842 E2.73807
G1 X90.822 Y65.934 E.02537
M204 P1250
G1 X90.709 Y66.557 F9000
M204 P800
G1 F1200
G1 X90.103 Y66.601 E.03067
G1 X89.191 Y66.556 E.04609
G1 X89.19 Y119.477 E2.67139
G1 X90.71 Y119.477 E.07673
M73 P10 R12
G1 X90.709 Y66.647 E2.6668
M204 P1250
G1 X89.95 Y67.355 F9000
M204 P800
;WIDTH:0.955038
G1 F1200
G1 X89.95 Y118.628 E3.88869
M204 P1250
; stop printing object starter_key.stl id:0 copy 0
M106 S84.15
;LAYER_CHANGE
;Z:0.5
;HEIGHT:0.3
;BEFORE_LAYER_CHANGE
G92 E0.0
;0.5


G1 E-2.24 F4200
;WIPE_START
G1 F7200
G1 X89.95 Y116.896 E-.96
;WIPE_END
G1 Z.4 F720
G1 Z.5
;AFTER_LAYER_CHANGE
;0.5
G1 Z.7
G1 X81.53 Y116.896 F9000
G1 Z.5 F720
G1 E3.2 F2400
;TYPE:Skirt/Brim
;WIDTH:0.65
G1 X81.53 Y54 E4.59403
G1 X81.923 Y52.625 E.10445
M73 P11 R11
G1 X82.982 Y51.663 E.1045
G1 X84.138 Y51.393 E.08671
G1 X95.762 Y51.393 E.84904
G1 X97.138 Y51.785 E.1045
G1 X98.099 Y52.844 E.10445
G1 X98.369 Y54 E.08671
G1 X98.37 Y124.038 E5.11569
G1 X97.606 Y125.881 E.14572
G1 X96.993 Y126.494 E.06332
G1 X95.15 Y127.257 E.1457
G1 X84.75 Y127.257 E.75963
G1 X82.907 Y126.494 E.1457
G1 X82.294 Y125.881 E.06332
G1 X81.53 Y124.038 E.14572
G1 X81.53 Y116.986 E.51509
; printing object starter_key.stl id:0 copy 0
G1 E-2.24 F4200
;WIPE_START
G1 F7200
G1 X81.53 Y115.254 E-.96
;WIPE_END
G1 Z.7 F720
G1 X94.677 Y123.394 F9000
G1 Z.5 F720
G1 E3.2 F2400
M204 P800
;TYPE:Perimeter
;WIDTH:0.68
G1 F2700
G1 X85.223 Y123.394 E.72591
G1 X85.223 Y54.956 E5.2549
G1 X94.677 Y54.956 E.72591
G1 X94.677 Y123.304 E5.24799
M204 P1250
G1 X95.293 Y124.01 F9000
M204 P800
;TYPE:External perimeter
G1 F2100
G1 X84.607 Y124.01 E.82051
G1 X84.607 Y54.34 E5.3495
M73 P12 R11
G1 X95.293 Y54.34 E.82051
G1 X95.293 Y123.92 E5.34259
M204 P1250
G1 X94.759 Y123.737 F9000
G1 E-2.24 F4200
;WIPE_START
G1 F7200
G1 X93.561 Y123.935 E-.96
;WIPE_END
G1 Z.7 F720
G1 X92.402 Y58.378 F9000
G1 Z.5 F720
G1 E3.2 F2400
M204 P800
;TYPE:Perimeter
G1 F1500
G1 X92.637 Y58.778 E.03562
G1 X92.838 Y59.388 E.04932
G1 X92.902 Y59.92 E.04114
G1 X92.871 Y60.434 E.03954
G1 X92.714 Y61.036 E.04777
G1 X92.425 Y61.61 E.04934
G1 X92.094 Y62.031 E.04112
G1 X91.62 Y62.434 E.04777
G1 X91.154 Y62.697 E.04109
G1 X90.667 Y62.865 E.03956
G1 X90.051 Y62.95 E.04775
G1 X89.41 Y62.902 E.04936
G1 X88.895 Y62.758 E.04106
G1 X88.431 Y62.533 E.0396
G1 X87.935 Y62.157 E.04779
G1 X87.578 Y61.759 E.04105
G1 X87.263 Y61.222 E.0478
G1 X87.063 Y60.617 E.04893
G1 X86.998 Y60.082 E.04138
G1 X87.029 Y59.566 E.03969
G1 X87.186 Y58.964 E.04777
G1 X87.475 Y58.39 E.04934
G1 X87.806 Y57.969 E.04112
G1 X88.28 Y57.566 E.04777
G1 X88.746 Y57.303 E.04109
G1 X89.233 Y57.135 E.03956
G1 X89.843 Y57.05 E.04729
G1 X90.382 Y57.079 E.04145
G1 X90.986 Y57.236 E.04792
G1 X91.469 Y57.467 E.04111
G1 X91.965 Y57.843 E.04779
G1 X92.357 Y58.3 E.04623
M204 P1250
G1 X91.865 Y58.662 F9000
M204 P800
;TYPE:External perimeter
G1 F1500
G1 X92.123 Y59.136 E.04144
G1 X92.258 Y59.62 E.03858
G1 X92.289 Y60.027 E.03134
G1 X92.247 Y60.439 E.0318
G1 X92.098 Y60.926 E.0391
G1 X91.851 Y61.363 E.03854
G1 X91.58 Y61.677 E.03185
G1 X91.184 Y61.987 E.03861
G1 X90.82 Y62.171 E.03132
G1 X90.423 Y62.29 E.03182
G1 X89.916 Y62.338 E.0391
G1 X89.418 Y62.278 E.03851
G1 X89.03 Y62.151 E.03135
G1 X88.665 Y61.954 E.03185
G1 X88.277 Y61.635 E.03857
G1 X88.015 Y61.314 E.03182
G1 X87.777 Y60.864 E.03909
G1 X87.643 Y60.385 E.03819
G1 X87.611 Y60.027 E.0276
G1 X87.653 Y59.561 E.03593
G1 X87.802 Y59.074 E.0391
G1 X88.049 Y58.637 E.03854
G1 X88.32 Y58.323 E.03185
G1 X88.716 Y58.013 E.03861
G1 X89.08 Y57.829 E.03132
G1 X89.477 Y57.71 E.03182
G1 X89.971 Y57.661 E.03812
G1 X90.389 Y57.703 E.03226
G1 X90.87 Y57.849 E.0386
G1 X91.235 Y58.046 E.03185
G1 X91.623 Y58.365 E.03857
G1 X91.808 Y58.593 E.02254
M204 P1250
G1 X92.403 Y58.622 F9000
G1 E-2.24 F4200
;WIPE_START
G1 F7200
G1 X92.123 Y59.136 E-.34788
G1 X92.258 Y59.62 E-.27845
G1 X92.289 Y60.027 E-.2262
G1 X92.269 Y60.22 E-.10747
;WIPE_END
G1 Z.7 F720
G1 X85.407 Y59.03 F9000
G1 Z.5 F720
G1 E3.2 F2400
M204 P1000
;TYPE:Solid infill
;WIDTH:0.685333
G1 F3900
G1 X89.02 Y55.417 E.39573
G1 X88.142 Y55.417 E.068
G1 X85.684 Y57.875 E.26922
