; generated by PrusaSlicer 2.4.2 on 2022-05-08 at 11:33:58 UTC


;
;

;
;
; 

; external perimeters extrusion width = 0.45mm
; perimeters extrusion width = 0.45mm
; infill extrusion width = 0.45mm
; solid infill extrusion width = 0.45mm
; top infill extrusion width = 0.40mm
; support material extrusion width = 0.35mm
; first layer extrusion width = 0.42mm

M73 P0 R29
M201 X1250 Y1250 Z400 E5000 ; sets maximum accelerations, mm/sec^2
M203 X180 Y180 Z12 E80 ; sets maximum feedrates, mm / sec
M204 P1250 R1250 T1250 ; sets acceleration (P, T) and retract acceleration (R), mm/sec^2
M205 X8.00 Y8.00 Z2.00 E10.00 ; sets the jerk limits, mm/sec
M205 S0 T0 ; sets the minimum extruding and travel feed rate, mm/sec
M107
;TYPE:Custom
G90 ; use absolute coordinates
M83 ; extruder relative mode
M104 S170 ; set extruder temp for bed leveling
M140 S60 ; set bed temp
M109 R170 ; wait for bed leveling temp
M190 S60 ; wait for bed temp
G28 ; home all without mesh bed level
G29 ; mesh bed leveling 
M104 S215 ; set extruder temp
G92 E0.0
G1 Y-2.0 X179 F2400
G1 Z3 F720
M109 S215 ; wait for extruder temp

; intro line
G1 X170 F1000
G1 Z0.2 F720
G1 X110.0 E8.0 F900
G1 X40.0 E10.0 F700
G92 E0.0

M221 S95 ; set flow
G21 ; set units to millimeters
G90 ; use absolute coordinates
M83 ; use relative distances for extrusion
M900 K0.2 ; Filament gcode LA 1.5
; ; Filament gcode LA 1.0
M107
;LAYER_CHANGE
;Z:0.2
;HEIGHT:0.2
;BEFORE_LAYER_CHANGE
G92 E0.0
;0.2


G1 E-3.2 F4200
G1 Z.2 F9000
;AFTER_LAYER_CHANGE
;0.2
G1 Z.4
G1 X61.581 Y72.936
G1 Z.2
G1 E3.2 F2400
M204 S800
;TYPE:Skirt/Brim
;WIDTH:0.42
G1 F1200
G1 X62.236 Y72.409 E.02636
G1 X63.078 Y72.037 E.02885
G1 X64.009 Y71.906 E.02949
G1 X116.04 Y71.906 E1.6314
G1 X116.662 Y71.973 E.01962
M73 P1 R29
G1 X117.223 Y72.139 E.01832
G1 X117.757 Y72.405 E.01872
G1 X118.312 Y72.83 E.02191
G1 X118.725 Y73.3 E.01962
G1 X119.03 Y73.81 E.01865
G1 X119.265 Y74.457 E.02157
G1 X119.362 Y75.077 E.01969
G1 X119.363 Y104.895 E.93492
G1 X119.231 Y105.669 E.02463
G1 X118.89 Y106.449 E.02668
G1 X118.428 Y107.054 E.02387
G1 X117.762 Y107.593 E.02686
G1 X116.915 Y107.965 E.02901
G1 X115.991 Y108.094 E.02924
G1 X63.957 Y108.094 E1.63148
G1 X63.108 Y107.972 E.0269
G1 X62.376 Y107.673 E.02481
G1 X61.666 Y107.149 E.02764
G1 X61.135 Y106.49 E.02654
G1 X60.767 Y105.662 E.02842
G1 X60.633 Y104.773 E.02819
G1 X60.633 Y75.194 E.92743
G1 X60.762 Y74.354 E.02663
G1 X61.106 Y73.558 E.0272
G1 X61.545 Y72.984 E.02266
M204 S1250
; printing object sucker_arm_bottom_servo_fastening.stl id:0 copy 0
G1 E-2.24 F4200
;WIPE_START
G1 F7200
G1 X62.236 Y72.409 E-.49823
G1 X62.919 Y72.107 E-.41377
;WIPE_END
G1 E-.048 F4200
G1 Z.4 F9000
G1 X112.019 Y87.858
G1 Z.2
G1 E3.2 F2400
M204 S800
;TYPE:External perimeter
G1 F1200
G1 X112.195 Y87.479 E.0131
G1 X112.37 Y87.217 E.00989
G1 X112.51 Y87.051 E.0068
G1 X112.815 Y86.772 E.01296
G1 X113.077 Y86.597 E.00989
G1 X113.27 Y86.496 E.00681
G1 X113.658 Y86.355 E.01296
G1 X113.967 Y86.293 E.00988
G1 X114.183 Y86.274 E.00681
G1 X114.596 Y86.293 E.01296
G1 X114.904 Y86.354 E.00984
G1 X115.113 Y86.42 E.00688
G1 X115.491 Y86.599 E.01312
G1 X115.831 Y86.852 E.01328
G1 X116.054 Y87.097 E.01039
G1 X116.255 Y87.47 E.01329
G1 X116.344 Y87.764 E.00963
G1 X116.444 Y88.213 E.01444
G1 X116.493 Y88.589 E.01187
G1 X116.462 Y89.061 E.01483
G1 X116.293 Y89.796 E.02365
G1 X116.116 Y90.176 E.01316
G1 X115.978 Y90.36 E.0072
G1 X115.67 Y90.65 E.01325
G1 X115.304 Y90.867 E.01335
G1 X114.912 Y91.01 E.01307
G1 X114.7 Y91.057 E.00681
G1 X114.387 Y91.091 E.00988
G1 X113.972 Y91.073 E.01303
G1 X113.662 Y91.012 E.00989
G1 X113.455 Y90.946 E.00681
G1 X113.081 Y90.772 E.01296
G1 X112.818 Y90.596 E.00989
G1 X112.652 Y90.457 E.0068
G1 X112.373 Y90.152 E.01296
G1 X112.198 Y89.89 E.00989
G1 X112.097 Y89.697 E.00681
G1 X111.957 Y89.311 E.01289
G1 X111.91 Y89.099 E.00681
G1 X111.876 Y88.79 E.00974
G1 X111.876 Y88.575 E.00674
G1 X111.91 Y88.262 E.00989
G1 X112.003 Y87.916 E.01122
M204 S1250
G1 X111.764 Y87.55 F9000
G1 E-2.24 F4200
;WIPE_START
G1 F7200
G1 X112.195 Y87.479 E-.26442
G1 X112.37 Y87.217 E-.17484
G1 X112.51 Y87.051 E-.12024
G1 X112.815 Y86.772 E-.22902
G1 X113 Y86.648 E-.12348
;WIPE_END
G1 E-.048 F4200
G1 Z.4 F9000
G1 X113.967 Y81.073
G1 Z.2
G1 E3.2 F2400
M204 S800
G1 F1200
G1 X113.466 Y80.95 E.01617
G1 X113.263 Y80.866 E.00688
G1 X112.987 Y80.715 E.00989
G1 X112.655 Y80.46 E.0131
G1 X112.373 Y80.152 E.0131
G1 X112.198 Y79.89 E.00989
G1 X112.097 Y79.697 E.00681
G1 X111.957 Y79.311 E.01289
G1 X111.91 Y79.099 E.0068
G1 X111.876 Y78.79 E.00974
G1 X111.876 Y78.575 E.00674
G1 X111.91 Y78.262 E.00988
G1 X112.019 Y77.858 E.0131
G1 X112.195 Y77.479 E.0131
G1 X112.37 Y77.217 E.00989
G1 X112.51 Y77.051 E.00681
G1 X112.815 Y76.772 E.01296
G1 X113.077 Y76.597 E.00989
G1 X113.269 Y76.496 E.00681
G1 X113.658 Y76.355 E.01296
G1 X113.967 Y76.293 E.00988
G1 X114.183 Y76.274 E.00681
G1 X114.596 Y76.293 E.01296
G1 X114.906 Y76.354 E.00989
G1 X115.113 Y76.42 E.00683
G1 X115.491 Y76.599 E.01312
G1 X115.834 Y76.854 E.0134
G1 X116.111 Y77.182 E.01346
G1 X116.256 Y77.473 E.01022
G1 X116.344 Y77.764 E.00951
G1 X116.444 Y78.214 E.01444
G1 X116.493 Y78.589 E.01186
G1 X116.462 Y79.06 E.01481
G1 X116.32 Y79.7 E.02056
G1 X116.166 Y80.083 E.01294
G1 X115.981 Y80.356 E.01035
G1 X115.67 Y80.65 E.01341
G1 X115.308 Y80.864 E.0132
G1 X115.106 Y80.948 E.00684
G1 X114.804 Y81.037 E.00989
G1 X114.389 Y81.091 E.0131
G1 X114.027 Y81.076 E.01137
M204 S1250
G1 X113.719 Y81.387 F9000
G1 E-2.24 F4200
;WIPE_START
G1 F7200
G1 X113.466 Y80.95 E-.31853
G1 X113.263 Y80.866 E-.12158
G1 X112.987 Y80.715 E-.17471
G1 X112.655 Y80.46 E-.23161
G1 X112.575 Y80.373 E-.06557
;WIPE_END
G1 E-.048 F4200
G1 Z.4 F9000
G1 X106.337 Y98.916
G1 Z.2
G1 E3.2 F2400
M204 S800
;TYPE:Perimeter
G1 F1200
G1 X106.837 Y99.18 E.01773
G1 X107.168 Y99.458 E.01353
G1 X107.445 Y99.789 E.01353
G1 X107.695 Y100.243 E.01626
G1 X107.826 Y100.661 E.01374
G1 X107.884 Y101.183 E.01646
G1 X107.826 Y101.705 E.01646
G1 X107.695 Y102.123 E.01374
G1 X107.445 Y102.577 E.01626
G1 X107.168 Y102.908 E.01353
G1 X106.837 Y103.185 E.01354
G1 X106.383 Y103.435 E.01626
G1 X105.965 Y103.566 E.01374
G1 X105.444 Y103.623 E.01644
G1 X104.932 Y103.568 E.01614
G1 X104.504 Y103.435 E.01404
G1 X104.049 Y103.185 E.01628
G1 X103.718 Y102.908 E.01354
G1 X103.441 Y102.577 E.01353
G1 X103.191 Y102.123 E.01626
G1 X103.059 Y101.705 E.01374
G1 X103.002 Y101.183 E.01646
G1 X103.059 Y100.661 E.01646
G1 X103.191 Y100.243 E.01374
G1 X103.441 Y99.789 E.01626
G1 X103.718 Y99.458 E.01353
G1 X104.049 Y99.18 E.01354
G1 X104.503 Y98.931 E.01626
G1 X104.921 Y98.8 E.01372
G1 X105.426 Y98.743 E.01594
G1 X105.872 Y98.781 E.01404
G1 X106.28 Y98.9 E.01331
M204 S1250
G1 X106.232 Y99.278 F9000
M204 S800
;TYPE:External perimeter
G1 F1200
G1 X106.623 Y99.493 E.014
G1 X106.9 Y99.726 E.01134
G1 X107.133 Y100.002 E.01134
G1 X107.346 Y100.392 E.01393
G1 X107.456 Y100.739 E.01141
G1 X107.504 Y101.183 E.014
G1 X107.456 Y101.627 E.014
G1 X107.346 Y101.974 E.01141
G1 X107.133 Y102.363 E.01393
G1 X106.9 Y102.64 E.01134
G1 X106.623 Y102.872 E.01134
G1 X106.234 Y103.086 E.01393
G1 X105.887 Y103.196 E.01141
G1 X105.443 Y103.244 E.01399
G1 X105.009 Y103.197 E.0137
G1 X104.652 Y103.086 E.0117
G1 X104.263 Y102.872 E.01394
G1 X103.986 Y102.64 E.01134
G1 X103.753 Y102.363 E.01134
G1 X103.54 Y101.974 E.01393
G1 X103.43 Y101.627 E.01141
G1 X103.382 Y101.183 E.014
G1 X103.43 Y100.739 E.014
G1 X103.54 Y100.392 E.01141
G1 X103.753 Y100.002 E.01393
G1 X103.986 Y99.726 E.01134
G1 X104.263 Y99.493 E.01134
G1 X104.652 Y99.28 E.01393
G1 X104.999 Y99.17 E.0114
G1 X105.431 Y99.122 E.01363
G1 X105.803 Y99.153 E.0117
G1 X106.174 Y99.262 E.01213
M204 S1250
G1 X106.551 Y99.037 F9000
G1 E-2.24 F4200
;WIPE_START
G1 F7200
G1 X106.623 Y99.493 E-.27999
G1 X106.9 Y99.726 E-.20036
G1 X107.133 Y100.002 E-.20035
G1 X107.333 Y100.368 E-.2313
;WIPE_END
G1 E-.048 F4200
G1 Z.4 F9000
G1 X77.879 Y101.142
G1 Z.2
G1 E3.2 F2400
M204 S800
;TYPE:Perimeter
G1 F1200
G1 X77.826 Y101.705 E.01772
G1 X77.695 Y102.122 E.01372
G1 X77.451 Y102.568 E.01594
G1 X77.168 Y102.907 E.01384
G1 X76.837 Y103.185 E.01356
G1 X76.383 Y103.435 E.01626
G1 X75.965 Y103.566 E.01374
G1 X75.444 Y103.623 E.01644
G1 X74.932 Y103.568 E.01614
G1 X74.504 Y103.435 E.01404
G1 X74.049 Y103.185 E.01628
G1 X73.718 Y102.908 E.01354
G1 X73.441 Y102.577 E.01353
G1 X73.191 Y102.123 E.01626
G1 X73.059 Y101.705 E.01374
G1 X73.002 Y101.183 E.01646
G1 X73.059 Y100.661 E.01646
G1 X73.191 Y100.244 E.01372
G1 X73.435 Y99.797 E.01594
G1 X73.717 Y99.458 E.01384
G1 X74.049 Y99.18 E.01356
G1 X74.503 Y98.931 E.01626
G1 X74.921 Y98.8 E.01372
G1 X75.426 Y98.743 E.01594
G1 X75.872 Y98.781 E.01404
G1 X76.377 Y98.928 E.01649
G1 X76.837 Y99.18 E.01646
G1 X77.168 Y99.458 E.01354
G1 X77.445 Y99.789 E.01353
G1 X77.695 Y100.243 E.01626
G1 X77.826 Y100.661 E.01374
G1 X77.873 Y101.082 E.01328
M204 S1250
G1 X77.504 Y101.183 F9000
M204 S800
;TYPE:External perimeter
G1 F1200
G1 X77.456 Y101.627 E.014
G1 X77.346 Y101.974 E.01141
G1 X77.138 Y102.355 E.01363
G1 X76.9 Y102.64 E.01163
G1 X76.623 Y102.872 E.01135
G1 X76.234 Y103.086 E.01393
G1 X75.887 Y103.196 E.01141
G1 X75.443 Y103.244 E.01399
G1 X75.009 Y103.197 E.0137
G1 X74.652 Y103.086 E.0117
G1 X74.263 Y102.872 E.01394
G1 X73.986 Y102.64 E.01134
G1 X73.753 Y102.363 E.01134
G1 X73.54 Y101.974 E.01393
G1 X73.43 Y101.627 E.01141
G1 X73.382 Y101.183 E.014
G1 X73.43 Y100.739 E.014
G1 X73.54 Y100.392 E.0114
G1 X73.748 Y100.011 E.01363
G1 X73.986 Y99.726 E.01163
G1 X74.263 Y99.493 E.01135
G1 X74.652 Y99.28 E.01393
G1 X74.999 Y99.17 E.0114
G1 X75.431 Y99.122 E.01363
G1 X75.803 Y99.153 E.0117
G1 X76.232 Y99.278 E.01401
G1 X76.623 Y99.493 E.014
G1 X76.9 Y99.726 E.01134
G1 X77.133 Y100.003 E.01134
G1 X77.346 Y100.392 E.01393
G1 X77.456 Y100.739 E.01141
G1 X77.498 Y101.123 E.01212
M204 S1250
G1 X77.849 Y101.385 F9000
G1 E-2.24 F4200
;WIPE_START
G1 F7200
G1 X77.456 Y101.627 E-.27996
G1 X77.346 Y101.974 E-.20158
G1 X77.138 Y102.355 E-.2409
G1 X76.919 Y102.618 E-.18957
;WIPE_END
G1 E-.048 F4200
G1 Z.4 F9000
G1 X67.134 Y86.27
G1 Z.2
G1 E3.2 F2400
M204 S800
;TYPE:Perimeter
G1 F1200
G1 X66.699 Y86.067 E.01505
G1 X66.447 Y85.988 E.00828
G1 X66.091 Y85.917 E.01138
G1 X65.625 Y85.897 E.01463
G1 X65.364 Y85.92 E.00823
G1 X65.006 Y85.991 E.01144
G1 X64.565 Y86.152 E.01472
G1 X64.33 Y86.277 E.00835
G1 X64.016 Y86.493 E.01195
G1 X63.774 Y86.745 E.01097
G1 X63.796 Y85.264 E.04645
G1 X63.774 Y80.617 E.1457
G1 X63.925 Y80.793 E.00728
G1 X64.333 Y81.093 E.01585
G1 X64.767 Y81.298 E.01504
G1 X65.018 Y81.377 E.00828
G1 X65.376 Y81.449 E.01143
G1 X65.856 Y81.47 E.01505
G1 X66.331 Y81.407 E.01504
G1 X66.681 Y81.305 E.01144
G1 X66.918 Y81.207 E.00803
G1 X67.226 Y81.038 E.01103
G1 X67.441 Y80.887 E.00823
G1 X67.79 Y80.567 E.01484
G1 X68.079 Y80.192 E.01484
G1 X68.21 Y79.964 E.00823
G1 X68.359 Y79.625 E.01164
G1 X68.499 Y79.053 E.01845
G1 X68.52 Y78.559 E.0155
G1 X68.458 Y78.085 E.01499
G1 X68.356 Y77.735 E.01143
G1 X68.258 Y77.499 E.00803
G1 X68.089 Y77.19 E.01103
G1 X67.938 Y76.975 E.00823
G1 X67.614 Y76.621 E.01504
G1 X67.134 Y76.27 E.01864
G1 X66.699 Y76.067 E.01505
G1 X66.449 Y75.988 E.00823
G1 X66.091 Y75.917 E.01143
G1 X65.625 Y75.897 E.01464
G1 X65.364 Y75.92 E.00823
G1 X65.006 Y75.991 E.01144
G1 X64.565 Y76.152 E.01472
G1 X64.33 Y76.277 E.00835
G1 X64.016 Y76.493 E.01195
G1 X63.773 Y76.746 E.011
G1 X63.806 Y75.254 E.04681
G1 X63.87 Y75.131 E.00434
G1 X63.989 Y75.077 E.0041
G1 X68.979 Y75.071 E.15648
G1 X69.116 Y75.102 E.0044
G1 X69.215 Y75.243 E.00541
G1 X69.222 Y94.47 E.60284
G1 X110.796 Y94.47 E1.30353
G1 X110.796 Y75.33 E.60013
M73 P2 R28
G1 X110.813 Y75.221 E.00345
G1 X110.884 Y75.119 E.00388
G1 X111.004 Y75.073 E.00404
G1 X115.975 Y75.071 E.15586
G1 X116.053 Y75.085 E.00251
G1 X116.139 Y75.135 E.00311
G1 X116.199 Y75.255 E.00421
G1 X116.229 Y76.737 E.04646
G1 X116.094 Y76.577 E.00655
G1 X115.687 Y76.274 E.01593
G1 X115.252 Y76.068 E.01509
G1 X115 Y75.988 E.00829
G1 X114.642 Y75.917 E.01144
G1 X114.175 Y75.897 E.01464
G1 X113.914 Y75.92 E.00823
G1 X113.556 Y75.991 E.01143
G1 X113.117 Y76.15 E.01464
G1 X112.884 Y76.272 E.00823
G1 X112.581 Y76.474 E.01144
G1 X112.237 Y76.79 E.01463
G1 X112.068 Y76.991 E.00823
G1 X111.866 Y77.294 E.01144
G1 X111.663 Y77.729 E.01504
G1 X111.539 Y78.192 E.01504
G1 X111.499 Y78.555 E.01143
G1 X111.499 Y78.811 E.00803
G1 X111.537 Y79.161 E.01103
G1 X111.594 Y79.417 E.00823
G1 X111.752 Y79.849 E.01444
G1 X111.873 Y80.082 E.00823
G1 X112.075 Y80.386 E.01144
G1 X112.4 Y80.739 E.01504
G1 X112.78 Y81.031 E.01504
G1 X113.1 Y81.207 E.01143
G1 X113.348 Y81.31 E.00843
G1 X113.913 Y81.448 E.01824
G1 X114.406 Y81.47 E.01545
G1 X114.882 Y81.407 E.01505
G1 X115.232 Y81.304 E.01145
G1 X115.477 Y81.202 E.00833
G1 X115.898 Y80.953 E.01534
G1 X116.227 Y80.643 E.01416
G1 X116.206 Y81.262 E.01943
G1 X116.208 Y86.271 E.15703
G1 X116.227 Y86.727 E.01431
G1 X116.086 Y86.571 E.00657
G1 X115.687 Y86.274 E.01561
G1 X115.252 Y86.068 E.01509
G1 X114.998 Y85.988 E.00834
G1 X114.642 Y85.917 E.01139
G1 X114.175 Y85.897 E.01464
G1 X113.914 Y85.92 E.00823
G1 X113.556 Y85.991 E.01143
G1 X113.117 Y86.15 E.01464
G1 X112.884 Y86.272 E.00823
G1 X112.581 Y86.474 E.01144
G1 X112.237 Y86.79 E.01463
G1 X112.068 Y86.99 E.00822
G1 X111.866 Y87.294 E.01145
G1 X111.663 Y87.729 E.01504
G1 X111.539 Y88.192 E.01504
G1 X111.499 Y88.555 E.01144
G1 X111.499 Y88.811 E.00803
G1 X111.537 Y89.161 E.01103
G1 X111.594 Y89.417 E.00823
G1 X111.752 Y89.85 E.01444
G1 X111.873 Y90.082 E.00823
G1 X112.075 Y90.386 E.01144
G1 X112.391 Y90.73 E.01464
G1 X112.592 Y90.899 E.00822
G1 X112.895 Y91.101 E.01144
G1 X113.318 Y91.299 E.01464
G1 X113.569 Y91.377 E.00823
G1 X113.926 Y91.449 E.01144
G1 X114.399 Y91.469 E.01484
G1 X114.762 Y91.43 E.01144
G1 X115.018 Y91.373 E.00824
G1 X115.466 Y91.209 E.01495
G1 X115.898 Y90.953 E.01575
G1 X116.227 Y90.643 E.01415
G1 X116.206 Y91.239 E.0187
G1 X116.192 Y104.765 E.42408
G1 X116.131 Y104.87 E.00383
G1 X116.03 Y104.922 E.00356
G1 X115.957 Y104.93 E.00231
G1 X63.961 Y104.919 E1.6303
G1 X63.851 Y104.854 E.004
G1 X63.797 Y104.707 E.00491
G1 X63.794 Y91.24 E.42224
G1 X63.774 Y90.617 E.01954
G1 X63.925 Y90.793 E.00729
G1 X64.333 Y91.093 E.01585
G1 X64.778 Y91.303 E.01545
G1 X65.243 Y91.428 E.01509
G1 X65.606 Y91.468 E.01144
G1 X65.868 Y91.468 E.00823
G1 X66.331 Y91.407 E.01464
G1 X66.681 Y91.305 E.01143
G1 X66.912 Y91.209 E.00783
G1 X67.133 Y91.094 E.00783
G1 X67.437 Y90.891 E.01143
G1 X67.79 Y90.567 E.01504
G1 X68.082 Y90.187 E.01505
G1 X68.258 Y89.867 E.01144
G1 X68.356 Y89.63 E.00802
G1 X68.454 Y89.293 E.01103
G1 X68.5 Y89.034 E.00823
G1 X68.521 Y88.561 E.01484
G1 X68.458 Y88.085 E.01505
G1 X68.356 Y87.735 E.01144
G1 X68.258 Y87.499 E.00803
G1 X68.089 Y87.19 E.01103
G1 X67.938 Y86.975 E.00823
G1 X67.614 Y86.622 E.01504
G1 X67.183 Y86.305 E.01676
M204 S1250
G1 E-2.24 F4200
;WIPE_START
G1 F7200
G1 X66.699 Y86.067 E-.29867
G1 X66.447 Y85.988 E-.14636
G1 X66.091 Y85.917 E-.20116
G1 X65.625 Y85.897 E-.25864
G1 X65.612 Y85.898 E-.00717
;WIPE_END
G1 E-.048 F4200
G1 Z.4 F9000
G1 X66.253 Y81.037
G1 Z.2
G1 E3.2 F2400
M204 S800
;TYPE:External perimeter
G1 F1200
G1 X65.839 Y81.091 E.01311
G1 X65.421 Y81.073 E.01311
G1 X65.112 Y81.012 E.00988
G1 X64.905 Y80.946 E.00683
G1 X64.527 Y80.768 E.0131
G1 X64.183 Y80.515 E.01337
G1 X63.901 Y80.187 E.01356
G1 X63.718 Y79.799 E.01344
G1 X63.557 Y79.064 E.0236
G1 X63.525 Y78.777 E.00906
G1 X63.542 Y78.396 E.01195
G1 X63.689 Y77.665 E.02338
G1 X63.801 Y77.371 E.00987
G1 X63.966 Y77.09 E.01023
G1 X64.261 Y76.781 E.01339
G1 X64.526 Y76.6 E.01006
G1 X64.719 Y76.497 E.00685
G1 X65.108 Y76.355 E.01299
G1 X65.417 Y76.293 E.00989
G1 X65.633 Y76.274 E.00681
G1 X66.046 Y76.293 E.01296
G1 X66.355 Y76.354 E.00988
G1 X66.562 Y76.419 E.00681
G1 X66.941 Y76.596 E.01311
G1 X67.361 Y76.904 E.01631
G1 X67.643 Y77.212 E.0131
G1 X67.768 Y77.39 E.00681
G1 X67.917 Y77.662 E.00974
G1 X68 Y77.861 E.00674
G1 X68.088 Y78.163 E.00988
G1 X68.142 Y78.576 E.01306
G1 X68.124 Y79 E.0133
G1 X68.001 Y79.503 E.01625
G1 X67.873 Y79.794 E.00996
G1 X67.764 Y79.982 E.00681
G1 X67.511 Y80.312 E.01303
G1 X67.205 Y80.592 E.01303
G1 X67.027 Y80.717 E.00681
