; generated by PrusaSlicer 2.4.2 on 2022-05-08 at 11:59:25 UTC


;
;

;
;
; 

; external perimeters extrusion width = 0.45mm
; perimeters extrusion width = 0.45mm
; infill extrusion width = 0.45mm
; solid infill extrusion width = 0.45mm
; top infill extrusion width = 0.40mm
; support material extrusion width = 0.35mm
; first layer extrusion width = 0.42mm

M73 P0 R6
M201 X1250 Y1250 Z400 E5000 ; sets maximum accelerations, mm/sec^2
M203 X180 Y180 Z12 E80 ; sets maximum feedrates, mm / sec
M204 P1250 R1250 T1250 ; sets acceleration (P, T) and retract acceleration (R), mm/sec^2
M205 X8.00 Y8.00 Z2.00 E10.00 ; sets the jerk limits, mm/sec
M205 S0 T0 ; sets the minimum extruding and travel feed rate, mm/sec
M107
;TYPE:Custom
G90 ; use absolute coordinates
M83 ; extruder relative mode
M104 S170 ; set extruder temp for bed leveling
M140 S60 ; set bed temp
M109 R170 ; wait for bed leveling temp
M190 S60 ; wait for bed temp
G28 ; home all without mesh bed level
G29 ; mesh bed leveling 
M104 S215 ; set extruder temp
G92 E0.0
G1 Y-2.0 X179 F2400
G1 Z3 F720
M109 S215 ; wait for extruder temp

; intro line
M73 P1 R6
G1 X170 F1000
G1 Z0.2 F720
G1 X110.0 E8.0 F900
G1 X40.0 E10.0 F700
G92 E0.0

M221 S95 ; set flow
G21 ; set units to millimeters
G90 ; use absolute coordinates
M83 ; use relative distances for extrusion
M900 K0.2 ; Filament gcode LA 1.5
; ; Filament gcode LA 1.0
M107
;LAYER_CHANGE
;Z:0.2
;HEIGHT:0.2
;BEFORE_LAYER_CHANGE
G92 E0.0
;0.2


M73 P2 R6
G1 E-3.2 F4200
M73 P4 R6
G1 Z.2 F9000
;AFTER_LAYER_CHANGE
;0.2
G1 Z.4
G1 X79.971 Y85.777
G1 Z.2
G1 E3.2 F2400
M204 S800
;TYPE:Skirt/Brim
;WIDTH:0.42
G1 F1200
G1 X81.705 Y84.331 E.07082
G1 X93.489 Y80.347 E.39001
G1 X95.055 Y80.233 E.04923
G1 X96.952 Y81.375 E.06944
G1 X98.6 Y83.505 E.08444
G1 X99.491 Y85.087 E.05691
G1 X100.128 Y86.93 E.06115
G1 X100.402 Y88.725 E.05694
G1 X100.421 Y89.635 E.02852
G1 X100.321 Y90.855 E.0384
G1 X99.868 Y92.754 E.0612
G1 X99.538 Y93.6 E.02849
G1 X98.978 Y94.69 E.03842
G1 X97.834 Y96.271 E.06118
G1 X97.205 Y96.927 E.02849
G1 X96.272 Y97.721 E.03841
G1 X94.61 Y98.744 E.06121
G1 X93.48 Y99.221 E.03843
G1 X92.611 Y99.486 E.02849
G1 X90.685 Y99.796 E.06116
G1 X89.776 Y99.816 E.02851
G1 X88.554 Y99.718 E.03843
G1 X86.657 Y99.268 E.06115
G1 X85.809 Y98.939 E.02852
G1 X84.718 Y98.381 E.03842
G1 X83.135 Y97.239 E.06119
G1 X81.965 Y96.035 E.05264
G1 X81.096 Y94.814 E.047
G1 X80.341 Y93.314 E.05264
M73 P5 R6
G1 X79.913 Y92.021 E.04271
G1 X79.6 Y90.095 E.06118
G1 X79.577 Y87.297 E.08773
G1 X79.955 Y85.835 E.04735
M204 S1250
G1 X80.33 Y85.939 F9000
M204 S800
G1 F1200
G1 X80.347 Y85.88 E.00193
G1 X81.826 Y84.688 E.05956
G1 X93.61 Y80.704 E.39001
G1 X95.078 Y80.622 E.04612
G1 X96.655 Y81.609 E.05834
G1 X98.292 Y83.723 E.08384
G1 X99.15 Y85.248 E.05486
G1 X99.76 Y87.014 E.05859
G1 X100.025 Y88.744 E.05488
G1 X100.044 Y89.62 E.02748
G1 X99.947 Y90.808 E.03738
G1 X99.55 Y92.513 E.05488
G1 X98.808 Y94.228 E.05858
G1 X98.173 Y95.238 E.0374
G1 X97.633 Y95.928 E.02748
G1 X96.291 Y97.228 E.05857
G1 X95.585 Y97.746 E.02748
G1 X94.555 Y98.35 E.03741
G1 X92.818 Y99.038 E.05861
G1 X91.655 Y99.304 E.03741
G1 X90.785 Y99.411 E.02747
G1 X88.916 Y99.383 E.05859
G1 X87.74 Y99.184 E.03741
G1 X86.896 Y98.95 E.02747
G1 X85.18 Y98.21 E.05858
G1 X84.431 Y97.757 E.02746
G1 X83.479 Y97.037 E.03741
G1 X82.458 Y96.032 E.04491
G1 X81.484 Y94.725 E.0511
G1 X80.813 Y93.46 E.04493
G1 X80.361 Y92.227 E.04117
G1 X80.03 Y90.631 E.05111
G1 X79.954 Y89.297 E.04188
G1 X79.954 Y87.297 E.06271
G1 X80.314 Y85.997 E.0423
M204 S1250
G1 X80.687 Y86.109 F9000
M204 S800
G1 F1200
G1 X80.723 Y85.99 E.00388
G1 X81.947 Y85.045 E.04848
G1 X93.73 Y81.061 E.39001
G1 X95.094 Y81.013 E.04278
M73 P6 R6
G1 X96.359 Y81.842 E.04742
G1 X97.984 Y83.941 E.08323
G1 X98.674 Y85.121 E.04286
G1 X99.123 Y86.191 E.03638
G1 X99.367 Y86.998 E.02643
G1 X99.641 Y88.659 E.0528
G1 X99.612 Y90.446 E.05602
G1 X99.417 Y91.589 E.03638
G1 X99.19 Y92.402 E.02645
G1 X98.48 Y94.041 E.05601
G1 X97.863 Y95.023 E.03637
G1 X97.342 Y95.687 E.02645
G1 X96.06 Y96.93 E.05601
G1 X95.38 Y97.43 E.02645
G1 X94.379 Y98.016 E.03638
G1 X92.718 Y98.675 E.05604
G1 X91.587 Y98.934 E.03638
G1 X90.75 Y99.036 E.02644
G1 X88.963 Y99.009 E.05602
G1 X87.835 Y98.819 E.03588
G1 X87.007 Y98.59 E.02694
G1 X85.366 Y97.882 E.05601
G1 X84.645 Y97.446 E.02643
M73 P6 R5
G1 X83.719 Y96.747 E.03638
G1 X82.745 Y95.788 E.04286
G1 X81.801 Y94.52 E.04956
G1 X81.16 Y93.313 E.04287
G1 X80.725 Y92.126 E.03962
G1 X80.403 Y90.579 E.04956
G1 X80.331 Y89.297 E.04024
G1 X80.331 Y87.297 E.06271
G1 X80.67 Y86.166 E.03702
M204 S1250
; printing object sucker_arm_top_fastening_2.stl id:0 copy 0
G1 E-2.24 F4200
;WIPE_START
G1 F7200
G1 X80.723 Y85.99 E-.10186
G1 X81.88 Y85.097 E-.81014
;WIPE_END
G1 E-.048 F4200
G1 Z.4 F9000
G1 X89.419 Y92.034
G1 Z.2
G1 E3.2 F2400
M204 S800
;TYPE:Perimeter
G1 F1200
G1 X89.699 Y91.684 E.01406
G1 X90.015 Y91.419 E.01292
G1 X90.441 Y91.186 E.01523
G1 X90.833 Y91.062 E.0129
G1 X91.308 Y91.009 E.01496
G1 X91.726 Y91.045 E.01318
G1 X92.2 Y91.183 E.01546
G1 X92.631 Y91.419 E.01543
G1 X92.942 Y91.68 E.01272
G1 X93.203 Y91.991 E.01271
G1 X93.436 Y92.417 E.01523
G1 X93.56 Y92.81 E.01292
G1 X93.613 Y93.292 E.01523
G1 X93.577 Y93.703 E.01292
G1 X93.439 Y94.175 E.01544
G1 X93.203 Y94.607 E.01543
G1 X92.942 Y94.918 E.01271
G1 X92.631 Y95.178 E.01272
G1 X92.206 Y95.412 E.01523
G1 X91.812 Y95.536 E.01292
G1 X91.323 Y95.589 E.01543
G1 X90.834 Y95.536 E.01543
G1 X90.441 Y95.412 E.01292
G1 X90.015 Y95.178 E.01523
G1 X89.699 Y94.913 E.01292
G1 X89.395 Y94.535 E.01523
G1 X89.208 Y94.175 E.01271
G1 X89.086 Y93.788 E.01272
G1 X89.033 Y93.299 E.01544
M73 P7 R5
G1 X89.086 Y92.81 E.01543
G1 X89.208 Y92.423 E.01272
G1 X89.385 Y92.083 E.012
M204 S1250
G1 X89.713 Y92.27 F9000
M204 S800
;TYPE:External perimeter
G1 F1200
G1 X89.97 Y91.949 E.0129
G1 X90.229 Y91.732 E.01059
G1 X90.59 Y91.534 E.0129
G1 X90.912 Y91.433 E.01058
G1 X91.313 Y91.388 E.01265
G1 X91.657 Y91.417 E.01084
G1 X92.055 Y91.533 E.01299
G1 X92.417 Y91.732 E.01297
G1 X92.674 Y91.948 E.01052
G1 X92.89 Y92.205 E.01051
G1 X93.088 Y92.565 E.0129
G1 X93.189 Y92.887 E.01059
G1 X93.234 Y93.296 E.0129
G1 X93.205 Y93.633 E.01059
G1 X93.089 Y94.03 E.01298
G1 X92.89 Y94.393 E.01297
G1 X92.674 Y94.65 E.01051
G1 X92.417 Y94.866 E.01052
G1 X92.057 Y95.064 E.0129
G1 X91.735 Y95.165 E.01059
G1 X91.323 Y95.21 E.01297
G1 X90.912 Y95.165 E.01297
G1 X90.59 Y95.064 E.01059
G1 X90.229 Y94.866 E.0129
G1 X89.97 Y94.648 E.01059
G1 X89.713 Y94.328 E.0129
G1 X89.558 Y94.03 E.01051
G1 X89.457 Y93.71 E.01052
G1 X89.412 Y93.299 E.01298
G1 X89.457 Y92.887 E.01297
G1 X89.558 Y92.568 E.01052
G1 X89.685 Y92.323 E.00864
M204 S1250
G1 X89.533 Y91.913 F9000
G1 E-2.24 F4200
;WIPE_START
G1 F7200
G1 X89.97 Y91.949 E-.26066
G1 X90.229 Y91.732 E-.18722
G1 X90.59 Y91.534 E-.22801
G1 X90.912 Y91.433 E-.18706
G1 X91 Y91.423 E-.04904
;WIPE_END
G1 E-.048 F4200
G1 Z.4 F9000
G1 X89.454 Y88.175
G1 Z.2
G1 E3.2 F2400
M204 S800
;TYPE:Perimeter
G1 F1200
G1 X89.587 Y88.177 E.00419
G1 X94.36 Y84.418 E.19049
G1 X95.394 Y85.759 E.05308
G1 X95.688 Y86.238 E.01761
G1 X95.941 Y86.745 E.01777
G1 X96.151 Y87.278 E.01798
G1 X96.373 Y88.092 E.02645
G1 X96.463 Y88.652 E.01778
G1 X96.503 Y89.218 E.01778
G1 X96.493 Y89.785 E.01778
G1 X96.435 Y90.349 E.01778
G1 X96.258 Y91.174 E.02646
G1 X96.076 Y91.718 E.01797
G1 X95.851 Y92.238 E.01778
G1 X95.581 Y92.737 E.01778
G1 X95.102 Y93.431 E.02645
G1 X94.727 Y93.865 E.01798
G1 X94.32 Y94.259 E.01778
G1 X93.875 Y94.621 E.01798
G1 X93.166 Y95.078 E.02646
G1 X92.659 Y95.332 E.01777
G1 X91.868 Y95.627 E.02646
G1 X91.312 Y95.767 E.01798
G1 X90.752 Y95.857 E.01778
G1 X90.187 Y95.898 E.01778
G1 X89.62 Y95.889 E.01778
G1 X88.783 Y95.786 E.02646
G1 X88.225 Y95.653 E.01798
G1 X87.68 Y95.473 E.01798
G1 X86.913 Y95.121 E.02645
G1 X86.426 Y94.831 E.01778
G1 X85.967 Y94.499 E.01778
G1 X85.538 Y94.128 E.01778
G1 X85.138 Y93.717 E.01798
G1 X84.788 Y93.288 E.01737
G1 X84.466 Y92.813 E.01798
G1 X84.067 Y92.063 E.02666
G1 X83.77 Y91.266 E.02666
G1 X83.631 Y90.716 E.01777
G1 X83.539 Y90.15 E.01798
G1 X83.495 Y89.287 E.02709
G1 X83.495 Y88.095 E.03739
G1 X89.394 Y88.174 E.18496
M204 S1250
G1 X89.459 Y87.798 F9000
M204 S800
;TYPE:External perimeter
G1 F1200
G1 X94.423 Y83.889 E.19813
G1 X95.705 Y85.545 E.06566
G1 X96.017 Y86.055 E.01875
G1 X96.285 Y86.591 E.01881
G1 X96.507 Y87.151 E.01888
G1 X96.597 Y87.433 E.00926
G1 X96.743 Y88.017 E.01888
G1 X96.837 Y88.609 E.01881
G1 X96.88 Y89.208 E.01881
G1 X96.87 Y89.807 E.01881
G1 X96.808 Y90.404 E.01881
G1 X96.694 Y90.995 E.01888
M73 P8 R5
G1 X96.619 Y91.281 E.00926
G1 X96.429 Y91.852 E.01888
G1 X96.191 Y92.403 E.01881
G1 X95.905 Y92.931 E.01881
G1 X95.574 Y93.433 E.01888
G1 X95.395 Y93.669 E.00926
G1 X95.001 Y94.124 E.01888
G1 X94.57 Y94.541 E.01881
G1 X94.103 Y94.921 E.01888
G1 X93.862 Y95.092 E.00926
G1 X93.349 Y95.408 E.01888
G1 X92.813 Y95.677 E.0188
G1 X92.253 Y95.899 E.01888
G1 X91.972 Y95.989 E.00926
G1 X91.388 Y96.136 E.01888
G1 X90.796 Y96.232 E.01881
G1 X90.198 Y96.275 E.01881
G1 X89.598 Y96.266 E.01881
G1 X88.999 Y96.205 E.01888
G1 X88.708 Y96.155 E.00926
G1 X88.122 Y96.016 E.01888
G1 X87.55 Y95.827 E.01888
G1 X87.276 Y95.716 E.00926
G1 X86.734 Y95.453 E.01888
G1 X86.219 Y95.146 E.01881
G1 X85.733 Y94.795 E.01881
G1 X85.279 Y94.403 E.01881
G1 X84.859 Y93.971 E.01888
G1 X84.483 Y93.51 E.01866
G1 X84.144 Y93.012 E.01888
G1 X83.851 Y92.486 E.01888
G1 X83.607 Y91.943 E.01866
G1 X83.408 Y91.374 E.01888
G1 X83.261 Y90.793 E.01881
G1 X83.165 Y90.199 E.01888
G1 X83.136 Y89.904 E.00926
G1 X83.118 Y89.293 E.01918
G1 X83.118 Y87.713 E.04955
G1 X89.399 Y87.797 E.19694
M204 S1250
G1 X89.805 Y87.999 F9000
G1 X89.641 Y88.461
M204 S800
;TYPE:Solid infill
G1 F1200
G1 X89.847 Y88.667 E.00915
G1 X89.581 Y88.933 E.01182
G1 X89.847 Y89.2 E.01182
G1 X90.114 Y88.933 E.01182
G1 X90.647 Y89.467 E.02365
G1 X90.381 Y89.733 E.01182
G1 X90.114 Y89.467 E.01182
G1 X89.581 Y90 E.02365
G1 X89.847 Y90.267 E.01182
G1 X90.114 Y90 E.01182
G1 X90.381 Y90.267 E.01182
G1 X90.114 Y90.533 E.01182
G1 X90.381 Y90.8 E.01182
G1 X90.914 Y90.267 E.02365
G1 X90.647 Y90 E.01182
G1 X90.914 Y89.733 E.01182
G1 X91.181 Y90 E.01182
G1 X91.447 Y89.733 E.01182
G1 X91.181 Y89.467 E.01182
G1 X91.447 Y89.2 E.01182
G1 X91.714 Y89.467 E.01182
G1 X92.247 Y88.933 E.02365
G1 X91.98 Y88.667 E.01182
G1 X91.714 Y88.933 E.01182
G1 X91.447 Y88.667 E.01182
G1 X91.714 Y88.4 E.01182
G1 X91.447 Y88.134 E.01182
G1 X90.914 Y88.667 E.02365
G1 X91.181 Y88.933 E.01182
G1 X90.914 Y89.2 E.01182
G1 X90.381 Y88.667 E.02365
G1 X90.647 Y88.4 E.01182
G1 X90.381 Y88.134 E.01182
G1 X90.114 Y88.4 E.01182
G1 X89.958 Y88.245 E.0069
M204 S1250
G1 X90.853 Y87.54 F9000
M204 S800
G1 F1200
G1 X90.914 Y87.6 E.00268
G1 X90.647 Y87.867 E.01182
G1 X90.914 Y88.134 E.01182
G1 X91.714 Y87.334 E.03547
G1 X91.45 Y87.07 E.0117
M204 S1250
G1 X91.423 Y87.091 F9000
M204 S800
G1 F1200
G1 X91.181 Y87.334 E.01075
G1 X91.152 Y87.305 E.00128
M204 S1250
G1 X91.748 Y86.835 F9000
M204 S800
G1 F1200
G1 X91.98 Y87.067 E.01029
G1 X92.247 Y86.8 E.01182
G1 X92.78 Y87.334 E.02365
G1 X92.514 Y87.6 E.01182
G1 X92.247 Y87.334 E.01182
G1 X91.714 Y87.867 E.02365
G1 X91.98 Y88.134 E.01182
G1 X92.247 Y87.867 E.01182
G1 X92.514 Y88.134 E.01182
G1 X92.247 Y88.4 E.01182
G1 X92.514 Y88.667 E.01182
G1 X93.047 Y88.134 E.02365
G1 X92.78 Y87.867 E.01182
G1 X93.047 Y87.6 E.01182
G1 X93.58 Y88.134 E.02365
G1 X93.314 Y88.4 E.01182
G1 X93.58 Y88.667 E.01182
G1 X93.847 Y88.4 E.01182
G1 X94.38 Y88.933 E.02365
G1 X94.114 Y89.2 E.01182
G1 X93.847 Y88.933 E.01182
G1 X93.58 Y89.2 E.01182
G1 X93.847 Y89.467 E.01182
G1 X93.58 Y89.733 E.01182
G1 X93.047 Y89.2 E.02365
G1 X93.314 Y88.933 E.01182
G1 X93.047 Y88.667 E.01182
G1 X92.514 Y89.2 E.02365
G1 X92.78 Y89.467 E.01182
G1 X92.514 Y89.733 E.01182
G1 X92.247 Y89.467 E.01182
G1 X91.714 Y90 E.02365
G1 X91.98 Y90.267 E.01182
G1 X92.247 Y90 E.01182
G1 X92.514 Y90.267 E.01182
G1 X92.247 Y90.533 E.01182
G1 X92.514 Y90.8 E.01182
G1 X93.047 Y90.267 E.02365
G1 X92.78 Y90 E.01182
G1 X93.047 Y89.733 E.01182
G1 X93.847 Y90.533 E.03547
G1 X93.58 Y90.8 E.01182
M73 P9 R5
G1 X93.314 Y90.533 E.01182
G1 X92.78 Y91.067 E.02365
G1 X93.047 Y91.333 E.01182
G1 X93.314 Y91.067 E.01182
G1 X93.58 Y91.333 E.01182
G1 X93.314 Y91.6 E.01182
G1 X93.58 Y91.866 E.01182
G1 X94.114 Y91.333 E.02365
G1 X93.847 Y91.067 E.01182
G1 X94.114 Y90.8 E.01182
G1 X94.38 Y91.067 E.01182
G1 X94.913 Y90.533 E.02365
G1 X94.647 Y90.267 E.01182
G1 X94.38 Y90.533 E.01182
G1 X93.847 Y90 E.02365
G1 X94.114 Y89.733 E.01182
G1 X94.38 Y90 E.01182
G1 X94.647 Y89.733 E.01182
G1 X94.38 Y89.467 E.01182
G1 X94.647 Y89.2 E.01182
G1 X95.18 Y89.733 E.02365
G1 X94.913 Y90 E.01182
G1 X95.18 Y90.267 E.01182
G1 X95.98 Y89.467 E.03547
G1 X95.713 Y89.2 E.01182
G1 X95.447 Y89.467 E.01182
G1 X94.913 Y88.933 E.02365
G1 X95.18 Y88.667 E.01182
G1 X95.447 Y88.933 E.01182
G1 X95.713 Y88.667 E.01182
G1 X95.447 Y88.4 E.01182
G1 X95.713 Y88.134 E.01182
G1 X96.166 Y88.586 E.02005
M204 S1250
G1 X96.184 Y88.729 F9000
M204 S800
G1 F1200
G1 X95.98 Y88.933 E.00907
G1 X96.216 Y89.169 E.01045
M204 S1250
G1 X96.211 Y89.769 F9000
M204 S800
G1 F1200
G1 X95.98 Y90 E.01023
G1 X96.167 Y90.187 E.00831
M204 S1250
G1 E-2.24 F4200
;WIPE_START
G1 F7200
G1 X95.98 Y90 E-.1468
G1 X96.211 Y89.769 E-.18079
;WIPE_END
G1 E-.63241 F4200
G1 Z.4 F9000
G1 X96.033 Y87.92
G1 Z.2
G1 E3.2 F2400
M204 S800
G1 F1200
G1 X95.447 Y87.334 E.02601
G1 X95.713 Y87.067 E.01182
G1 X95.797 Y87.15 E.0037
M204 S1250
G1 E-2.24 F4200
;WIPE_START
G1 F7200
G1 X95.713 Y87.067 E-.06534
G1 X95.447 Y87.334 E-.20896
G1 X96.033 Y87.92 E-.45963
;WIPE_END
G1 E-.22607 F4200
G1 Z.4 F9000
G1 X94.74 Y85.374
G1 Z.2
G1 E3.2 F2400
M204 S800
G1 F1200
G1 X94.647 Y85.467 E.00415
G1 X94.38 Y85.201 E.01182
G1 X93.847 Y85.734 E.02365
G1 X94.114 Y86 E.01182
G1 X94.38 Y85.734 E.01182
G1 X94.647 Y86 E.01182
G1 X94.38 Y86.267 E.01182
G1 X94.647 Y86.534 E.01182
G1 X95.18 Y86 E.02365
G1 X94.913 Y85.734 E.01182
G1 X94.972 Y85.675 E.00261
M204 S1250
G1 X95.401 Y86.312 F9000
M204 S800
G1 F1200
G1 X95.18 Y86.534 E.00981
G1 X95.447 Y86.8 E.01182
G1 X95.18 Y87.067 E.01182
G1 X94.913 Y86.8 E.01182
G1 X94.38 Y87.334 E.02365
G1 X94.647 Y87.6 E.01182
G1 X94.913 Y87.334 E.01182
G1 X95.447 Y87.867 E.02365
G1 X95.18 Y88.134 E.01182
G1 X94.913 Y87.867 E.01182
G1 X94.647 Y88.134 E.01182
G1 X94.913 Y88.4 E.01182
G1 X94.647 Y88.667 E.01182
G1 X94.114 Y88.134 E.02365
G1 X94.38 Y87.867 E.01182
G1 X94.114 Y87.6 E.01182
G1 X93.847 Y87.867 E.01182
G1 X93.314 Y87.334 E.02365
G1 X93.58 Y87.067 E.01182
G1 X93.847 Y87.334 E.01182
G1 X94.38 Y86.8 E.02365
G1 X94.114 Y86.534 E.01182
G1 X93.847 Y86.8 E.01182
G1 X93.58 Y86.534 E.01182
G1 X93.847 Y86.267 E.01182
G1 X93.58 Y86 E.01182
G1 X93.047 Y86.534 E.02365
G1 X93.314 Y86.8 E.01182
G1 X93.047 Y87.067 E.01182
G1 X92.514 Y86.534 E.02365
G1 X92.78 Y86.267 E.01182
G1 X92.643 Y86.13 E.00607
M204 S1250
G1 X92.942 Y85.895 F9000
M204 S800
G1 F1200
G1 X93.047 Y86 E.00467
G1 X93.847 Y85.201 E.03547
G1 X93.837 Y85.19 E.00045
M204 S1250
G1 E-2.24 F4200
;WIPE_START
G1 F7200
G1 X93.847 Y85.201 E-.00798
G1 X93.047 Y86 E-.62689
G1 X92.942 Y85.895 E-.0825
;WIPE_END
G1 E-.24263 F4200
G1 Z.4 F9000
G1 X85.857 Y88.41
G1 Z.2
G1 E3.2 F2400
M204 S800
G1 F1200
G1 X86.381 Y88.933 E.02323
G1 X86.648 Y88.667 E.01182
G1 X86.914 Y88.933 E.01182
G1 X86.648 Y89.2 E.01182
G1 X87.181 Y89.733 E.02365
G1 X87.448 Y89.467 E.01182
G1 X87.181 Y89.2 E.01182
M73 P10 R5
G1 X87.448 Y88.933 E.01182
G1 X87.714 Y89.2 E.01182
G1 X87.981 Y88.933 E.01182
G1 X87.479 Y88.431 E.02226
M204 S1250
G1 X87.417 Y88.431 F9000
M204 S800
G1 F1200
G1 X87.181 Y88.667 E.01048
G1 X86.938 Y88.424 E.01076
M204 S1250
G1 X88.019 Y88.439 F9000
M204 S800
G1 F1200
G1 X88.248 Y88.667 E.01012
G1 X88.47 Y88.445 E.00985
M204 S1250
G1 X89.101 Y88.453 F9000
M204 S800
G1 F1200
G1 X89.314 Y88.667 E.00947
G1 X89.047 Y88.933 E.01182
G1 X88.781 Y88.667 E.01182
G1 X88.514 Y88.933 E.01182
G1 X89.047 Y89.467 E.02365
G1 X89.314 Y89.2 E.01182
G1 X89.581 Y89.467 E.01182
G1 X88.781 Y90.267 E.03547
G1 X88.514 Y90 E.01182
G1 X88.781 Y89.733 E.01182
G1 X88.248 Y89.2 E.02365
G1 X87.981 Y89.467 E.01182
