; generated by PrusaSlicer 2.4.2 on 2022-05-08 at 11:36:31 UTC


;
;

;
;
; 

; external perimeters extrusion width = 0.45mm
; perimeters extrusion width = 0.45mm
; infill extrusion width = 0.45mm
; solid infill extrusion width = 0.45mm
; top infill extrusion width = 0.40mm
; support material extrusion width = 0.35mm
; first layer extrusion width = 0.42mm

M73 P0 R26
M201 X1250 Y1250 Z400 E5000 ; sets maximum accelerations, mm/sec^2
M203 X180 Y180 Z12 E80 ; sets maximum feedrates, mm / sec
M204 P1250 R1250 T1250 ; sets acceleration (P, T) and retract acceleration (R), mm/sec^2
M205 X8.00 Y8.00 Z2.00 E10.00 ; sets the jerk limits, mm/sec
M205 S0 T0 ; sets the minimum extruding and travel feed rate, mm/sec
M107
;TYPE:Custom
G90 ; use absolute coordinates
M83 ; extruder relative mode
M104 S170 ; set extruder temp for bed leveling
M140 S60 ; set bed temp
M109 R170 ; wait for bed leveling temp
M190 S60 ; wait for bed temp
G28 ; home all without mesh bed level
G29 ; mesh bed leveling 
M104 S215 ; set extruder temp
G92 E0.0
G1 Y-2.0 X179 F2400
G1 Z3 F720
M109 S215 ; wait for extruder temp

; intro line
M73 P0 R25
G1 X170 F1000
G1 Z0.2 F720
G1 X110.0 E8.0 F900
G1 X40.0 E10.0 F700
G92 E0.0

M221 S95 ; set flow
G21 ; set units to millimeters
G90 ; use absolute coordinates
M83 ; use relative distances for extrusion
M900 K0.2 ; Filament gcode LA 1.5
; ; Filament gcode LA 1.0
M107
;LAYER_CHANGE
;Z:0.2
;HEIGHT:0.2
;BEFORE_LAYER_CHANGE
G92 E0.0
;0.2


G1 E-3.2 F4200
G1 Z.2 F9000
;AFTER_LAYER_CHANGE
;0.2
M73 P1 R25
G1 Z.4
G1 X69.817 Y86.253
G1 Z.2
G1 E3.2 F2400
M204 S800
;TYPE:Skirt/Brim
;WIDTH:0.42
G1 F1200
G1 X70.616 Y85.609 E.03218
G1 X71.528 Y85.13 E.03229
G1 X72.468 Y84.848 E.03079
G1 X86.559 Y82.049 E.45043
G1 X87.095 Y81.996 E.01691
G1 X93.441 Y82.049 E.19899
G1 X107.599 Y84.862 E.4526
G1 X108.472 Y85.13 E.02863
G1 X109.286 Y85.546 E.02865
G1 X110.094 Y86.168 E.03195
G1 X110.776 Y86.948 E.03251
G1 X111.286 Y87.834 E.03205
G1 X111.618 Y88.812 E.0324
G1 X111.751 Y89.827 E.03207
G1 X111.684 Y90.855 E.03232
G1 X111.421 Y91.84 E.03195
G1 X110.963 Y92.772 E.03256
G1 X110.342 Y93.583 E.03204
G1 X109.481 Y94.326 E.03566
G1 X108.573 Y94.828 E.03253
G1 X107.599 Y95.138 E.03203
G1 X93.441 Y97.951 E.45259
G1 X87.095 Y98.004 E.19899
G1 X86.559 Y97.951 E.01691
G1 X71.858 Y94.991 E.47018
G1 X70.819 Y94.518 E.0358
G1 X69.906 Y93.832 E.03578
G1 X69.161 Y92.963 E.0359
G1 X68.624 Y91.957 E.03576
G1 X68.335 Y90.962 E.03247
G1 X68.246 Y89.946 E.032
G1 X68.357 Y88.926 E.03216
G1 X68.664 Y87.946 E.03219
G1 X69.157 Y87.043 E.03225
G1 X69.778 Y86.299 E.03039
M204 S1250
G1 X70.068 Y86.552 F9000
M204 S800
G1 F1200
G1 X70.159 Y86.448 E.00434
G1 X70.911 Y85.867 E.02979
G1 X71.768 Y85.441 E.03002
G1 X72.542 Y85.218 E.02524
G1 X86.632 Y82.418 E.45043
G1 X93.368 Y82.418 E.2112
G1 X107.517 Y85.23 E.4523
G1 X108.232 Y85.441 E.02338
G1 X108.993 Y85.808 E.02649
G1 X109.761 Y86.374 E.02992
G1 X110.406 Y87.081 E.03001
G1 X110.899 Y87.894 E.02981
G1 X111.224 Y88.79 E.02989
G1 X111.37 Y89.734 E.02995
G1 X111.328 Y90.69 E.02999
G1 X111.103 Y91.612 E.02978
G1 X110.699 Y92.48 E.03002
G1 X110.076 Y93.316 E.03267
G1 X109.35 Y93.957 E.03038
G1 X108.523 Y94.437 E.02999
G1 X107.517 Y94.77 E.03323
G1 X93.368 Y97.582 E.4523
G1 X87.095 Y97.627 E.19668
G1 X71.972 Y94.631 E.4834
G1 X71.007 Y94.192 E.03323
G1 X70.089 Y93.486 E.03631
G1 X69.413 Y92.661 E.03343
G1 X68.935 Y91.715 E.03327
G1 X68.688 Y90.79 E.03001
G1 X68.626 Y89.843 E.02976
G1 X68.75 Y88.897 E.02991
G1 X69.055 Y87.993 E.02993
G1 X69.529 Y87.17 E.02977
G1 X70.028 Y86.597 E.02382
M204 S1250
; printing object sucker_arm_rail_bot.stl id:0 copy 0
G1 E-2.24 F4200
;WIPE_START
G1 F7200
G1 X70.159 Y86.448 E-.11002
G1 X70.911 Y85.867 E-.52644
G1 X71.356 Y85.646 E-.27555
;WIPE_END
G1 E-.048 F4200
G1 Z.4 F9000
G1 X93.063 Y94.223
G1 Z.2
G1 E3.2 F2400
M204 S800
;TYPE:Perimeter
G1 F1200
G1 X92.682 Y94.463 E.01411
G1 X87.318 Y94.463 E.16817
G1 X86.932 Y94.22 E.01431
G1 X88.265 Y94.237 E.04179
G1 X93.003 Y94.225 E.14855
M204 S1250
G1 E-2.24 F4200
;WIPE_START
G1 F7200
G1 X92.682 Y94.463 E-.22134
G1 X91.436 Y94.463 E-.69066
;WIPE_END
G1 E-.048 F4200
G1 Z.4 F9000
G1 X81.139 Y89.54
G1 Z.2
G1 E3.2 F2400
M204 S800
G1 F1200
G1 X81.256 Y89.274 E.00909
G1 X81.434 Y89.032 E.00943
G1 X81.629 Y88.854 E.00827
G1 X81.886 Y88.698 E.00943
G1 X82.134 Y88.607 E.00827
G1 X82.437 Y88.561 E.00963
G1 X82.744 Y88.581 E.00963
G1 X82.992 Y88.647 E.00807
G1 X83.226 Y88.756 E.00807
G1 X83.473 Y88.938 E.00963
G1 X83.676 Y89.169 E.00963
G1 X83.808 Y89.397 E.00827
G1 X83.904 Y89.682 E.00943
G1 X83.939 Y89.944 E.00827
G1 X83.919 Y90.244 E.00943
G1 X83.853 Y90.492 E.00807
G1 X83.744 Y90.726 E.00807
G1 X83.566 Y90.968 E.00943
G1 X83.371 Y91.146 E.00827
G1 X83.109 Y91.306 E.00963
G1 X82.818 Y91.404 E.00963
G1 X82.563 Y91.438 E.00807
G1 X82.306 Y91.427 E.00807
G1 X82.014 Y91.355 E.00943
G1 X81.774 Y91.244 E.00827
G1 X81.527 Y91.062 E.00963
G1 X81.324 Y90.831 E.00963
G1 X81.192 Y90.603 E.00827
G1 X81.096 Y90.318 E.00943
G1 X81.061 Y90.056 E.00827
G1 X81.081 Y89.756 E.00943
G1 X81.123 Y89.597 E.00516
M204 S1250
G1 X81.503 Y89.637 F9000
M204 S800
;TYPE:External perimeter
G1 F1200
G1 X81.582 Y89.467 E.00587
G1 X81.716 Y89.285 E.0071
G1 X81.856 Y89.157 E.00594
G1 X82.05 Y89.039 E.0071
G1 X82.228 Y88.975 E.00594
G1 X82.454 Y88.94 E.00717
G1 X82.682 Y88.955 E.00717
G1 X82.863 Y89.003 E.00587
G1 X83.033 Y89.082 E.00587
G1 X83.217 Y89.218 E.00717
G1 X83.368 Y89.39 E.00717
G1 X83.463 Y89.554 E.00594
G1 X83.535 Y89.768 E.0071
G1 X83.56 Y89.956 E.00594
G1 X83.545 Y90.182 E.0071
G1 X83.497 Y90.363 E.00587
G1 X83.418 Y90.533 E.00587
G1 X83.284 Y90.715 E.0071
G1 X83.144 Y90.843 E.00594
G1 X82.949 Y90.962 E.00717
G1 X82.732 Y91.035 E.00717
G1 X82.546 Y91.06 E.00587
G1 X82.359 Y91.052 E.00587
G1 X82.139 Y90.998 E.0071
G1 X81.967 Y90.918 E.00594
G1 X81.783 Y90.782 E.00717
G1 X81.632 Y90.61 E.00717
G1 X81.537 Y90.446 E.00594
G1 X81.465 Y90.232 E.0071
G1 X81.44 Y90.044 E.00594
G1 X81.455 Y89.818 E.0071
G1 X81.488 Y89.695 E.00399
M204 S1250
G1 X81.382 Y89.495 F9000
G1 X80.939 Y89.937
M204 S800
;TYPE:Perimeter
G1 F1200
G1 X80.919 Y90.244 E.00963
G1 X80.853 Y90.492 E.00807
G1 X80.744 Y90.726 E.00807
G1 X80.566 Y90.968 E.00943
G1 X80.371 Y91.146 E.00827
G1 X80.109 Y91.306 E.00963
G1 X79.818 Y91.404 E.00963
G1 X79.556 Y91.439 E.00827
G1 X79.256 Y91.419 E.00943
G1 X79.008 Y91.353 E.00807
G1 X78.774 Y91.244 E.00807
G1 X78.532 Y91.066 E.00943
G1 X78.354 Y90.871 E.00828
G1 X78.198 Y90.614 E.00943
G1 X78.102 Y90.331 E.00936
G1 X78.039 Y90.567 E.00765
G1 X77.887 Y90.876 E.01079
G1 X77.705 Y91.113 E.00937
G1 X77.446 Y91.34 E.01079
G1 X77.187 Y91.489 E.00936
G1 X76.861 Y91.6 E.01079
G1 X76.565 Y91.639 E.00937
G1 X76.222 Y91.616 E.01079
G1 X75.939 Y91.541 E.00916
G1 X75.675 Y91.417 E.00916
G1 X75.397 Y91.213 E.0108
G1 X75.195 Y90.993 E.00936
G1 X74.998 Y90.649 E.01242
G1 X74.887 Y90.876 E.0079
G1 X74.705 Y91.113 E.00937
G1 X74.446 Y91.34 E.01079
G1 X74.187 Y91.489 E.00936
G1 X73.861 Y91.6 E.01079
G1 X73.565 Y91.639 E.00937
G1 X73.222 Y91.616 E.01079
G1 X72.939 Y91.541 E.00916
G1 X72.674 Y91.417 E.00916
G1 X72.397 Y91.213 E.0108
G1 X72.195 Y90.993 E.00936
G1 X72.013 Y90.693 E.011
G1 X71.9 Y90.361 E.01099
G1 X71.861 Y90.065 E.00937
G1 X71.884 Y89.722 E.01079
G1 X71.961 Y89.433 E.00937
G1 X72.113 Y89.124 E.01079
G1 X72.295 Y88.887 E.00937
G1 X72.554 Y88.66 E.01079
G1 X72.813 Y88.511 E.00936
G1 X73.139 Y88.4 E.01079
G1 X73.435 Y88.361 E.00937
G1 X73.778 Y88.384 E.01079
G1 X74.061 Y88.459 E.00916
G1 X74.325 Y88.583 E.00916
G1 X74.603 Y88.787 E.0108
G1 X74.805 Y89.007 E.00936
G1 X75.002 Y89.351 E.01242
G1 X75.113 Y89.124 E.0079
G1 X75.295 Y88.887 E.00937
G1 X75.554 Y88.66 E.01079
G1 X75.813 Y88.511 E.00936
G1 X76.139 Y88.4 E.01079
G1 X76.435 Y88.361 E.00937
G1 X76.778 Y88.384 E.01079
G1 X77.061 Y88.459 E.00916
G1 X77.325 Y88.583 E.00916
G1 X77.603 Y88.787 E.0108
G1 X77.805 Y89.007 E.00936
G1 X77.987 Y89.307 E.011
G1 X78.104 Y89.67 E.01198
G1 X78.149 Y89.501 E.00548
G1 X78.282 Y89.232 E.00944
G1 X78.439 Y89.028 E.00806
G1 X78.629 Y88.854 E.00807
G1 X78.891 Y88.694 E.00963
G1 X79.182 Y88.596 E.00963
G1 X79.444 Y88.561 E.00827
G1 X79.744 Y88.581 E.00943
G1 X79.992 Y88.647 E.00807
G1 X80.226 Y88.756 E.00807
G1 X80.468 Y88.934 E.00943
G1 X80.646 Y89.128 E.00826
G1 X80.802 Y89.386 E.00944
G1 X80.893 Y89.634 E.00827
G1 X80.93 Y89.878 E.00775
M204 S1250
G1 X80.525 Y89.728 F9000
M204 S800
;TYPE:External perimeter
G1 F1200
G1 X80.56 Y89.954 E.00717
G1 X80.545 Y90.182 E.00717
G1 X80.497 Y90.363 E.00587
G1 X80.418 Y90.533 E.00587
G1 X80.284 Y90.715 E.0071
G1 X80.144 Y90.843 E.00594
G1 X79.949 Y90.962 E.00717
G1 X79.732 Y91.035 E.00717
G1 X79.544 Y91.06 E.00594
G1 X79.318 Y91.045 E.0071
G1 X79.137 Y90.997 E.00587
G1 X78.967 Y90.918 E.00587
G1 X78.785 Y90.784 E.0071
G1 X78.657 Y90.644 E.00595
G1 X78.539 Y90.45 E.0071
G1 X78.474 Y90.273 E.00593
G1 X78.44 Y90.046 E.00717
G1 X78.455 Y89.818 E.00717
G1 X78.504 Y89.635 E.00595
G1 X78.604 Y89.432 E.0071
G1 X78.718 Y89.283 E.00587
G1 X78.856 Y89.157 E.00587
G1 X79.051 Y89.038 E.00717
G1 X79.268 Y88.965 E.00717
G1 X79.456 Y88.94 E.00594
G1 X79.682 Y88.955 E.0071
G1 X79.863 Y89.003 E.00587
G1 X80.033 Y89.082 E.00587
G1 X80.215 Y89.216 E.0071
G1 X80.343 Y89.356 E.00594
G1 X80.461 Y89.549 E.00711
G1 X80.505 Y89.671 E.00406
M204 S1250
G1 X80.746 Y89.789 F9000
G1 E-2.24 F4200
;WIPE_START
G1 F7200
G1 X80.56 Y89.954 E-.15953
G1 X80.545 Y90.182 E-.12677
G1 X80.497 Y90.363 E-.10376
G1 X80.418 Y90.533 E-.10378
G1 X80.284 Y90.715 E-.12547
G1 X80.144 Y90.843 E-.10503
G1 X79.949 Y90.962 E-.12677
G1 X79.844 Y90.997 E-.0609
;WIPE_END
G1 E-.048 F4200
G1 Z.4 F9000
G1 X77.76 Y89.947
G1 Z.2
G1 E3.2 F2400
M204 S800
G1 F1200
G1 X77.742 Y90.217 E.00846
G1 X77.684 Y90.434 E.00704
G1 X77.565 Y90.676 E.00846
G1 X77.428 Y90.854 E.00704
G1 X77.225 Y91.032 E.00846
G1 X77.031 Y91.144 E.00704
G1 X76.775 Y91.231 E.00846
G1 X76.553 Y91.26 E.00704
G1 X76.283 Y91.242 E.00846
G1 X76.069 Y91.185 E.00696
G1 X75.867 Y91.091 E.00696
G1 X75.65 Y90.931 E.00847
G1 X75.498 Y90.766 E.00703
M73 P2 R25
G1 X75.357 Y90.533 E.00855
G1 X75.269 Y90.275 E.00853
G1 X75.24 Y90.053 E.00704
G1 X75.258 Y89.783 E.00846
G1 X75.316 Y89.566 E.00704
G1 X75.435 Y89.324 E.00846
G1 X75.572 Y89.146 E.00704
G1 X75.775 Y88.968 E.00846
G1 X75.969 Y88.856 E.00704
G1 X76.225 Y88.769 E.00846
G1 X76.447 Y88.74 E.00704
G1 X76.717 Y88.758 E.00846
G1 X76.931 Y88.815 E.00696
G1 X77.133 Y88.909 E.00696
G1 X77.35 Y89.069 E.00847
G1 X77.502 Y89.234 E.00703
G1 X77.643 Y89.467 E.00855
G1 X77.731 Y89.725 E.00853
G1 X77.752 Y89.888 E.00516
M204 S1250
G1 X77.998 Y90.074 F9000
G1 E-2.24 F4200
;WIPE_START
G1 F7200
G1 X77.742 Y90.217 E-.1822
G1 X77.684 Y90.434 E-.12451
G1 X77.565 Y90.676 E-.14949
G1 X77.428 Y90.854 E-.12444
G1 X77.225 Y91.032 E-.1496
G1 X77.031 Y91.144 E-.12438
G1 X76.933 Y91.177 E-.05738
;WIPE_END
G1 E-.048 F4200
G1 Z.4 F9000
G1 X74.76 Y89.947
G1 Z.2
G1 E3.2 F2400
M204 S800
G1 F1200
G1 X74.742 Y90.217 E.00846
G1 X74.684 Y90.434 E.00704
G1 X74.565 Y90.676 E.00846
G1 X74.428 Y90.854 E.00704
G1 X74.225 Y91.032 E.00846
G1 X74.031 Y91.144 E.00704
G1 X73.775 Y91.231 E.00846
G1 X73.553 Y91.26 E.00704
G1 X73.283 Y91.242 E.00846
G1 X73.069 Y91.185 E.00696
G1 X72.867 Y91.091 E.00696
G1 X72.65 Y90.931 E.00847
G1 X72.498 Y90.766 E.00703
G1 X72.357 Y90.533 E.00855
G1 X72.269 Y90.275 E.00853
G1 X72.24 Y90.053 E.00704
G1 X72.258 Y89.783 E.00846
G1 X72.316 Y89.566 E.00704
G1 X72.435 Y89.324 E.00846
G1 X72.572 Y89.146 E.00704
G1 X72.775 Y88.968 E.00846
G1 X72.969 Y88.856 E.00704
G1 X73.225 Y88.769 E.00846
G1 X73.447 Y88.74 E.00704
G1 X73.717 Y88.758 E.00846
G1 X73.931 Y88.815 E.00696
G1 X74.133 Y88.909 E.00696
G1 X74.35 Y89.069 E.00847
G1 X74.502 Y89.234 E.00703
G1 X74.643 Y89.467 E.00855
G1 X74.731 Y89.725 E.00853
G1 X74.752 Y89.888 E.00516
M204 S1250
G1 X74.998 Y90.074 F9000
G1 E-2.24 F4200
;WIPE_START
G1 F7200
G1 X74.742 Y90.217 E-.1822
G1 X74.684 Y90.434 E-.12451
G1 X74.565 Y90.676 E-.14949
G1 X74.428 Y90.854 E-.12444
G1 X74.225 Y91.032 E-.1496
G1 X74.031 Y91.144 E-.12438
G1 X73.933 Y91.177 E-.05738
;WIPE_END
G1 E-.048 F4200
G1 Z.4 F9000
G1 X74.472 Y88.121
G1 Z.2
G1 E3.2 F2400
M204 S800
;TYPE:Perimeter
G1 F1200
G1 X83.771 Y86.649 E.29518
G1 X84.281 Y86.55 E.01627
G1 X84.648 Y86.447 E.01197
G1 X84.562 Y86.973 E.0167
G1 X84.52 Y87.513 E.01698
G1 X84.513 Y91.48 E.1244
G1 X84.52 Y92.489 E.03163
G1 X84.562 Y93.027 E.01693
G1 X84.648 Y93.553 E.0167
G1 X84.281 Y93.45 E.01197
G1 X83.771 Y93.351 E.01628
G1 X73.255 Y91.695 E.33377
G1 X73.016 Y91.642 E.00768
G1 X72.807 Y91.565 E.007
G1 X72.609 Y91.461 E.007
G1 X72.426 Y91.333 E.007
G1 X72.262 Y91.182 E.007
G1 X72.118 Y91.01 E.00701
G1 X71.998 Y90.822 E.007
G1 X71.904 Y90.619 E.007
G1 X71.839 Y90.412 E.0068
G1 X71.792 Y90.105 E.00973
G1 X71.808 Y89.74 E.01146
G1 X71.902 Y89.387 E.01146
G1 X72.036 Y89.114 E.00953
G1 X72.309 Y88.77 E.01378
G1 X72.485 Y88.622 E.0072
G1 X72.795 Y88.44 E.01126
G1 X73.089 Y88.339 E.00974
G1 X74.413 Y88.13 E.04204
M204 S1250
G1 E-2.24 F4200
;WIPE_START
G1 F7200
G1 X76.039 Y87.873 E-.912
;WIPE_END
G1 E-.048 F4200
G1 Z.4 F9000
G1 X85.056 Y86.29
G1 Z.2
G1 E3.2 F2400
M204 S800
;TYPE:External perimeter
G1 F1200
G1 X86.775 Y86.159 E.05404
G1 X88.267 Y86.14 E.04679
G1 X92.725 Y86.143 E.13976
G1 X93.227 Y86.159 E.01577
G1 X94.944 Y86.29 E.05398
G1 X95.063 Y87.018 E.02313
G1 X95.103 Y87.527 E.01601
G1 X95.11 Y88.521 E.03117
G1 X95.103 Y92.473 E.1239
G1 X95.063 Y92.982 E.01603
G1 X94.944 Y93.71 E.02313
G1 X93.227 Y93.841 E.05398
G1 X92.725 Y93.857 E.01577
G1 X88.267 Y93.86 E.13976
G1 X86.775 Y93.841 E.04679
G1 X85.056 Y93.71 E.05404
G1 X84.937 Y92.982 E.02313
G1 X84.897 Y92.473 E.01601
G1 X84.89 Y91.479 E.03117
G1 X84.897 Y87.527 E.1239
G1 X84.937 Y87.018 E.01603
G1 X85.046 Y86.349 E.02125
M204 S1250
G1 X85.053 Y85.89 F9000
G1 E-2.24 F4200
;WIPE_START
G1 F7200
G1 X86.682 Y86.169 E-.912
;WIPE_END
G1 E-.048 F4200
G1 Z.4 F9000
G1 X93.072 Y85.777
G1 Z.2
G1 E3.2 F2400
M204 S800
;TYPE:Perimeter
G1 F1200
G1 X88.265 Y85.763 E.15072
G1 X86.932 Y85.78 E.04179
G1 X87.318 Y85.537 E.01431
G1 X92.694 Y85.537 E.16856
G1 X93.021 Y85.745 E.01215
M204 S1250
G1 E-2.24 F4200
;WIPE_START
G1 F7200
G1 X91.376 Y85.751 E-.912
;WIPE_END
G1 E-.048 F4200
G1 Z.4 F9000
G1 X96.601 Y88.879
G1 Z.2
G1 E3.2 F2400
M204 S800
G1 F1200
G1 X96.891 Y88.694 E.01078
G1 X97.182 Y88.596 E.00963
G1 X97.437 Y88.562 E.00807
G1 X97.694 Y88.573 E.00807
G1 X97.986 Y88.645 E.00943
G1 X98.226 Y88.756 E.00827
G1 X98.468 Y88.934 E.00943
G1 X98.646 Y89.129 E.00827
G1 X98.802 Y89.386 E.00943
G1 X98.893 Y89.634 E.00827
G1 X98.939 Y89.937 E.00963
G1 X98.919 Y90.244 E.00963
G1 X98.853 Y90.492 E.00807
G1 X98.744 Y90.726 E.00807
G1 X98.566 Y90.968 E.00943
G1 X98.371 Y91.146 E.00827
G1 X98.114 Y91.302 E.00943
G1 X97.866 Y91.393 E.00827
G1 X97.563 Y91.439 E.00963
G1 X97.256 Y91.419 E.00963
G1 X97.008 Y91.353 E.00807
G1 X96.774 Y91.244 E.00807
G1 X96.527 Y91.062 E.00963
G1 X96.324 Y90.831 E.00963
G1 X96.192 Y90.603 E.00827
G1 X96.096 Y90.318 E.00943
G1 X96.061 Y90.056 E.00827
G1 X96.081 Y89.756 E.00943
G1 X96.147 Y89.508 E.00807
G1 X96.256 Y89.274 E.00807
G1 X96.434 Y89.032 E.00943
G1 X96.557 Y88.919 E.00523
M204 S1250
G1 X96.856 Y89.157 F9000
M204 S800
;TYPE:External perimeter
G1 F1200
G1 X97.051 Y89.038 E.00717
G1 X97.268 Y88.965 E.00717
G1 X97.454 Y88.94 E.00587
G1 X97.641 Y88.948 E.00587
G1 X97.861 Y89.002 E.0071
G1 X98.033 Y89.082 E.00594
G1 X98.215 Y89.216 E.0071
G1 X98.343 Y89.356 E.00594
G1 X98.461 Y89.55 E.0071
G1 X98.526 Y89.728 E.00594
G1 X98.56 Y89.954 E.00717
G1 X98.545 Y90.182 E.00717
G1 X98.497 Y90.363 E.00587
G1 X98.418 Y90.533 E.00587
G1 X98.284 Y90.715 E.0071
G1 X98.144 Y90.843 E.00594
G1 X97.95 Y90.961 E.0071
G1 X97.772 Y91.025 E.00594
G1 X97.546 Y91.06 E.00717
G1 X97.318 Y91.045 E.00717
G1 X97.137 Y90.997 E.00587
G1 X96.967 Y90.918 E.00587
G1 X96.783 Y90.782 E.00717
G1 X96.632 Y90.61 E.00717
G1 X96.537 Y90.446 E.00594
G1 X96.465 Y90.232 E.0071
G1 X96.44 Y90.044 E.00594
G1 X96.455 Y89.818 E.0071
G1 X96.503 Y89.637 E.00587
G1 X96.582 Y89.467 E.00587
G1 X96.716 Y89.285 E.0071
G1 X96.812 Y89.197 E.00406
M204 S1250
