; generated by PrusaSlicer 2.4.2 on 2022-05-08 at 22:02:54 UTC


;
;

;
;
; 

; external perimeters extrusion width = 0.45mm
; perimeters extrusion width = 0.45mm
; infill extrusion width = 0.45mm
; solid infill extrusion width = 0.45mm
; top infill extrusion width = 0.40mm
; support material extrusion width = 0.35mm
; first layer extrusion width = 0.42mm

M73 P0 R16
M201 X1250 Y1250 Z400 E5000 ; sets maximum accelerations, mm/sec^2
M203 X180 Y180 Z12 E80 ; sets maximum feedrates, mm / sec
M204 P1250 R1250 T1250 ; sets acceleration (P, T) and retract acceleration (R), mm/sec^2
M205 X8.00 Y8.00 Z2.00 E10.00 ; sets the jerk limits, mm/sec
M205 S0 T0 ; sets the minimum extruding and travel feed rate, mm/sec
M107
;TYPE:Custom
G90 ; use absolute coordinates
M83 ; extruder relative mode
M104 S170 ; set extruder temp for bed leveling
M140 S60 ; set bed temp
M109 R170 ; wait for bed leveling temp
M190 S60 ; wait for bed temp
G28 ; home all without mesh bed level
G29 ; mesh bed leveling 
M104 S215 ; set extruder temp
G92 E0.0
G1 Y-2.0 X179 F2400
G1 Z3 F720
M109 S215 ; wait for extruder temp

; intro line
G1 X170 F1000
G1 Z0.2 F720
G1 X110.0 E8.0 F900
G1 X40.0 E10.0 F700
G92 E0.0

M221 S95 ; set flow
G21 ; set units to millimeters
G90 ; use absolute coordinates
M83 ; use relative distances for extrusion
M900 K0.2 ; Filament gcode LA 1.5
; ; Filament gcode LA 1.0
M107
;LAYER_CHANGE
;Z:0.2
;HEIGHT:0.2
;BEFORE_LAYER_CHANGE
G92 E0.0
;0.2


G1 E-3.2 F4200
M73 P1 R16
G1 Z.2 F9000
;AFTER_LAYER_CHANGE
;0.2
G1 Z.4
G1 X79.341 Y79.341
G1 Z.2
G1 E3.2 F2400
M204 S800
;TYPE:Skirt/Brim
;WIDTH:0.42
G1 F1200
G1 X80.495 Y78.188 E.05115
G1 X82.442 Y77.381 E.06609
G1 X97.558 Y77.381 E.47393
G1 X99.505 Y78.188 E.06609
G1 X101.812 Y80.495 E.1023
G1 X102.619 Y82.442 E.06609
G1 X102.619 Y95.251 E.40159
G1 X101.812 Y97.198 E.06609
G1 X99.505 Y99.505 E.1023
G1 X97.558 Y100.312 E.06609
G1 X82.442 Y100.312 E.47393
G1 X80.495 Y99.505 E.06609
G1 X78.188 Y97.198 E.1023
G1 X77.381 Y95.251 E.06609
G1 X77.381 Y82.442 E.40159
G1 X78.188 Y80.495 E.06609
M73 P2 R16
G1 X79.299 Y79.384 E.04927
M204 S1250
G1 X79.566 Y79.65 F9000
M204 S800
G1 F1200
G1 X80.762 Y78.454 E.05303
G1 X82.442 Y77.758 E.05704
G1 X97.558 Y77.758 E.47393
G1 X99.238 Y78.454 E.05704
G1 X101.546 Y80.762 E.1023
G1 X102.242 Y82.442 E.05704
G1 X102.242 Y95.251 E.40159
G1 X101.546 Y96.931 E.05704
G1 X99.238 Y99.238 E.1023
G1 X97.558 Y99.935 E.05704
G1 X82.442 Y99.935 E.47393
G1 X80.762 Y99.238 E.05704
G1 X78.454 Y96.931 E.1023
G1 X77.758 Y95.251 E.05704
G1 X77.758 Y82.442 E.40159
G1 X78.454 Y80.762 E.05704
G1 X79.523 Y79.693 E.04739
M204 S1250
; printing object sucker_arm_rail_top.stl id:0 copy 0
G1 E-2.24 F4200
;WIPE_START
G1 F7200
G1 X80.687 Y78.529 E-.912
;WIPE_END
G1 E-.048 F4200
G1 Z.4 F9000
G1 X90.01 Y94.155
G1 Z.2
G1 E3.2 F2400
M204 S800
;TYPE:Support material
G1 F1200
G1 X90.093 Y94.176 E.00269
G1 X90.155 Y94.22 E.0024
G1 X90.203 Y94.291 E.00269
G1 X90.22 Y94.365 E.00239
G1 X90.207 Y94.45 E.00269
G1 X90.168 Y94.516 E.00239
G1 X90.102 Y94.57 E.00269
G1 X90.019 Y94.594 E.00269
G1 X89.943 Y94.587 E.00239
G1 X89.866 Y94.549 E.00269
G1 X89.81 Y94.485 E.00269
G1 X89.782 Y94.404 E.00269
G1 X89.785 Y94.327 E.0024
G1 X89.82 Y94.249 E.00269
G1 X89.882 Y94.19 E.00269
G1 X89.953 Y94.16 E.00243
M204 S1250
G1 E-2.24 F4200
;WIPE_START
G1 F7200
G1 X89.882 Y94.19 E-.04288
G1 X89.82 Y94.249 E-.04756
G1 X89.785 Y94.327 E-.04753
G1 X89.782 Y94.404 E-.04233
G1 X89.81 Y94.485 E-.04753
G1 X89.866 Y94.549 E-.04756
G1 X89.943 Y94.587 E-.04756
G1 X90.019 Y94.594 E-.04231
G1 X90.102 Y94.57 E-.04752
G1 X90.168 Y94.516 E-.04756
G1 X90.207 Y94.45 E-.04232
G1 X90.22 Y94.365 E-.04755
G1 X90.203 Y94.291 E-.04231
G1 X90.155 Y94.22 E-.04755
G1 X90.093 Y94.176 E-.04233
G1 X90.01 Y94.155 E-.04752
;WIPE_END
G1 E-.23009 F4200
G1 Z.4 F9000
G1 X97.558 Y82.442
G1 Z.2
G1 E3.2 F2400
M204 S800
G1 F1200
G1 X99.865 Y82.442 E.07234
G1 X99.865 Y95.251 E.40159
G1 X97.558 Y95.251 E.07234
G1 X97.558 Y97.558 E.07234
G1 X82.442 Y97.558 E.47393
G1 X82.442 Y95.251 E.07234
G1 X80.135 Y95.251 E.07234
G1 X80.135 Y82.442 E.40159
G1 X82.442 Y82.442 E.07234
G1 X82.442 Y80.135 E.07234
G1 X97.558 Y80.135 E.47393
G1 X97.558 Y82.386 E.07056
M204 S1250
G1 X86.497 Y84.695 F9000
M204 S800
G1 F1200
G1 X86.074 Y84.732 E.01331
G1 X85.657 Y84.843 E.01355
G1 X85.265 Y85.025 E.01355
G1 X84.91 Y85.272 E.01355
G1 X84.604 Y85.577 E.01355
G1 X84.355 Y85.931 E.01356
M73 P3 R16
G1 X84.171 Y86.322 E.01355
G1 X84.078 Y86.643 E.0105
G1 X84.03 Y86.954 E.00984
G1 X84.02 Y87.172 E.00686
G1 X84.03 Y91.896 E.14812
G1 X84.106 Y92.322 E.01355
G1 X84.255 Y92.728 E.01356
G1 X84.472 Y93.102 E.01355
G1 X84.75 Y93.432 E.01355
G1 X85 Y93.65 E.01038
G1 X85.35 Y93.872 E.01301
G1 X85.647 Y94.004 E.01017
G1 X85.968 Y94.097 E.0105
G1 X86.397 Y94.153 E.01355
G1 X88.02 Y94.155 E.05089
G1 X88.022 Y94.646 E.0154
G1 X88.057 Y94.902 E.00809
G1 X88.161 Y95.206 E.0101
G1 X88.33 Y95.481 E.0101
G1 X88.554 Y95.713 E.01011
G1 X88.871 Y95.915 E.01179
G1 X89.176 Y96.019 E.0101
G1 X89.497 Y96.055 E.01014
G1 X90.509 Y96.055 E.03172
G1 X90.753 Y96.033 E.00768
G1 X91.072 Y95.94 E.01043
G1 X91.398 Y95.752 E.01179
G1 X91.544 Y95.624 E.00607
G1 X91.678 Y95.471 E.0064
G1 X91.785 Y95.309 E.00607
G1 X91.889 Y95.085 E.00776
G1 X91.944 Y94.899 E.00607
G1 X91.974 Y94.708 E.00607
G1 X91.98 Y94.155 E.01734
G1 X93.603 Y94.153 E.05089
G1 X94.032 Y94.097 E.01356
G1 X94.353 Y94.004 E.0105
G1 X94.65 Y93.872 E.01017
G1 X95.006 Y93.646 E.01323
G1 X95.25 Y93.432 E.01017
G1 X95.534 Y93.093 E.01387
G1 X95.65 Y92.91 E.0068
G1 X95.789 Y92.629 E.00984
G1 X95.922 Y92.207 E.01388
G1 X95.97 Y91.896 E.00984
G1 X95.98 Y91.678 E.00686
G1 X95.98 Y87.172 E.14126
G1 X95.96 Y86.865 E.00967
G1 X95.873 Y86.453 E.0132
G1 X95.719 Y86.067 E.01301
G1 X95.55 Y85.78 E.01044
G1 X95.285 Y85.453 E.01321
G1 X95.064 Y85.251 E.00938
G1 X94.895 Y85.125 E.00661
G1 X94.528 Y84.918 E.01321
G1 X94.13 Y84.776 E.01323
G1 X93.715 Y84.704 E.0132
G1 X86.554 Y84.695 E.22454
M204 S1250
G1 E-2.24 F4200
;WIPE_START
G1 F7200
G1 X88.2 Y84.697 E-.912
;WIPE_END
G1 E-.048 F4200
G1 Z.4 F9000
G1 X99.217 Y95.081
G1 Z.2
G1 E3.2 F2400
M204 S800
G1 F1200
G1 X99.217 Y82.782 E.38563
G1 X98.799 Y82.782 E.01314
G1 X98.799 Y94.911 E.38031
G1 X98.38 Y94.911 E.01314
G1 X98.38 Y82.782 E.38031
G1 X97.961 Y82.782 E.01314
G1 X97.961 Y94.911 E.38031
G1 X97.542 Y94.911 E.01314
G1 X97.542 Y82.782 E.38031
G1 X97.218 Y82.782 E.01014
G1 X97.218 Y80.475 E.07234
G1 X97.123 Y80.475 E.003
G1 X97.123 Y97.218 E.52498
G1 X96.704 Y97.218 E.01314
G1 X96.704 Y80.475 E.52498
G1 X96.285 Y80.475 E.01314
G1 X96.285 Y97.218 E.52498
G1 X95.866 Y97.218 E.01314
G1 X95.866 Y93.208 E.12573
G1 X95.665 Y93.48 E.01059
G1 X95.447 Y93.714 E.01003
G1 X95.447 Y97.218 E.10988
G1 X95.028 Y97.218 E.01314
G1 X95.028 Y94.044 E.09951
G1 X94.609 Y94.267 E.01487
G1 X94.609 Y97.218 E.09254
G1 X94.19 Y97.218 E.01314
G1 X94.19 Y94.408 E.0881
G1 X93.771 Y94.481 E.01333
G1 X93.771 Y97.218 E.08582
G1 X93.352 Y97.218 E.01314
G1 X93.352 Y94.494 E.0854
G1 X92.933 Y94.494 E.01314
G1 X92.933 Y97.218 E.0854
G1 X92.514 Y97.218 E.01314
G1 X92.514 Y94.494 E.0854
G1 X92.319 Y94.494 E.0061
M73 P4 R16
G1 X92.312 Y94.741 E.00773
G1 X92.275 Y94.976 E.00746
G1 X92.207 Y95.204 E.00746
G1 X92.095 Y95.45 E.00847
G1 X92.095 Y97.218 E.05544
G1 X91.676 Y97.218 E.01314
G1 X91.676 Y95.963 E.03935
G1 X91.471 Y96.113 E.00795
G1 X91.257 Y96.229 E.00765
G1 X91.257 Y97.218 E.03101
G1 X90.838 Y97.218 E.01314
G1 X90.838 Y96.363 E.02683
G1 X90.419 Y96.394 E.01317
G1 X90.419 Y97.218 E.02583
G1 X90 Y97.218 E.01314
G1 X90 Y96.394 E.02583
G1 X89.581 Y96.394 E.01314
G1 X89.581 Y97.218 E.02583
G1 X89.162 Y97.218 E.01314
G1 X89.162 Y96.363 E.02683
G1 X88.946 Y96.308 E.00699
G1 X88.743 Y96.229 E.00682
G1 X88.743 Y97.218 E.031
G1 X88.324 Y97.218 E.01314
G1 X88.324 Y95.963 E.03935
G1 X88.102 Y95.739 E.00991
G1 X87.905 Y95.45 E.01095
G1 X87.905 Y97.218 E.05544
G1 X87.486 Y97.218 E.01314
G1 X87.486 Y94.494 E.0854
G1 X87.067 Y94.494 E.01314
G1 X87.067 Y97.218 E.0854
G1 X86.648 Y97.218 E.01314
G1 X86.648 Y94.494 E.0854
G1 X86.229 Y94.481 E.01314
G1 X86.229 Y97.218 E.08582
G1 X85.81 Y97.218 E.01314
G1 X85.81 Y94.408 E.0881
G1 X85.391 Y94.267 E.01386
G1 X85.391 Y97.218 E.09254
G1 X84.972 Y97.218 E.01314
G1 X84.972 Y94.044 E.09951
G1 X84.777 Y93.906 E.00751
G1 X84.553 Y93.714 E.00924
G1 X84.553 Y97.218 E.10988
G1 X84.134 Y97.218 E.01314
G1 X84.134 Y92.868 E.13641
M204 S1250
G1 E-2.24 F4200
;WIPE_START
G1 F7200
G1 X84.134 Y94.513 E-.912
;WIPE_END
G1 E-.048 F4200
G1 Z.4 F9000
G1 X95.866 Y85.982
G1 Z.2
G1 E3.2 F2400
M204 S800
G1 F1200
G1 X95.866 Y80.475 E.17266
G1 X95.447 Y80.475 E.01314
G1 X95.447 Y85.136 E.14614
G1 X95.26 Y84.972 E.00778
G1 X95.028 Y84.806 E.00896
G1 X95.028 Y80.475 E.1358
G1 X94.609 Y80.475 E.01314
G1 X94.609 Y84.583 E.12882
G1 X94.19 Y84.441 E.01387
G1 X94.19 Y80.475 E.12438
G1 X93.771 Y80.475 E.01314
G1 X93.771 Y84.369 E.1221
G1 X93.352 Y84.356 E.01314
G1 X93.352 Y80.475 E.12168
G1 X92.933 Y80.475 E.01314
G1 X92.933 Y84.356 E.12168
G1 X92.514 Y84.356 E.01314
G1 X92.514 Y80.475 E.12168
G1 X92.095 Y80.475 E.01314
G1 X92.095 Y84.356 E.12168
G1 X91.676 Y84.356 E.01314
G1 X91.676 Y80.475 E.12168
G1 X91.257 Y80.475 E.01314
G1 X91.257 Y84.356 E.12168
G1 X90.838 Y84.356 E.01314
G1 X90.838 Y80.475 E.12168
G1 X90.419 Y80.475 E.01314
G1 X90.419 Y84.356 E.12168
G1 X90 Y84.356 E.01314
M73 P4 R15
G1 X90 Y80.475 E.12168
G1 X89.581 Y80.475 E.01314
G1 X89.581 Y84.356 E.12168
G1 X89.162 Y84.356 E.01314
G1 X89.162 Y80.475 E.12168
G1 X88.743 Y80.475 E.01314
G1 X88.743 Y84.356 E.12168
G1 X88.324 Y84.356 E.01314
G1 X88.324 Y80.475 E.12168
G1 X87.905 Y80.475 E.01314
G1 X87.905 Y84.356 E.12168
G1 X87.486 Y84.356 E.01314
G1 X87.486 Y80.475 E.12168
G1 X87.067 Y80.475 E.01314
G1 X87.067 Y84.356 E.12168
G1 X86.648 Y84.356 E.01314
G1 X86.648 Y80.475 E.12168
G1 X86.229 Y80.475 E.01314
G1 X86.229 Y84.369 E.1221
G1 X85.81 Y84.442 E.01333
G1 X85.81 Y80.475 E.12438
G1 X85.391 Y80.475 E.01314
G1 X85.391 Y84.583 E.12882
G1 X84.972 Y84.806 E.01487
G1 X84.972 Y80.475 E.13579
G1 X84.553 Y80.475 E.01314
G1 X84.553 Y85.136 E.14616
G1 X84.335 Y85.37 E.01003
M73 P5 R15
G1 X84.134 Y85.642 E.01059
G1 X84.134 Y80.475 E.16201
G1 X83.715 Y80.475 E.01314
G1 X83.715 Y97.218 E.52498
G1 X83.296 Y97.218 E.01314
G1 X83.296 Y80.475 E.52498
G1 X82.877 Y80.475 E.01314
G1 X82.877 Y97.218 E.52498
G1 X82.782 Y97.218 E.003
G1 X82.782 Y94.911 E.07234
G1 X82.458 Y94.911 E.01014
G1 X82.458 Y82.782 E.38031
G1 X82.039 Y82.782 E.01314
G1 X82.039 Y94.911 E.38031
G1 X81.62 Y94.911 E.01314
G1 X81.62 Y82.782 E.38031
G1 X81.201 Y82.782 E.01314
G1 X81.201 Y94.911 E.38031
G1 X80.783 Y94.911 E.01314
G1 X80.783 Y82.612 E.38563
M204 S1250
G1 E-2.24 F4200
;WIPE_START
G1 F7200
G1 X80.783 Y84.258 E-.912
;WIPE_END
G1 E-.048 F4200
G1 Z.4 F9000
G1 X89.322 Y93.697
G1 Z.2
G1 E3.2 F2400
M204 S800
;TYPE:External perimeter
G1 F1200
G1 X89.653 Y93.501 E.01206
G1 X89.967 Y93.463 E.00992
G1 X90.345 Y93.499 E.01191
G1 X90.678 Y93.697 E.01214
G1 X90.874 Y94.027 E.01202
G1 X90.911 Y94.308 E.00891
G1 X90.884 Y94.642 E.01051
G1 X90.808 Y94.809 E.00574
G1 X90.672 Y94.99 E.00708
G1 X90.553 Y95.099 E.00509
G1 X90.385 Y95.201 E.00615
G1 X90.199 Y95.264 E.00615
G1 X90.031 Y95.286 E.00534
G1 X89.735 Y95.247 E.00936
G1 X89.577 Y95.182 E.00534
G1 X89.416 Y95.074 E.00608
G1 X89.302 Y94.96 E.00505
G1 X89.172 Y94.774 E.00714
G1 X89.108 Y94.609 E.00553
G1 X89.089 Y94.439 E.00537
G1 X89.124 Y94.031 E.01284
G1 X89.292 Y93.749 E.0103
M204 S1250
G1 X89.225 Y93.325 F9000
G1 E-2.24 F4200
;WIPE_START
G1 F7200
G1 X89.653 Y93.501 E-.24288
G1 X89.967 Y93.463 E-.17536
G1 X90.345 Y93.499 E-.21052
G1 X90.678 Y93.697 E-.21459
G1 X90.741 Y93.804 E-.06866
;WIPE_END
G1 E-.048 F4200
G1 Z.4 F9000
G1 X91.29 Y93.463
G1 Z.2
G1 E3.2 F2400
M204 S800
G1 F1200
G1 X91.282 Y94.56 E.03438
G1 X91.258 Y94.736 E.00559
G1 X91.172 Y94.964 E.00763
G1 X91.001 Y95.181 E.00866
G1 X90.799 Y95.304 E.0074
G1 X90.602 Y95.357 E.0064
G1 X89.513 Y95.365 E.03415
G1 X89.298 Y95.337 E.00679
G1 X89.075 Y95.239 E.00763
G1 X88.954 Y95.135 E.00502
G1 X88.81 Y94.932 E.00779
G1 X88.751 Y94.776 E.00525
G1 X88.722 Y94.599 E.0056
G1 X88.709 Y93.463 E.03562
G1 X86.509 Y93.464 E.06899
G1 X86.189 Y93.437 E.01006
G1 X85.887 Y93.356 E.00979
G1 X85.676 Y93.263 E.00725
G1 X85.401 Y93.085 E.01028
G1 X88.264 Y93.086 E.08979
G1 X89.26 Y93.127 E.03125
G1 X89.759 Y93.097 E.01567
G1 X90.241 Y93.097 E.01512
G1 X90.74 Y93.127 E.01567
G1 X91.736 Y93.086 E.03125
G1 X94.59 Y93.085 E.0895
G1 X94.461 Y93.184 E.00512
G1 X94.256 Y93.297 E.00732
G1 X94.038 Y93.382 E.00734
G1 X93.813 Y93.437 E.00726
G1 X93.491 Y93.464 E.01014
G1 X91.35 Y93.464 E.06713
M204 S1250
G1 X90.89 Y93.463 F9000
G1 E-2.24 F4200
;WIPE_START
G1 F7200
G1 X91.282 Y94.56 E-.60879
G1 X91.258 Y94.736 E-.09872
G1 X91.172 Y94.964 E-.13492
G1 X91.094 Y95.063 E-.06958
;WIPE_END
G1 E-.048 F4200
G1 Z.4 F9000
G1 X85.09 Y92.765
G1 Z.2
G1 E3.2 F2400
M204 S800
G1 F1200
G1 X84.99 Y92.634 E.00517
G1 X84.879 Y92.433 E.00719
G1 X84.772 Y92.138 E.00985
G1 X84.718 Y91.831 E.00978
G1 X84.712 Y87.101 E.14829
G1 X84.753 Y86.79 E.00985
G1 X84.879 Y86.418 E.0123
G1 X85.033 Y86.151 E.00969
G1 X85.09 Y86.086 E.0027
G1 X85.09 Y92.705 E.20754
M204 S1250
G1 X85.02 Y92.616 F9000
G1 E-2.24 F4200
;WIPE_START
G1 F7200
G1 X84.99 Y92.634 E-.0681
G1 X84.879 Y92.433 E-.12716
G1 X84.772 Y92.138 E-.1741
G1 X84.718 Y91.831 E-.1729
G1 X84.717 Y91.164 E-.36974
;WIPE_END
G1 E-.048 F4200
G1 Z.4 F9000
G1 X85.41 Y85.765
G1 Z.2
M73 P6 R15
G1 E3.2 F2400
M204 S800
G1 F1200
G1 X85.54 Y85.665 E.00517
G1 X85.742 Y85.554 E.0072
G1 X86.037 Y85.447 E.00985
G1 X86.344 Y85.393 E.00978
G1 X93.57 Y85.387 E.22656
G1 X93.877 Y85.426 E.0097
G1 X94.167 Y85.515 E.00951
G1 X94.438 Y85.651 E.00952
G1 X94.592 Y85.765 E.00599
G1 X85.47 Y85.765 E.28601
M204 S1250
G1 X85.559 Y85.695 F9000
G1 E-2.24 F4200
;WIPE_START
G1 F7200
G1 X85.54 Y85.665 E-.06803
G1 X85.742 Y85.554 E-.12717
G1 X86.037 Y85.447 E-.1741
G1 X86.344 Y85.393 E-.17288
G1 X87.011 Y85.392 E-.36981
;WIPE_END
G1 E-.048 F4200
G1 Z.4 F9000
G1 X94.91 Y86.077
G1 Z.2
G1 E3.2 F2400
M204 S800
G1 F1200
G1 X95.062 Y86.302 E.00851
G1 X95.187 Y86.579 E.00951
G1 X95.263 Y86.872 E.00951
G1 X95.289 Y87.183 E.00979
G1 X95.282 Y91.831 E.14571
G1 X95.228 Y92.138 E.00978
G1 X95.122 Y92.429 E.00971
G1 X94.91 Y92.774 E.01271
G1 X94.91 Y86.137 E.20809
M204 S1250
G1 X95.018 Y86.327 F9000
G1 E-2.24 F4200
;WIPE_START
G1 F7200
G1 X95.062 Y86.302 E-.12431
G1 X95.187 Y86.579 E-.16817
G1 X95.263 Y86.872 E-.16802
G1 X95.289 Y87.183 E-.17301
G1 X95.288 Y87.686 E-.27849
;WIPE_END
G1 E-.048 F4200
G1 Z.4 F9000
G1 X91.101 Y93.509
G1 Z.2
G1 E3.2 F2400
M204 S800
;TYPE:Gap fill
;WIDTH:0.228244
G1 F1200
G1 X90.443 Y93.324 E.01053
M204 S1250
G1 X90.494 Y93.301 F9000
M204 S800
;WIDTH:0.359838
G1 F1200
G1 X90.943 Y93.466 E.0126
M204 S1250
M204 S800
;WIDTH:0.35984
G1 X91.091 Y93.964 E.0137
M204 S1250
G1 E-2.24 F4200
;WIPE_START
G1 F7200
G1 X90.943 Y93.466 E-.28814
;WIPE_END
G1 E-.67186 F4200
G1 Z.4 F9000
G1 X88.91 Y93.963
G1 Z.2
G1 E3.2 F2400
M204 S800
;WIDTH:0.36033
G1 F1200
G1 X89.056 Y93.466 E.01367
M204 S1250
M204 S800
;WIDTH:0.360329
G1 X89.505 Y93.301 E.0126
M204 S1250
G1 X89.557 Y93.324 F9000
M204 S800
;WIDTH:0.228238
G1 F1200
G1 X88.898 Y93.509 E.01054
M204 S1250
; stop printing object sucker_arm_rail_top.stl id:0 copy 0
M106 S84.15
;LAYER_CHANGE
;Z:0.4
;HEIGHT:0.2
;BEFORE_LAYER_CHANGE
G92 E0.0
;0.4


G1 E-2.24 F4200
;WIPE_START
G1 F7200
G1 X89.557 Y93.324 E-.37904
;WIPE_END
G1 E-.58096 F4200
G1 Z.4 F9000
;AFTER_LAYER_CHANGE
;0.4
G1 Z.6
G1 X89.557 Y100.312
G1 Z.4
G1 E3.2 F2400
;TYPE:Skirt/Brim
;WIDTH:0.42
G1 F1191
G1 X82.442 Y100.312 E.22307
G1 X80.495 Y99.505 E.06609
G1 X78.188 Y97.198 E.1023
G1 X77.381 Y95.251 E.06609
G1 X77.381 Y82.442 E.40159
G1 X78.188 Y80.495 E.06609
G1 X80.495 Y78.188 E.1023
G1 X82.442 Y77.381 E.06609
G1 X97.558 Y77.381 E.47393
G1 X99.505 Y78.188 E.06609
G1 X101.812 Y80.495 E.1023
G1 X102.619 Y82.442 E.06609
G1 X102.619 Y95.251 E.40159
G1 X101.812 Y97.198 E.06609
G1 X99.505 Y99.505 E.1023
G1 X97.558 Y100.312 E.06609
G1 X89.617 Y100.312 E.24898
G1 X89.617 Y99.935 F9000
