; generated by PrusaSlicer 2.4.2 on 2022-05-08 at 22:00:33 UTC


;
;

;
;
; 

; external perimeters extrusion width = 0.45mm
; perimeters extrusion width = 0.45mm
; infill extrusion width = 0.45mm
; solid infill extrusion width = 0.45mm
; top infill extrusion width = 0.40mm
; support material extrusion width = 0.35mm
; first layer extrusion width = 0.42mm

M73 P0 R78
M201 X1250 Y1250 Z400 E5000 ; sets maximum accelerations, mm/sec^2
M203 X180 Y180 Z12 E80 ; sets maximum feedrates, mm / sec
M204 P1250 R1250 T1250 ; sets acceleration (P, T) and retract acceleration (R), mm/sec^2
M205 X8.00 Y8.00 Z2.00 E10.00 ; sets the jerk limits, mm/sec
M205 S0 T0 ; sets the minimum extruding and travel feed rate, mm/sec
M107
;TYPE:Custom
G90 ; use absolute coordinates
M83 ; extruder relative mode
M104 S170 ; set extruder temp for bed leveling
M140 S60 ; set bed temp
M109 R170 ; wait for bed leveling temp
M190 S60 ; wait for bed temp
G28 ; home all without mesh bed level
G29 ; mesh bed leveling 
M104 S215 ; set extruder temp
G92 E0.0
G1 Y-2.0 X179 F2400
G1 Z3 F720
M109 S215 ; wait for extruder temp

; intro line
G1 X170 F1000
G1 Z0.2 F720
G1 X110.0 E8.0 F900
G1 X40.0 E10.0 F700
G92 E0.0

M221 S95 ; set flow
G21 ; set units to millimeters
G90 ; use absolute coordinates
M83 ; use relative distances for extrusion
M900 K0.2 ; Filament gcode LA 1.5
; ; Filament gcode LA 1.0
M107
;LAYER_CHANGE
;Z:0.2
;HEIGHT:0.2
;BEFORE_LAYER_CHANGE
G92 E0.0
;0.2


G1 E-3.2 F4200
G1 Z.2 F9000
;AFTER_LAYER_CHANGE
;0.2
G1 Z.4
G1 X65.766 Y65.766
G1 Z.2
G1 E3.2 F2400
M204 S800
;TYPE:Skirt/Brim
;WIDTH:0.42
G1 F1200
G1 X69.226 Y62.305 E.15345
G1 X69.844 Y61.86 E.02388
G1 X74.458 Y59.553 E.16175
G1 X75.521 Y59.302 E.03425
G1 X104.479 Y59.302 E.90795
G1 X105.542 Y59.553 E.03425
G1 X110.156 Y61.86 E.16175
G1 X110.774 Y62.305 E.02388
G1 X117.695 Y69.226 E.3069
G1 X118.14 Y69.844 E.02388
G1 X120.447 Y74.458 E.16175
G1 X120.698 Y75.521 E.03425
G1 X120.698 Y104.479 E.90795
G1 X120.447 Y105.542 E.03425
G1 X118.14 Y110.156 E.16175
G1 X117.695 Y110.774 E.02388
G1 X110.774 Y117.695 E.3069
G1 X110.156 Y118.14 E.02388
M73 P0 R77
G1 X105.542 Y120.447 E.16175
G1 X104.479 Y120.698 E.03425
G1 X75.521 Y120.698 E.90795
G1 X74.458 Y120.447 E.03425
G1 X69.844 Y118.14 E.16175
G1 X69.226 Y117.695 E.02388
G1 X62.305 Y110.774 E.3069
G1 X61.86 Y110.156 E.02388
G1 X59.553 Y105.542 E.16175
G1 X59.302 Y104.479 E.03425
G1 X59.302 Y75.521 E.90795
G1 X59.553 Y74.458 E.03425
G1 X61.86 Y69.844 E.16175
G1 X62.305 Y69.226 E.02388
G1 X65.723 Y65.808 E.15157
M204 S1250
; printing object sucker_arm_z_pulley.stl id:0 copy 0
G1 E-2.24 F4200
;WIPE_START
G1 F7200
G1 X66.887 Y64.644 E-.912
;WIPE_END
G1 E-.048 F4200
G1 Z.4 F9000
G1 X90.097 Y87.782
G1 Z.2
G1 E3.2 F2400
M204 S800
;TYPE:Support material
G1 F1200
G1 X90.386 Y87.814 E.0091
G1 X90.575 Y87.856 E.00607
G1 X90.938 Y87.988 E.01213
G1 X91.274 Y88.182 E.01213
G1 X91.427 Y88.3 E.00607
G1 X91.637 Y88.5 E.0091
G1 X91.872 Y88.807 E.01213
G1 X91.969 Y88.975 E.00607
G1 X92.086 Y89.241 E.0091
G1 X92.144 Y89.426 E.00607
G1 X92.201 Y89.71 E.0091
G1 X92.218 Y90.097 E.01213
G1 X92.201 Y90.29 E.00607
G1 X92.144 Y90.574 E.0091
G1 X92.012 Y90.938 E.01213
G1 X91.819 Y91.273 E.01213
G1 X91.701 Y91.427 E.00607
G1 X91.5 Y91.637 E.0091
G1 X91.274 Y91.818 E.0091
G1 X91.11 Y91.922 E.00607
G1 X90.76 Y92.086 E.01213
G1 X90.386 Y92.186 E.01213
G1 X90.097 Y92.218 E.0091
G1 X89.904 Y92.218 E.00607
G1 X89.615 Y92.186 E.0091
G1 X89.426 Y92.144 E.00607
G1 X89.03 Y91.996 E.01326
G1 X89.03 Y88.004 E.12518
G1 X89.241 Y87.914 E.0072
G1 X89.52 Y87.833 E.0091
G1 X89.807 Y87.789 E.0091
G1 X90.041 Y87.781 E.00733
M204 S1250
G1 X91.676 Y91.181 F9000
M204 S800
G1 F1200
G1 X91.676 Y89.148 E.06374
G1 X91.492 Y88.855 E.01083
G1 X91.257 Y88.602 E.01084
G1 X91.257 Y91.398 E.08768
G1 X91.079 Y91.54 E.00714
G1 X90.838 Y91.683 E.00878
G1 X90.838 Y88.317 E.10553
G1 X90.643 Y88.233 E.00664
G1 X90.419 Y88.167 E.00734
G1 X90.419 Y91.833 E.11494
G1 X90 Y91.88 E.01322
G1 X90 Y88.12 E.11792
G1 X89.581 Y88.167 E.01322
G1 X89.581 Y92.006 E.12038
M204 S1250
G1 E-2.24 F4200
;WIPE_START
G1 F7200
G1 X89.581 Y90.361 E-.912
;WIPE_END
G1 E-.048 F4200
G1 Z.4 F9000
G1 X104.479 Y63.986
G1 Z.2
G1 E3.2 F2400
M204 S800
G1 F1200
G1 X109.093 Y63.986 E.14467
G1 X109.093 Y66.293 E.07234
G1 X111.4 Y66.293 E.07234
G1 X111.4 Y68.6 E.07234
G1 X113.707 Y68.6 E.07234
G1 X113.707 Y70.907 E.07234
G1 X116.014 Y70.907 E.07234
G1 X116.014 Y75.521 E.14467
G1 X118.321 Y75.521 E.07234
G1 X118.321 Y104.479 E.90795
G1 X116.014 Y104.479 E.07234
G1 X116.014 Y109.093 E.14467
G1 X113.707 Y109.093 E.07234
G1 X113.707 Y111.4 E.07234
G1 X111.4 Y111.4 E.07234
G1 X111.4 Y113.707 E.07234
G1 X109.093 Y113.707 E.07234
G1 X109.093 Y116.014 E.07234
G1 X104.479 Y116.014 E.14467
G1 X104.479 Y118.321 E.07234
G1 X75.521 Y118.321 E.90795
G1 X75.521 Y116.014 E.07234
G1 X70.907 Y116.014 E.14467
G1 X70.907 Y113.707 E.07234
G1 X68.6 Y113.707 E.07234
G1 X68.6 Y111.4 E.07234
G1 X66.293 Y111.4 E.07234
G1 X66.293 Y109.093 E.07234
G1 X63.986 Y109.093 E.07234
G1 X63.986 Y104.479 E.14467
G1 X61.679 Y104.479 E.07234
G1 X61.679 Y75.521 E.90795
G1 X63.986 Y75.521 E.07234
G1 X63.986 Y70.907 E.14467
G1 X66.293 Y70.907 E.07234
G1 X66.293 Y68.6 E.07234
G1 X68.6 Y68.6 E.07234
G1 X68.6 Y66.293 E.07234
G1 X70.907 Y66.293 E.07234
G1 X70.907 Y63.986 E.07234
G1 X75.521 Y63.986 E.14467
G1 X75.521 Y61.679 E.07234
G1 X104.479 Y61.679 E.90795
G1 X104.479 Y63.929 E.07056
M204 S1250
G1 X89.995 Y64.52 F9000
M204 S800
G1 F1200
G1 X88.883 Y64.544 E.03486
G1 X87.774 Y64.617 E.03486
G1 X86.669 Y64.739 E.03486
G1 X85.57 Y64.908 E.03486
G1 X84.48 Y65.125 E.03486
G1 X83.41 Y65.387 E.03453
G1 X82.343 Y65.698 E.03485
G1 X81.29 Y66.055 E.03486
G1 X80.254 Y66.458 E.03486
G1 X79.236 Y66.905 E.03486
G1 X78.23 Y67.401 E.03518
G1 X77.255 Y67.936 E.03486
G1 X76.305 Y68.513 E.03486
G1 X75.381 Y69.131 E.03486
G1 X74.493 Y69.782 E.03453
G1 X73.626 Y70.478 E.03486
G1 X72.79 Y71.211 E.03486
G1 X71.987 Y71.979 E.03485
G1 X71.218 Y72.782 E.03486
G1 X70.478 Y73.626 E.03518
G1 X69.782 Y74.493 E.03486
G1 X69.125 Y75.39 E.03486
G1 X68.508 Y76.314 E.03486
G1 X67.936 Y77.255 E.03453
G1 X67.401 Y78.23 E.03486
G1 X66.909 Y79.227 E.03485
G1 X66.462 Y80.244 E.03486
G1 X66.058 Y81.28 E.03486
G1 X65.701 Y82.333 E.03486
G1 X65.39 Y83.4 E.03486
G1 X65.123 Y84.49 E.03518
G1 X64.906 Y85.581 E.03486
G1 X64.737 Y86.679 E.03486
G1 X64.617 Y87.774 E.03453
G1 X64.544 Y88.883 E.03486
G1 X64.52 Y89.995 E.03486
G1 X64.544 Y91.106 E.03486
G1 X64.616 Y92.216 E.03486
G1 X64.737 Y93.321 E.03486
G1 X64.908 Y94.43 E.03518
G1 X65.125 Y95.52 E.03486
G1 X65.39 Y96.6 E.03486
G1 X65.698 Y97.657 E.03453
G1 X66.055 Y98.71 E.03486
G1 X66.458 Y99.746 E.03486
G1 X66.905 Y100.764 E.03486
G1 X67.401 Y101.77 E.03518
G1 X67.936 Y102.745 E.03486
G1 X68.513 Y103.695 E.03486
G1 X69.131 Y104.619 E.03486
G1 X69.782 Y105.507 E.03453
G1 X70.478 Y106.374 E.03486
G1 X71.211 Y107.21 E.03486
G1 X71.979 Y108.013 E.03485
G1 X72.782 Y108.782 E.03486
G1 X73.626 Y109.522 E.03518
G1 X74.493 Y110.218 E.03486
G1 X75.39 Y110.875 E.03486
G1 X76.314 Y111.492 E.03486
G1 X77.255 Y112.064 E.03453
G1 X78.23 Y112.599 E.03486
G1 X79.227 Y113.091 E.03485
G1 X80.244 Y113.538 E.03486
G1 X81.28 Y113.942 E.03486
G1 X82.333 Y114.299 E.03486
G1 X83.41 Y114.613 E.03518
G1 X84.49 Y114.877 E.03486
G1 X85.581 Y115.094 E.03486
G1 X86.679 Y115.263 E.03486
G1 X87.774 Y115.383 E.03453
G1 X88.883 Y115.456 E.03486
G1 X89.995 Y115.48 E.03486
G1 X91.106 Y115.456 E.03486
G1 X92.216 Y115.384 E.03486
G1 X93.321 Y115.263 E.03486
G1 X94.43 Y115.092 E.03518
G1 X95.52 Y114.875 E.03486
G1 X96.59 Y114.613 E.03453
G1 X97.657 Y114.302 E.03485
G1 X98.71 Y113.945 E.03486
G1 X99.746 Y113.542 E.03486
G1 X100.764 Y113.095 E.03486
G1 X101.77 Y112.599 E.03518
G1 X102.745 Y112.064 E.03486
G1 X103.695 Y111.487 E.03486
G1 X104.619 Y110.869 E.03486
G1 X105.507 Y110.218 E.03453
G1 X106.374 Y109.522 E.03486
G1 X107.21 Y108.789 E.03486
G1 X108.013 Y108.021 E.03485
G1 X108.782 Y107.218 E.03486
M73 P1 R77
G1 X109.522 Y106.374 E.03518
G1 X110.218 Y105.507 E.03486
G1 X110.875 Y104.61 E.03486
G1 X111.492 Y103.686 E.03486
G1 X112.064 Y102.745 E.03453
G1 X112.599 Y101.77 E.03486
G1 X113.091 Y100.773 E.03485
G1 X113.538 Y99.756 E.03486
G1 X113.942 Y98.72 E.03486
G1 X114.299 Y97.667 E.03486
G1 X114.61 Y96.6 E.03486
G1 X114.877 Y95.51 E.03518
G1 X115.094 Y94.419 E.03486
G1 X115.263 Y93.321 E.03486
G1 X115.383 Y92.226 E.03453
G1 X115.456 Y91.117 E.03486
G1 X115.48 Y90.005 E.03486
G1 X115.456 Y88.894 E.03486
G1 X115.384 Y87.784 E.03486
G1 X115.263 Y86.679 E.03486
G1 X115.092 Y85.57 E.03518
G1 X114.875 Y84.48 E.03486
G1 X114.613 Y83.41 E.03453
G1 X114.302 Y82.343 E.03485
G1 X113.945 Y81.29 E.03486
G1 X113.542 Y80.254 E.03486
G1 X113.095 Y79.236 E.03486
G1 X112.599 Y78.23 E.03518
G1 X112.064 Y77.255 E.03486
G1 X111.487 Y76.305 E.03486
G1 X110.869 Y75.381 E.03486
G1 X110.218 Y74.493 E.03453
G1 X109.522 Y73.626 E.03486
G1 X108.789 Y72.79 E.03486
G1 X108.021 Y71.987 E.03485
G1 X107.218 Y71.218 E.03486
G1 X106.374 Y70.478 E.03518
G1 X105.507 Y69.782 E.03486
G1 X104.61 Y69.125 E.03486
G1 X103.686 Y68.508 E.03486
G1 X102.745 Y67.936 E.03453
G1 X101.77 Y67.401 E.03486
G1 X100.773 Y66.909 E.03485
G1 X99.756 Y66.462 E.03486
G1 X98.72 Y66.058 E.03486
G1 X97.667 Y65.701 E.03486
G1 X96.59 Y65.387 E.03518
G1 X95.51 Y65.123 E.03486
G1 X94.419 Y64.906 E.03486
G1 X93.321 Y64.737 E.03486
G1 X92.215 Y64.616 E.03486
G1 X91.117 Y64.544 E.03453
G1 X90.051 Y64.521 E.03341
M204 S1250
G1 E-2.24 F4200
;WIPE_START
G1 F7200
G1 X91.117 Y64.544 E-.59051
G1 X91.696 Y64.582 E-.32149
;WIPE_END
G1 E-.048 F4200
G1 Z.4 F9000
G1 X117.652 Y104.309
G1 Z.2
G1 E3.2 F2400
M204 S800
G1 F1200
G1 X117.652 Y75.861 E.89199
G1 X117.234 Y75.861 E.01314
G1 X117.234 Y104.139 E.88667
G1 X116.815 Y104.139 E.01314
G1 X116.815 Y75.861 E.88667
G1 X116.396 Y75.861 E.01314
G1 X116.396 Y104.139 E.88667
G1 X115.977 Y104.139 E.01314
G1 X115.977 Y75.861 E.88667
G1 X115.675 Y75.861 E.00946
G1 X115.675 Y71.246 E.14467
G1 X115.558 Y71.246 E.00368
G1 X115.558 Y86.363 E.47397
G1 X115.426 Y85.508 E.02714
G1 X115.139 Y84.13 E.04413
G1 X115.139 Y71.246 E.40396
G1 X114.72 Y71.246 E.01314
G1 X114.72 Y82.562 E.3548
G1 X114.301 Y81.282 E.04224
G1 X114.301 Y71.246 E.31465
G1 X113.882 Y71.246 E.01314
G1 X113.882 Y80.19 E.28042
G1 X113.463 Y79.23 E.03285
G1 X113.463 Y71.246 E.25031
G1 X113.368 Y71.246 E.00298
G1 X113.368 Y68.939 E.07234
G1 X113.044 Y68.939 E.01016
G1 X113.044 Y78.365 E.29553
G1 X112.625 Y77.572 E.02811
G1 X112.625 Y68.939 E.27068
G1 X112.206 Y68.939 E.01314
G1 X112.206 Y76.835 E.24758
G1 X111.787 Y76.145 E.02532
G1 X111.787 Y68.939 E.22593
G1 X111.368 Y68.939 E.01314
G1 X111.368 Y75.516 E.20622
G1 X110.949 Y74.916 E.02295
G1 X110.949 Y66.632 E.25973
G1 X110.53 Y66.632 E.01314
G1 X110.53 Y74.345 E.24182
G1 X110.111 Y73.817 E.02112
G1 X110.111 Y66.632 E.22528
G1 X109.692 Y66.632 E.01314
G1 X109.692 Y73.304 E.2092
G1 X109.273 Y72.827 E.01992
G1 X109.273 Y66.632 E.19422
G1 X108.854 Y66.632 E.01314
G1 X108.854 Y72.366 E.17978
G1 X108.435 Y71.928 E.019
G1 X108.435 Y64.325 E.2384
G1 X108.016 Y64.325 E.01314
G1 X108.016 Y71.512 E.22534
G1 X107.597 Y71.111 E.01819
G1 X107.597 Y64.325 E.21276
G1 X107.178 Y64.325 E.01314
G1 X107.178 Y70.731 E.20085
G1 X106.759 Y70.364 E.01747
G1 X106.759 Y64.325 E.18933
G1 X106.34 Y64.325 E.01314
G1 X106.34 Y70.015 E.17841
G1 X105.921 Y69.679 E.01684
G1 X105.921 Y64.325 E.16787
G1 X105.502 Y64.325 E.01314
G1 X105.502 Y69.358 E.15779
G1 X105.083 Y69.051 E.01629
G1 X105.083 Y64.325 E.14816
G1 X104.664 Y64.325 E.01314
G1 X104.664 Y68.753 E.13883
G1 X104.245 Y68.473 E.0158
G1 X104.245 Y64.325 E.13005
G1 X104.139 Y64.325 E.00332
G1 X104.139 Y62.018 E.07234
G1 X103.826 Y62.018 E.00982
G1 X103.826 Y68.196 E.1937
G1 X103.407 Y67.941 E.01537
G1 X103.407 Y62.018 E.18573
G1 X102.988 Y62.018 E.01314
G1 X102.988 Y67.687 E.17775
G1 X102.569 Y67.453 E.01505
G1 X102.569 Y62.018 E.1704
G1 X102.15 Y62.018 E.01314
G1 X102.15 Y67.223 E.1632
G1 X101.731 Y67.004 E.01483
G1 X101.731 Y62.018 E.15632
G1 X101.312 Y62.018 E.01314
G1 X101.312 Y66.797 E.14984
G1 X100.893 Y66.591 E.01463
G1 X100.893 Y62.018 E.14339
G1 X100.474 Y62.018 E.01314
G1 X100.474 Y66.407 E.13761
G1 X100.055 Y66.223 E.01435
G1 X100.055 Y62.018 E.13183
G1 X99.636 Y62.018 E.01314
G1 X99.636 Y66.051 E.12645
G1 X99.217 Y65.888 E.01409
G1 X99.217 Y62.018 E.12134
G1 X98.799 Y62.018 E.01314
G1 X98.799 Y65.727 E.11628
G1 X98.38 Y65.584 E.01387
G1 X98.38 Y62.018 E.11182
G1 X97.961 Y62.018 E.01314
G1 X97.961 Y65.442 E.10736
G1 X97.542 Y65.311 E.01377
G1 X97.542 Y62.018 E.10324
G1 X97.123 Y62.018 E.01314
G1 X97.123 Y65.189 E.09941
G1 X96.704 Y65.066 E.01368
G1 X96.704 Y62.018 E.09558
G1 X96.285 Y62.018 E.01314
G1 X96.285 Y64.963 E.09233
G1 X95.866 Y64.86 E.01352
G1 X95.866 Y62.018 E.08912
G1 X95.447 Y62.018 E.01314
G1 X95.447 Y64.764 E.08611
G1 X95.028 Y64.681 E.01339
G1 X95.028 Y62.018 E.08349
G1 X94.609 Y62.018 E.01314
G1 X94.609 Y64.598 E.08088
G1 X94.19 Y64.527 E.01332
G1 X94.19 Y62.018 E.07868
G1 X93.771 Y62.018 E.01314
G1 X93.771 Y64.463 E.07666
G1 X93.352 Y64.399 E.01329
G1 X93.352 Y62.018 E.07466
G1 X92.933 Y62.018 E.01314
G1 X92.933 Y64.353 E.07322
G1 X92.514 Y64.308 E.01322
G1 X92.514 Y62.018 E.07178
G1 X92.095 Y62.018 E.01314
G1 X92.095 Y64.268 E.07056
G1 X91.676 Y64.241 E.01316
G1 X91.676 Y62.018 E.0697
G1 X91.257 Y62.018 E.01314
G1 X91.257 Y64.214 E.06884
G1 X90.838 Y64.199 E.01314
G1 X90.838 Y62.018 E.06837
G1 X90.419 Y62.018 E.01314
G1 X90.419 Y64.19 E.06809
G1 X90 Y64.181 E.01314
G1 X90 Y62.018 E.06781
G1 X89.581 Y62.018 E.01314
G1 X89.581 Y64.19 E.06809
G1 X89.162 Y64.199 E.01314
G1 X89.162 Y62.018 E.06837
G1 X88.743 Y62.018 E.01314
G1 X88.743 Y64.214 E.06884
G1 X88.324 Y64.241 E.01316
G1 X88.324 Y62.018 E.0697
G1 X87.905 Y62.018 E.01314
G1 X87.905 Y64.268 E.07056
G1 X87.486 Y64.308 E.01319
G1 X87.486 Y62.018 E.07178
G1 X87.067 Y62.018 E.01314
G1 X87.067 Y64.353 E.07322
G1 X86.648 Y64.399 E.01322
G1 X86.648 Y62.018 E.07466
G1 X86.229 Y62.018 E.01314
G1 X86.229 Y64.463 E.07666
G1 X85.81 Y64.527 E.01329
G1 X85.81 Y62.018 E.07868
G1 X85.391 Y62.018 E.01314
G1 X85.391 Y64.598 E.08088
G1 X84.972 Y64.681 E.01339
G1 X84.972 Y62.018 E.08349
G1 X84.553 Y62.018 E.01314
G1 X84.553 Y64.764 E.08611
G1 X84.134 Y64.86 E.01348
G1 X84.134 Y62.018 E.08912
G1 X83.715 Y62.018 E.01314
G1 X83.715 Y64.963 E.09233
G1 X83.296 Y65.066 E.01353
G1 X83.296 Y62.018 E.09558
G1 X82.877 Y62.018 E.01314
G1 X82.877 Y65.189 E.09941
G1 X82.458 Y65.311 E.01368
G1 X82.458 Y62.018 E.10324
G1 X82.039 Y62.018 E.01314
G1 X82.039 Y65.442 E.10736
G1 X81.62 Y65.584 E.01387
G1 X81.62 Y62.018 E.11182
G1 X81.201 Y62.018 E.01314
G1 X81.201 Y65.727 E.11628
G1 X80.783 Y65.888 E.01408
G1 X80.783 Y62.018 E.12134
G1 X80.364 Y62.018 E.01314
G1 X80.364 Y66.051 E.12645
G1 X79.945 Y66.223 E.0142
M73 P1 R76
G1 X79.945 Y62.018 E.13183
G1 X79.526 Y62.018 E.01314
G1 X79.526 Y66.407 E.13761
G1 X79.107 Y66.591 E.01435
G1 X79.107 Y62.018 E.14339
G1 X78.688 Y62.018 E.01314
G1 X78.688 Y66.797 E.14984
G1 X78.269 Y67.004 E.01465
G1 X78.269 Y62.018 E.15632
G1 X77.85 Y62.018 E.01314
G1 X77.85 Y67.223 E.1632
G1 X77.431 Y67.453 E.01498
G1 X77.431 Y62.018 E.1704
G1 X77.012 Y62.018 E.01314
G1 X77.012 Y67.687 E.17775
G1 X76.593 Y67.941 E.01537
G1 X76.593 Y62.018 E.18573
G1 X76.174 Y62.018 E.01314
G1 X76.174 Y68.196 E.1937
G1 X75.755 Y68.473 E.01575
G1 X75.755 Y64.325 E.13005
G1 X75.336 Y64.325 E.01314
G1 X75.336 Y68.753 E.13883
G1 X74.917 Y69.051 E.01612
G1 X74.917 Y64.325 E.14816
G1 X74.498 Y64.325 E.01314
G1 X74.498 Y69.358 E.15779
G1 X74.079 Y69.679 E.01655
G1 X74.079 Y64.325 E.16787
G1 X73.66 Y64.325 E.01314
G1 X73.66 Y70.015 E.17841
G1 X73.241 Y70.364 E.01708
G1 X73.241 Y64.325 E.18933
G1 X72.822 Y64.325 E.01314
G1 X72.822 Y70.731 E.20085
G1 X72.403 Y71.111 E.01773
G1 X72.403 Y64.325 E.21276
G1 X71.984 Y64.325 E.01314
G1 X71.984 Y71.512 E.22534
G1 X71.565 Y71.928 E.01853
G1 X71.565 Y64.325 E.2384
G1 X71.246 Y64.325 E.00999
G1 X71.246 Y66.632 E.07234
G1 X71.146 Y66.632 E.00315
G1 X71.146 Y72.366 E.17978
G1 X70.727 Y72.827 E.01952
G1 X70.727 Y66.632 E.19422
