; generated by PrusaSlicer 2.4.2 on 2022-05-08 at 16:51:03 UTC


;
;

;
;
; 

; external perimeters extrusion width = 0.45mm
; perimeters extrusion width = 0.45mm
; infill extrusion width = 0.45mm
; solid infill extrusion width = 0.45mm
; top infill extrusion width = 0.40mm
; support material extrusion width = 0.35mm
; first layer extrusion width = 0.42mm

M73 P0 R67
M201 X1250 Y1250 Z400 E5000 ; sets maximum accelerations, mm/sec^2
M203 X180 Y180 Z12 E80 ; sets maximum feedrates, mm / sec
M204 P1250 R1250 T1250 ; sets acceleration (P, T) and retract acceleration (R), mm/sec^2
M205 X8.00 Y8.00 Z2.00 E10.00 ; sets the jerk limits, mm/sec
M205 S0 T0 ; sets the minimum extruding and travel feed rate, mm/sec
M107
;TYPE:Custom
G90 ; use absolute coordinates
M83 ; extruder relative mode
M104 S170 ; set extruder temp for bed leveling
M140 S60 ; set bed temp
M109 R170 ; wait for bed leveling temp
M190 S60 ; wait for bed temp
G28 ; home all without mesh bed level
G29 ; mesh bed leveling 
M104 S215 ; set extruder temp
G92 E0.0
G1 Y-2.0 X179 F2400
G1 Z3 F720
M109 S215 ; wait for extruder temp

; intro line
G1 X170 F1000
G1 Z0.2 F720
G1 X110.0 E8.0 F900
G1 X40.0 E10.0 F700
G92 E0.0

M221 S95 ; set flow
G21 ; set units to millimeters
G90 ; use absolute coordinates
M83 ; use relative distances for extrusion
M900 K0.2 ; Filament gcode LA 1.5
; ; Filament gcode LA 1.0
M107
;LAYER_CHANGE
;Z:0.2
;HEIGHT:0.2
;BEFORE_LAYER_CHANGE
G92 E0.0
;0.2


M73 P0 R66
G1 E-3.2 F4200
G1 Z.2 F9000
;AFTER_LAYER_CHANGE
;0.2
G1 Z.4
G1 X36.927 Y36.927
G1 Z.2
G1 E3.2 F2400
M204 S800
;TYPE:Skirt/Brim
;WIDTH:0.42
G1 F1200
G1 X39.234 Y34.62 E.1023
G1 X40.915 Y33.924 E.05704
G1 X49.109 Y33.924 E.25692
G1 X50.223 Y34.201 E.03598
G1 X97.499 Y59.274 E1.67789
G1 X98.906 Y60.235 E.05342
G1 X99.724 Y60.984 E.0348
G1 X100.318 Y61.651 E.02801
G1 X101.207 Y62.941 E.0491
G1 X139.567 Y129.466 E2.40777
G1 X140.143 Y131.06 E.05316
G1 X140.429 Y132.63 E.05003
G1 X140.469 Y134.013 E.04336
G1 X140.254 Y135.697 E.05324
G1 X139.753 Y137.32 E.05325
G1 X138.982 Y138.833 E.05325
G1 X137.968 Y140.186 E.05301
G1 X136.806 Y141.291 E.05027
G1 X135.399 Y142.24 E.05323
G1 X133.849 Y142.935 E.05325
G1 X132.203 Y143.353 E.05325
G1 X130.416 Y143.482 E.05619
G1 X128.719 Y143.303 E.0535
G1 X127.087 Y142.838 E.05321
G1 X125.557 Y142.099 E.05326
G1 X124.177 Y141.11 E.05324
G1 X36.942 Y55.419 E3.83408
G1 X36.231 Y53.723 E.05765
G1 X36.231 Y38.608 E.47393
G1 X36.904 Y36.982 E.05516
M204 S1250
; printing object sucker_arm_extension_left.stl id:0 copy 0
G1 E-2.24 F4200
;WIPE_START
G1 F7200
G1 X38.06 Y35.811 E-.912
;WIPE_END
G1 E-.048 F4200
G1 Z.4 F9000
G1 X49.109 Y38.77
G1 Z.2
G1 E3.2 F2400
M204 S800
;TYPE:Support material
G1 F1200
G1 X48.314 Y38.399 E.02748
G1 X48.037 Y38.436 E.00877
G1 X44.816 Y41.139 E.13184
G1 X44.864 Y41.641 E.01582
G1 X55.514 Y47.568 E.38217
G1 X55.788 Y47.741 E.01015
G1 X55.965 Y47.881 E.00706
G1 X56.281 Y48.201 E.01411
G1 X56.482 Y48.473 E.01061
G1 X56.596 Y48.667 E.00706
G1 X56.785 Y49.115 E.01522
G1 X56.887 Y49.557 E.01423
G1 X56.91 Y49.781 E.00707
G1 X56.91 Y50.119 E.0106
G1 X56.844 Y50.565 E.01412
G1 X56.706 Y50.993 E.01413
G1 X56.557 Y51.296 E.01058
G1 X56.437 Y51.487 E.00706
G1 X56.152 Y51.836 E.01413
G1 X55.903 Y52.064 E.0106
G1 X55.53 Y52.317 E.01412
G1 X55.217 Y52.467 E.01089
G1 X54.892 Y52.576 E.01075
G1 X54.448 Y52.655 E.01413
G1 X53.998 Y52.659 E.01412
G1 X53.553 Y52.59 E.01412
G1 X53.22 Y52.486 E.01094
G1 X41.835 Y48.137 E.38213
G1 X41.419 Y48.423 E.01582
G1 X41.419 Y52.628 E.13184
G1 X41.57 Y52.864 E.00877
G1 X42.749 Y53.414 E.04082
G1 X42.681 Y53.723 E.00992
G1 X38.608 Y53.723 E.12771
G1 X38.608 Y38.608 E.47393
G1 X40.915 Y38.608 E.07234
G1 X40.915 Y36.301 E.07234
G1 X49.109 Y36.301 E.25692
G1 X49.109 Y38.713 E.07564
M204 S1250
G1 E-2.24 F4200
;WIPE_START
G1 F7200
G1 X49.109 Y37.067 E-.912
;WIPE_END
G1 E-.048 F4200
G1 Z.4 F9000
G1 X56.482 Y51.075
G1 Z.2
G1 E3.2 F2400
M204 S800
G1 F1200
G1 X56.482 Y49.286 E.0561
G1 X56.419 Y49.096 E.00625
G1 X56.296 Y48.827 E.00928
G1 X56.063 Y48.471 E.01335
G1 X56.063 Y51.422 E.09253
G1 X55.838 Y51.669 E.01048
G1 X55.644 Y51.835 E.00801
G1 X55.644 Y48.058 E.11842
G1 X55.225 Y47.795 E.01551
G1 X55.225 Y52.092 E.13474
G1 X54.806 Y52.247 E.01401
G1 X54.806 Y47.562 E.14691
G1 X54.387 Y47.329 E.01503
G1 X54.387 Y52.319 E.15646
G1 X53.968 Y52.316 E.01314
G1 X53.968 Y47.096 E.16367
G1 X53.549 Y46.862 E.01503
G1 X53.549 Y52.237 E.16853
G1 X53.13 Y52.088 E.01395
G1 X53.13 Y46.629 E.17115
G1 X52.711 Y46.396 E.01503
G1 X52.711 Y51.928 E.17345
G1 X52.292 Y51.768 E.01406
G1 X52.292 Y46.163 E.17574
G1 X51.873 Y45.93 E.01503
G1 X51.873 Y51.608 E.17803
G1 X51.454 Y51.448 E.01406
M73 P1 R66
G1 X51.454 Y45.697 E.18032
G1 X51.035 Y45.464 E.01503
G1 X51.035 Y51.288 E.18262
G1 X50.616 Y51.128 E.01406
G1 X50.616 Y45.23 E.18491
G1 X50.197 Y44.997 E.01503
G1 X50.197 Y50.968 E.1872
G1 X49.778 Y50.808 E.01406
G1 X49.778 Y44.764 E.18949
G1 X49.359 Y44.531 E.01503
G1 X49.359 Y50.648 E.19179
G1 X48.94 Y50.488 E.01406
G1 X48.94 Y44.298 E.19408
G1 X48.521 Y44.065 E.01503
G1 X48.521 Y50.328 E.19637
G1 X48.102 Y50.168 E.01406
G1 X48.102 Y43.832 E.19866
G1 X47.683 Y43.598 E.01503
G1 X47.683 Y50.008 E.20096
G1 X47.264 Y49.848 E.01406
G1 X47.264 Y43.365 E.20325
G1 X46.845 Y43.132 E.01503
G1 X46.845 Y49.688 E.20554
G1 X46.426 Y49.527 E.01406
G1 X46.426 Y42.899 E.20783
G1 X46.007 Y42.666 E.01503
G1 X46.007 Y49.367 E.21013
G1 X45.588 Y49.207 E.01406
G1 X45.588 Y42.433 E.21242
G1 X45.169 Y42.199 E.01503
G1 X45.169 Y49.047 E.21471
G1 X44.75 Y48.887 E.01406
G1 X44.75 Y41.966 E.217
G1 X44.543 Y41.851 E.00745
G1 X44.461 Y40.993 E.02701
G1 X44.75 Y40.751 E.01184
G1 X44.75 Y36.64 E.12888
G1 X45.169 Y36.64 E.01314
G1 X45.169 Y40.399 E.11786
G1 X45.588 Y40.047 E.01715
G1 X45.588 Y36.64 E.10683
G1 X46.007 Y36.64 E.01314
G1 X46.007 Y39.696 E.09581
G1 X46.426 Y39.344 E.01715
G1 X46.426 Y36.64 E.08479
G1 X46.845 Y36.64 E.01314
G1 X46.845 Y38.993 E.07376
G1 X47.264 Y38.641 E.01715
G1 X47.264 Y36.64 E.06274
G1 X47.683 Y36.64 E.01314
G1 X47.683 Y38.29 E.05172
G1 X47.895 Y38.112 E.00865
G1 X48.102 Y38.085 E.00657
G1 X48.102 Y36.64 E.0453
G1 X48.521 Y36.64 E.01314
G1 X48.521 Y38.309 E.05231
M204 S1250
G1 E-2.24 F4200
;WIPE_START
G1 F7200
G1 X48.521 Y36.663 E-.912
;WIPE_END
G1 E-.048 F4200
G1 Z.4 F9000
G1 X44.332 Y48.909
G1 Z.2
G1 E3.2 F2400
M204 S800
G1 F1200
G1 X44.332 Y36.64 E.38468
G1 X43.913 Y36.64 E.01314
G1 X43.913 Y48.567 E.37397
G1 X43.494 Y48.407 E.01406
G1 X43.494 Y36.64 E.36895
G1 X43.075 Y36.64 E.01314
G1 X43.075 Y48.247 E.36393
G1 X42.656 Y48.087 E.01406
G1 X42.656 Y36.64 E.35891
G1 X42.237 Y36.64 E.01314
G1 X42.237 Y47.927 E.35389
G1 X41.818 Y47.767 E.01406
G1 X41.818 Y36.64 E.34888
G1 X41.399 Y36.64 E.01314
G1 X41.399 Y48.025 E.35697
G1 X41.08 Y48.245 E.01214
G1 X41.08 Y52.727 E.14054
G1 X41.336 Y53.13 E.01498
G1 X41.399 Y53.159 E.00215
G1 X41.399 Y53.384 E.00705
G1 X41.818 Y53.384 E.01314
G1 X41.818 Y53.167 E.0068
M204 S1250
G1 X40.98 Y53.553 F9000
M204 S800
G1 F1200
G1 X40.98 Y38.947 E.45797
G1 X40.561 Y38.947 E.01314
G1 X40.561 Y53.384 E.45265
G1 X40.142 Y53.384 E.01314
G1 X40.142 Y38.947 E.45265
G1 X39.723 Y38.947 E.01314
G1 X39.723 Y53.384 E.45265
G1 X39.304 Y53.384 E.01314
G1 X39.304 Y38.778 E.45797
M204 S1250
G1 E-2.24 F4200
;WIPE_START
G1 F7200
G1 X39.304 Y40.423 E-.912
;WIPE_END
G1 E-.048 F4200
G1 Z.4 F9000
G1 X90.636 Y74.96
G1 Z.2
G1 E3.2 F2400
M204 S800
;TYPE:Perimeter
G1 F1200
G1 X102.846 Y74.96 E.38284
G1 X107.213 Y82.524 E.27388
G1 X101.563 Y92.312 E.35434
G1 X100.654 Y92.312 E.0285
G1 X90.666 Y75.012 E.62634
M204 S1250
G1 X91.289 Y75.337 F9000
M204 S800
;TYPE:External perimeter
G1 F1200
G1 X102.628 Y75.337 E.35553
G1 X106.778 Y82.524 E.26022
G1 X101.345 Y91.934 E.34069
G1 X100.871 Y91.934 E.01484
G1 X91.319 Y75.389 E.59903
M204 S1250
G1 X91.217 Y74.943 F9000
G1 E-2.24 F4200
;WIPE_START
G1 F7200
G1 X92.965 Y75.381 E-.912
;WIPE_END
G1 E-.048 F4200
G1 Z.4 F9000
G1 X93.603 Y62.489
G1 Z.2
G1 E3.2 F2400
M204 S800
;TYPE:Perimeter
G1 F1200
G1 X96.398 Y63.792 E.09672
G1 X102.022 Y73.534 E.35269
G1 X89.812 Y73.534 E.38284
G1 X88.908 Y71.967 E.05674
G1 X83.361 Y69.38 E.1919
G1 X83.319 Y68.426 E.02995
G1 X93.551 Y62.519 E.37043
M204 S1250
G1 X93.621 Y62.913 F9000
M204 S800
;TYPE:External perimeter
G1 F1200
G1 X96.131 Y64.084 E.08683
G1 X101.369 Y73.157 E.32848
G1 X90.03 Y73.157 E.35553
G1 X89.175 Y71.675 E.05364
G1 X83.727 Y69.135 E.18845
G1 X83.706 Y68.638 E.0156
G1 X93.569 Y62.943 E.3571
M204 S1250
G1 X93.856 Y62.59 F9000
M73 P1 R65
G1 E-2.24 F4200
;WIPE_START
G1 F7200
G1 X95.073 Y63.613 E-.912
;WIPE_END
G1 E-.048 F4200
G1 Z.4 F9000
G1 X91.129 Y62.27
G1 Z.2
G1 E3.2 F2400
M204 S800
;TYPE:Perimeter
G1 F1200
G1 X80.846 Y68.208 E.37231
G1 X72.927 Y64.515 E.27395
G1 X72.927 Y52.848 E.36582
G1 X91.088 Y61.316 E.62827
G1 X91.127 Y62.21 E.02807
M204 S1250
G1 X90.743 Y62.058 F9000
M204 S800
;TYPE:External perimeter
G1 F1200
G1 X80.827 Y67.783 E.35898
G1 X73.304 Y64.275 E.26027
G1 X73.304 Y53.44 E.33973
G1 X90.721 Y61.561 E.60254
G1 X90.74 Y61.998 E.01372
M204 S1250
G1 X91.006 Y62.359 F9000
G1 E-2.24 F4200
;WIPE_START
G1 F7200
G1 X89.318 Y62.828 E-.912
;WIPE_END
G1 E-.048 F4200
G1 Z.4 F9000
G1 X108.036 Y83.95
G1 Z.2
G1 E3.2 F2400
M204 S800
;TYPE:Perimeter
G1 F1200
G1 X118.054 Y101.302 E.62822
G1 X117.6 Y102.089 E.0285
G1 X106.299 Y102.089 E.35434
G1 X101.931 Y94.524 E.27388
G1 X108.006 Y84.002 E.38095
M204 S1250
G1 X108.036 Y84.704 F9000
M204 S800
;TYPE:External perimeter
G1 F1200
G1 X117.619 Y101.302 E.60091
G1 X117.382 Y101.712 E.01484
G1 X106.517 Y101.712 E.34069
G1 X102.367 Y94.524 E.26023
G1 X108.006 Y84.756 E.35365
M204 S1250
G1 X108.302 Y84.406 F9000
M73 P2 R65
G1 E-2.24 F4200
;WIPE_START
G1 F7200
G1 X108.833 Y86.179 E-.912
;WIPE_END
G1 E-.048 F4200
G1 Z.4 F9000
G1 X108.031 Y103.515
G1 Z.2
G1 E3.2 F2400
M204 S800
;TYPE:Perimeter
G1 F1200
G1 X119.332 Y103.515 E.35434
G1 X123.699 Y111.08 E.27388
G1 X118.049 Y120.867 E.35434
G1 X117.14 Y120.867 E.0285
G1 X107.576 Y104.302 E.59973
G1 X108.001 Y103.567 E.02661
M204 S1250
G1 X108.249 Y103.892 F9000
M204 S800
;TYPE:External perimeter
G1 F1200
G1 X119.114 Y103.892 E.34069
G1 X123.264 Y111.08 E.26023
G1 X117.831 Y120.49 E.34069
G1 X117.358 Y120.49 E.01484
G1 X108.012 Y104.302 E.58607
G1 X108.219 Y103.944 E.01296
M204 S1250
G1 X108.182 Y103.498 F9000
G1 E-2.24 F4200
;WIPE_START
G1 F7200
G1 X109.864 Y103.936 E-.912
;WIPE_END
G1 E-.048 F4200
G1 Z.4 F9000
G1 X124.523 Y112.506
G1 Z.2
G1 E3.2 F2400
M204 S800
;TYPE:Perimeter
G1 F1200
G1 X134.541 Y129.857 E.62822
G1 X134.086 Y130.644 E.0285
G1 X122.785 Y130.644 E.35434
G1 X118.418 Y123.08 E.27388
G1 X124.493 Y112.558 E.38095
M204 S1250
G1 X124.51 Y113.281 F9000
M204 S800
;TYPE:External perimeter
G1 F1200
G1 X124.523 Y113.26 E.00077
G1 X134.105 Y129.857 E.60091
G1 X133.869 Y130.267 E.01484
G1 X123.003 Y130.267 E.34069
G1 X118.853 Y123.08 E.26023
G1 X124.48 Y113.333 E.35288
M204 S1250
G1 X124.495 Y113.262 F9000
G1 E-2.24 F4200
;WIPE_START
G1 F7200
G1 X124.523 Y113.26 E-.04685
G1 X125.303 Y114.612 E-.86515
;WIPE_END
G1 E-.048 F4200
G1 Z.4 F9000
G1 X71.501 Y63.85
G1 Z.2
G1 E3.2 F2400
M204 S800
;TYPE:Perimeter
G1 F1200
G1 X71.501 Y52.183 E.36582
G1 X63.583 Y48.49 E.27395
G1 X57.654 Y51.916 E.21469
G1 X57.739 Y51.778 E.00508
G1 X57.992 Y51.172 E.02058
G1 X58.142 Y50.528 E.02072
G1 X58.184 Y49.869 E.02071
G1 X58.118 Y49.224 E.02034
G1 X58.04 Y48.888 E.01081
G1 X57.917 Y48.513 E.01238
G1 X57.635 Y47.926 E.0204
G1 X57.254 Y47.386 E.02072
G1 X56.799 Y46.925 E.02032
G1 X56.526 Y46.71 E.01089
G1 X56.151 Y46.472 E.01393
G1 X46.699 Y41.212 E.33914
G1 X48.36 Y39.819 E.06798
G1 X95.472 Y61.787 E1.62986
G1 X96.215 Y62.191 E.02651
G1 X96.656 Y62.492 E.01676
G1 X97.292 Y63.028 E.02607
G1 X97.663 Y63.413 E.01676
G1 X98.177 Y64.067 E.02607
G1 X98.474 Y64.535 E.01739
G1 X136.407 Y130.238 E2.37876
G1 X136.681 Y130.763 E.01857
G1 X136.995 Y131.564 E.02696
G1 X137.148 Y132.127 E.01831
G1 X137.251 Y132.695 E.01811
G1 X137.305 Y133.27 E.01811
G1 X137.309 Y133.848 E.01811
G1 X137.263 Y134.424 E.01811
G1 X137.168 Y134.993 E.01811
G1 X137.025 Y135.553 E.01811
G1 X136.834 Y136.098 E.01811
G1 X136.597 Y136.625 E.01811
G1 X136.315 Y137.129 E.01811
G1 X135.818 Y137.831 E.02695
G1 X135.431 Y138.268 E.01831
G1 X135.013 Y138.666 E.01811
G1 X134.33 Y139.189 E.02695
G1 X133.826 Y139.495 E.01851
G1 X133.047 Y139.858 E.02696
G1 X132.5 Y140.045 E.01811
G1 X131.94 Y140.185 E.01811
G1 X131.082 Y140.303 E.02715
G1 X130.216 Y140.309 E.02716
G1 X129.641 Y140.251 E.01811
G1 X129.074 Y140.144 E.01811
G1 X128.517 Y139.988 E.01811
G1 X127.977 Y139.785 E.01811
G1 X127.208 Y139.4 E.02696
G1 X126.713 Y139.079 E.01851
G1 X126.045 Y138.537 E.02695
G1 X125.634 Y138.123 E.01831
G1 X125.098 Y137.451 E.02696
G1 X124.78 Y136.951 E.01857
G1 X87.898 Y73.069 E2.31283
G1 X42.686 Y51.987 E1.56412
G1 X42.686 Y49.819 E.06798
G1 X52.787 Y53.676 E.339
G1 X53.099 Y53.781 E.01034
G1 X53.585 Y53.888 E.01558
G1 X54.173 Y53.929 E.01848
G1 X53.299 Y54.424 E.03148
G1 X53.341 Y55.382 E.03005
G1 X71.447 Y63.825 E.62639
M204 S1250
G1 X71.124 Y63.258 F9000
M204 S800
;TYPE:External perimeter
G1 F1200
G1 X53.708 Y55.137 E.60254
G1 X53.686 Y54.638 E.01563
G1 X54.759 Y54.03 E.03866
G1 X56.067 Y53.367 E.04599
G1 X57.713 Y52.317 E.06121
G1 X63.601 Y48.915 E.21323
G1 X71.124 Y52.423 E.26027
G1 X71.124 Y63.198 E.33785
M204 S1250
G1 X71.072 Y63.655 F9000
G1 E-2.24 F4200
;WIPE_START
G1 F7200
G1 X69.631 Y62.507 E-.912
;WIPE_END
G1 E-.048 F4200
G1 Z.4 F9000
G1 X87.631 Y73.361
G1 Z.2
G1 E3.2 F2400
M204 S800
G1 F1200
G1 X42.309 Y52.227 E1.56792
G1 X42.309 Y49.271 E.09268
G1 X52.914 Y53.321 E.35592
G1 X53.2 Y53.417 E.00947
G1 X53.639 Y53.514 E.01409
G1 X54.233 Y53.555 E.01869
G1 X54.687 Y53.512 E.01429
G1 X55.127 Y53.396 E.01425
G1 X55.675 Y53.15 E.01883
G1 X56.287 Y52.792 E.02225
G1 X56.754 Y52.445 E.01824
G1 X56.973 Y52.23 E.00962
G1 X57.166 Y51.99 E.00963
G1 X57.402 Y51.605 E.01417
G1 X57.632 Y51.056 E.01868
G1 X57.768 Y50.473 E.01875
G1 X57.806 Y49.877 E.01875
G1 X57.745 Y49.286 E.01862
G1 X57.676 Y48.989 E.00954
G1 X57.566 Y48.654 E.01107
G1 X57.309 Y48.118 E.01864
G1 X56.964 Y47.629 E.01875
G1 X56.547 Y47.207 E.0186
G1 X56.307 Y47.018 E.00957
G1 X55.958 Y46.796 E.01299
G1 X46.037 Y41.276 E.35596
G1 X48.302 Y39.375 E.09268
G1 X95.642 Y61.45 E1.63775
G1 X96.412 Y61.868 E.02747
M73 P3 R65
G1 X96.885 Y62.192 E.01797
G1 X97.55 Y62.753 E.02727
G1 X97.948 Y63.165 E.01797
G1 X98.485 Y63.849 E.02728
G1 X98.796 Y64.34 E.01823
G1 X136.738 Y130.057 E2.37925
G1 X137.023 Y130.603 E.01933
G1 X137.258 Y131.169 E.0192
G1 X137.355 Y131.453 E.00942
G1 X137.516 Y132.044 E.0192
G1 X137.625 Y132.644 E.01913
G1 X137.682 Y133.251 E.01912
G1 X137.686 Y133.862 E.01913
G1 X137.638 Y134.47 E.01913
G1 X137.538 Y135.071 E.01913
G1 X137.386 Y135.662 E.01913
G1 X137.184 Y136.238 E.01913
G1 X136.934 Y136.794 E.01913
G1 X136.637 Y137.327 E.01913
G1 X136.293 Y137.834 E.0192
G1 X136.109 Y138.071 E.00942
G1 X135.703 Y138.53 E.0192
G1 X135.261 Y138.95 E.01913
G1 X134.783 Y139.333 E.0192
G1 X134.536 Y139.505 E.00942
G1 X134.011 Y139.823 E.01927
G1 X133.744 Y139.962 E.00942
G1 X133.184 Y140.21 E.0192
G1 X132.607 Y140.407 E.01913
G1 X132.015 Y140.555 E.01913
G1 X131.41 Y140.651 E.0192
G1 X130.806 Y140.694 E.01899
G1 X130.194 Y140.685 E.0192
G1 X129.587 Y140.624 E.01913
G1 X128.988 Y140.511 E.01912
G1 X128.4 Y140.347 E.01913
G1 X127.829 Y140.133 E.01913
G1 X127.276 Y139.869 E.0192
G1 X127.014 Y139.723 E.00942
G1 X126.498 Y139.389 E.01927
G1 X126.256 Y139.21 E.00942
G1 X125.789 Y138.814 E.0192
G1 X125.358 Y138.38 E.0192
G1 X125.16 Y138.153 E.00942
G1 X124.788 Y137.667 E.0192
G1 X124.457 Y137.147 E.01934
G1 X87.661 Y73.413 E2.30748
M204 S1250
G1 X87.677 Y72.963 F9000
M73 P3 R64
G1 X87.648 Y72.64
M204 S800
;TYPE:Solid infill
G1 F1200
G1 X88.153 Y72.135 E.02239
G1 X88.419 Y72.402 E.01182
G1 X88.153 Y72.669 E.01182
G1 X88.419 Y72.935 E.01182
G1 X88.686 Y72.669 E.01182
G1 X88.953 Y72.935 E.01182
G1 X88.442 Y73.446 E.02264
M204 S1250
G1 X88.637 Y73.784 F9000
M204 S800
G1 F1200
G1 X88.686 Y73.735 E.00217
G1 X88.953 Y74.002 E.01182
G1 X88.832 Y74.122 E.00533
M204 S1250
