; generated by PrusaSlicer 2.4.2 on 2022-05-08 at 11:40:50 UTC


;
;

;
;
; 

; external perimeters extrusion width = 0.45mm
; perimeters extrusion width = 0.45mm
; infill extrusion width = 0.45mm
; solid infill extrusion width = 0.45mm
; top infill extrusion width = 0.40mm
; support material extrusion width = 0.35mm
; first layer extrusion width = 0.42mm

M73 P0 R19
M201 X1250 Y1250 Z400 E5000 ; sets maximum accelerations, mm/sec^2
M203 X180 Y180 Z12 E80 ; sets maximum feedrates, mm / sec
M204 P1250 R1250 T1250 ; sets acceleration (P, T) and retract acceleration (R), mm/sec^2
M205 X8.00 Y8.00 Z2.00 E10.00 ; sets the jerk limits, mm/sec
M205 S0 T0 ; sets the minimum extruding and travel feed rate, mm/sec
M107
;TYPE:Custom
G90 ; use absolute coordinates
M83 ; extruder relative mode
M104 S170 ; set extruder temp for bed leveling
M140 S60 ; set bed temp
M109 R170 ; wait for bed leveling temp
M190 S60 ; wait for bed temp
G28 ; home all without mesh bed level
G29 ; mesh bed leveling 
M104 S215 ; set extruder temp
G92 E0.0
G1 Y-2.0 X179 F2400
G1 Z3 F720
M109 S215 ; wait for extruder temp

; intro line
G1 X170 F1000
G1 Z0.2 F720
G1 X110.0 E8.0 F900
G1 X40.0 E10.0 F700
G92 E0.0

M221 S95 ; set flow
G21 ; set units to millimeters
G90 ; use absolute coordinates
M83 ; use relative distances for extrusion
M900 K0.2 ; Filament gcode LA 1.5
; ; Filament gcode LA 1.0
M107
;LAYER_CHANGE
;Z:0.2
;HEIGHT:0.2
;BEFORE_LAYER_CHANGE
G92 E0.0
;0.2


M73 P0 R18
G1 E-3.2 F4200
M73 P1 R18
G1 Z.2 F9000
;AFTER_LAYER_CHANGE
;0.2
G1 Z.4
G1 X71.533 Y71.533
G1 Z.2
G1 E3.2 F2400
M204 S800
;TYPE:Skirt/Brim
;WIDTH:0.42
G1 F1200
G1 X73.84 Y69.226 E.1023
G1 X75.521 Y68.53 E.05704
G1 X99.865 Y68.53 E.76327
G1 X101.291 Y69.005 E.04714
G1 X110.519 Y75.927 E.36168
G1 X111.33 Y77.024 E.04278
G1 X111.47 Y77.828 E.02559
G1 X111.47 Y97.558 E.6186
G1 X111.219 Y98.621 E.03425
G1 X108.912 Y103.235 E.16175
G1 X108.467 Y103.853 E.02388
G1 X103.853 Y108.467 E.2046
G1 X103.235 Y108.912 E.02388
G1 X98.621 Y111.219 E.16175
G1 X97.558 Y111.47 E.03425
G1 X80.135 Y111.47 E.54626
G1 X79.072 Y111.219 E.03425
G1 X74.458 Y108.912 E.16175
G1 X73.84 Y108.467 E.02388
G1 X69.226 Y103.853 E.2046
G1 X68.53 Y102.172 E.05704
G1 X68.53 Y77.828 E.76327
G1 X68.781 Y76.765 E.03425
M73 P2 R18
G1 X71.088 Y72.151 E.16175
G1 X71.498 Y71.582 E.022
M204 S1250
; printing object sucker_arm_top_fastening_1.stl id:0 copy 0
G1 E-2.24 F4200
;WIPE_START
G1 F7200
G1 X72.658 Y70.415 E-.912
;WIPE_END
G1 E-.048 F4200
G1 Z.4 F9000
G1 X99.865 Y73.214
G1 Z.2
G1 E3.2 F2400
M204 S800
;TYPE:Support material
G1 F1200
G1 X102.172 Y73.214 E.07234
G1 X102.172 Y75.521 E.07234
G1 X104.479 Y75.521 E.07234
G1 X104.479 Y77.828 E.07234
G1 X109.093 Y77.828 E.14467
G1 X109.093 Y97.558 E.6186
G1 X106.786 Y97.558 E.07234
G1 X106.786 Y102.172 E.14467
G1 X104.479 Y102.172 E.07234
G1 X104.479 Y104.479 E.07234
G1 X102.172 Y104.479 E.07234
G1 X102.172 Y106.786 E.07234
G1 X97.558 Y106.786 E.14467
G1 X97.558 Y109.093 E.07234
G1 X80.135 Y109.093 E.54626
G1 X80.135 Y106.786 E.07234
G1 X75.521 Y106.786 E.14467
G1 X75.521 Y104.479 E.07234
G1 X73.214 Y104.479 E.07234
G1 X73.214 Y102.172 E.07234
G1 X70.907 Y102.172 E.07234
G1 X70.907 Y77.828 E.76327
G1 X73.214 Y77.828 E.07234
G1 X73.214 Y73.214 E.14467
G1 X75.521 Y73.214 E.07234
G1 X75.521 Y70.907 E.07234
G1 X99.865 Y70.907 E.76327
G1 X99.865 Y73.158 E.07056
M204 S1250
G1 X89.22 Y76.255 F9000
M204 S800
G1 F1200
G1 X88.632 Y76.268 E.01844
G1 X88.056 Y76.306 E.01811
G1 X87.471 Y76.37 E.01844
G1 X86.89 Y76.459 E.01844
G1 X86.313 Y76.574 E.01844
G1 X85.741 Y76.713 E.01844
G1 X85.167 Y76.881 E.01877
G1 X84.61 Y77.07 E.01844
G1 X84.062 Y77.283 E.01844
G1 X83.524 Y77.52 E.01844
G1 X82.979 Y77.79 E.01905
G1 X81.987 Y78.363 E.03593
G1 X81.498 Y78.69 E.01844
G1 X81.023 Y79.038 E.01844
G1 X80.565 Y79.405 E.01844
G1 X80.114 Y79.8 E.01877
G1 X79.69 Y80.207 E.01844
G1 X79.283 Y80.632 E.01844
G1 X78.896 Y81.074 E.01844
G1 X78.534 Y81.525 E.01811
G1 X78.186 Y81.999 E.01844
G1 X77.859 Y82.488 E.01844
G1 X77.554 Y82.991 E.01844
G1 X77.266 Y83.515 E.01877
G1 X77.006 Y84.043 E.01844
G1 X76.769 Y84.581 E.01844
G1 X76.556 Y85.13 E.01844
G1 X76.368 Y85.687 E.01844
G1 X76.203 Y86.251 E.01844
G1 X76.064 Y86.823 E.01844
G1 X75.951 Y87.389 E.01811
G1 X75.861 Y87.97 E.01844
G1 X75.797 Y88.555 E.01844
G1 X75.758 Y89.152 E.01877
G1 X75.745 Y89.74 E.01844
G1 X75.758 Y90.328 E.01844
G1 X75.796 Y90.905 E.01811
G1 X75.86 Y91.489 E.01844
G1 X75.949 Y92.071 E.01844
G1 X76.064 Y92.648 E.01844
G1 X76.206 Y93.229 E.01877
G1 X76.371 Y93.794 E.01844
G1 X76.56 Y94.351 E.01844
G1 X76.773 Y94.899 E.01844
G1 X77.01 Y95.437 E.01844
G1 X77.28 Y95.981 E.01905
G1 X77.854 Y96.974 E.03593
G1 X78.18 Y97.463 E.01844
G1 X78.528 Y97.937 E.01844
G1 X78.896 Y98.396 E.01844
G1 X79.283 Y98.838 E.01844
G1 X79.69 Y99.263 E.01844
G1 X80.115 Y99.67 E.01844
G1 X80.565 Y100.065 E.01877
G1 X81.023 Y100.433 E.01844
G1 X81.498 Y100.78 E.01844
G1 X81.987 Y101.107 E.01844
G1 X82.507 Y101.421 E.01905
G1 X83.524 Y101.95 E.03594
G1 X84.062 Y102.187 E.01844
G1 X84.62 Y102.404 E.01877
G1 X85.177 Y102.593 E.01844
G1 X85.741 Y102.757 E.01844
G1 X86.313 Y102.897 E.01844
M73 P3 R18
G1 X86.89 Y103.011 E.01844
G1 X87.471 Y103.101 E.01844
G1 X88.045 Y103.163 E.01811
G1 X88.632 Y103.202 E.01844
G1 X89.22 Y103.215 E.01844
G1 X89.819 Y103.202 E.01877
G1 X90.405 Y103.163 E.01844
G1 X90.99 Y103.099 E.01844
G1 X91.571 Y103.009 E.01844
G1 X92.138 Y102.897 E.01811
G1 X92.709 Y102.757 E.01844
G1 X93.274 Y102.593 E.01844
G1 X93.831 Y102.404 E.01844
G1 X94.379 Y102.191 E.01844
G1 X94.927 Y101.95 E.01877
G1 X95.454 Y101.69 E.01844
G1 X95.97 Y101.407 E.01844
G1 X96.473 Y101.101 E.01844
G1 X96.961 Y100.774 E.01844
G1 X97.436 Y100.426 E.01844
G1 X97.894 Y100.058 E.01844
G1 X98.336 Y99.67 E.01844
G1 X98.753 Y99.271 E.01811
G1 X99.16 Y98.846 E.01844
G1 X99.548 Y98.404 E.01844
G1 X99.917 Y97.945 E.01844
G1 X100.27 Y97.463 E.01877
G1 X100.597 Y96.973 E.01844
G1 X100.902 Y96.471 E.01844
G1 X101.185 Y95.955 E.01844
G1 X101.44 Y95.437 E.01811
G1 X101.677 Y94.899 E.01844
G1 X101.894 Y94.341 E.01877
G1 X102.083 Y93.784 E.01844
G1 X102.247 Y93.219 E.01844
G1 X102.387 Y92.648 E.01844
G1 X102.501 Y92.071 E.01844
G1 X102.591 Y91.489 E.01844
G1 X102.654 Y90.915 E.01811
G1 X102.692 Y90.328 E.01844
G1 X102.705 Y89.74 E.01844
G1 X102.692 Y89.142 E.01877
G1 X102.654 Y88.555 E.01844
G1 X102.589 Y87.97 E.01844
G1 X102.5 Y87.389 E.01844
G1 X102.387 Y86.823 E.01811
G1 X102.247 Y86.251 E.01844
G1 X102.083 Y85.687 E.01844
G1 X101.894 Y85.13 E.01844
G1 X101.681 Y84.581 E.01844
G1 X101.44 Y84.034 E.01877
G1 X101.18 Y83.506 E.01844
G1 X100.897 Y82.991 E.01844
G1 X100.591 Y82.488 E.01844
G1 X100.265 Y81.999 E.01844
G1 X99.917 Y81.525 E.01844
G1 X99.535 Y81.052 E.01905
G1 X98.761 Y80.207 E.03594
G1 X98.336 Y79.8 E.01844
G1 X97.894 Y79.412 E.01844
G1 X97.436 Y79.044 E.01844
G1 X96.953 Y78.69 E.01877
G1 X96.464 Y78.363 E.01844
G1 X95.97 Y78.064 E.01811
G1 X95.454 Y77.781 E.01844
G1 X94.927 Y77.52 E.01844
G1 X94.389 Y77.283 E.01844
G1 X93.841 Y77.07 E.01844
G1 X93.274 Y76.877 E.01877
G1 X92.709 Y76.713 E.01844
G1 X92.138 Y76.574 E.01844
G1 X91.561 Y76.459 E.01844
G1 X90.98 Y76.37 E.01844
G1 X90.395 Y76.306 E.01844
G1 X89.277 Y76.256 E.0351
M204 S1250
G1 E-2.24 F4200
;WIPE_START
G1 F7200
G1 X90.395 Y76.306 E-.62037
G1 X90.918 Y76.363 E-.29163
;WIPE_END
G1 E-.048 F4200
G1 Z.4 F9000
G1 X108.435 Y97.388
G1 Z.2
G1 E3.2 F2400
M204 S800
G1 F1200
G1 X108.435 Y78.168 E.60264
G1 X108.016 Y78.168 E.01314
G1 X108.016 Y97.218 E.59732
G1 X107.597 Y97.218 E.01314
G1 X107.597 Y78.168 E.59732
G1 X107.178 Y78.168 E.01314
G1 X107.178 Y97.218 E.59732
G1 X106.759 Y97.218 E.01314
G1 X106.759 Y78.168 E.59732
G1 X106.34 Y78.168 E.01314
G1 X106.34 Y101.832 E.74199
G1 X105.921 Y101.832 E.01314
G1 X105.921 Y78.168 E.74199
G1 X105.502 Y78.168 E.01314
G1 X105.502 Y101.832 E.74199
G1 X105.083 Y101.832 E.01314
M73 P4 R18
G1 X105.083 Y78.168 E.74199
G1 X104.664 Y78.168 E.01314
G1 X104.664 Y101.832 E.74199
G1 X104.245 Y101.832 E.01314
G1 X104.245 Y78.168 E.74199
G1 X104.139 Y78.168 E.00332
G1 X104.139 Y75.861 E.07234
G1 X103.826 Y75.861 E.00982
G1 X103.826 Y104.139 E.88667
G1 X103.407 Y104.139 E.01314
G1 X103.407 Y75.861 E.88667
G1 X102.988 Y75.861 E.01314
G1 X102.988 Y104.139 E.88667
G1 X102.569 Y104.139 E.01314
G1 X102.569 Y93.328 E.33899
G1 X102.402 Y93.899 E.01867
G1 X102.15 Y94.619 E.02391
G1 X102.15 Y104.139 E.29851
G1 X101.832 Y104.139 E.00997
G1 X101.832 Y106.447 E.07234
G1 X101.731 Y106.447 E.00317
G1 X101.731 Y95.614 E.33966
G1 X101.312 Y96.428 E.02872
G1 X101.312 Y106.447 E.31413
G1 X100.893 Y106.447 E.01314
G1 X100.893 Y97.139 E.29182
G1 X100.474 Y97.759 E.02345
G1 X100.474 Y106.447 E.2724
G1 X100.055 Y106.447 E.01314
M73 P5 R18
G1 X100.055 Y98.315 E.25497
G1 X99.636 Y98.818 E.02054
G1 X99.636 Y106.447 E.23919
G1 X99.217 Y106.447 E.01314
G1 X99.217 Y99.277 E.2248
G1 X98.799 Y99.697 E.01861
G1 X98.799 Y106.447 E.21162
G1 X98.38 Y106.447 E.01314
G1 X98.38 Y100.084 E.1995
G1 X97.961 Y100.44 E.01725
G1 X97.961 Y106.447 E.18833
G1 X97.542 Y106.447 E.01314
G1 X97.542 Y100.77 E.17799
G1 X97.123 Y101.075 E.01625
G1 X97.123 Y108.754 E.24076
G1 X96.704 Y108.754 E.01314
G1 X96.704 Y101.355 E.23198
G1 X96.285 Y101.612 E.01542
G1 X96.285 Y108.754 E.22391
G1 X95.866 Y108.754 E.01314
G1 X95.866 Y101.851 E.21643
G1 X95.447 Y102.072 E.01485
G1 X95.447 Y108.754 E.2095
G1 X95.028 Y108.754 E.01314
G1 X95.028 Y102.277 E.20308
G1 X94.609 Y102.461 E.01435
G1 X94.609 Y108.754 E.1973
G1 X94.19 Y108.754 E.01314
G1 X94.19 Y102.629 E.19204
G1 X93.771 Y102.783 E.014
G1 X93.771 Y108.754 E.18721
G1 X93.352 Y108.754 E.01314
G1 X93.352 Y102.924 E.1828
G1 X92.933 Y103.046 E.01368
G1 X92.933 Y108.754 E.17897
G1 X92.514 Y108.754 E.01314
G1 X92.514 Y103.154 E.17556
G1 X92.095 Y103.251 E.01348
G1 X92.095 Y108.754 E.17252
G1 X91.676 Y108.754 E.01314
G1 X91.676 Y103.335 E.16991
G1 X91.257 Y103.401 E.0133
G1 X91.257 Y108.754 E.16781
G1 X90.838 Y108.754 E.01314
G1 X90.838 Y103.457 E.16606
G1 X90.419 Y103.503 E.01321
G1 X90.419 Y108.754 E.16464
G1 X90 Y108.754 E.01314
G1 X90 Y103.53 E.16378
G1 X89.581 Y103.547 E.01315
G1 X89.581 Y108.754 E.16325
G1 X89.162 Y108.754 E.01314
G1 X89.162 Y103.553 E.16305
G1 X88.743 Y103.544 E.01314
G1 X88.743 Y108.754 E.16334
G1 X88.324 Y108.754 E.01314
G1 X88.324 Y103.522 E.16404
G1 X87.905 Y103.489 E.01318
G1 X87.905 Y108.754 E.16506
G1 X87.486 Y108.754 E.01314
G1 X87.486 Y103.444 E.16649
G1 X87.067 Y103.382 E.01328
G1 X87.067 Y108.754 E.16843
G1 X86.648 Y108.754 E.01314
G1 X86.648 Y103.309 E.1707
G1 X86.229 Y103.226 E.0134
G1 X86.229 Y108.754 E.17332
G1 X85.81 Y108.754 E.01314
M73 P6 R17
G1 X85.81 Y103.123 E.17653
G1 X85.391 Y103.009 E.01362
G1 X85.391 Y108.754 E.18013
G1 X84.972 Y108.754 E.01314
G1 X84.972 Y102.882 E.1841
G1 X84.553 Y102.74 E.01387
G1 X84.553 Y108.754 E.18856
G1 X84.134 Y108.754 E.01314
G1 X84.134 Y102.58 E.19358
G1 X83.715 Y102.405 E.01423
G1 X83.715 Y108.754 E.19905
G1 X83.296 Y108.754 E.01314
G1 X83.296 Y102.216 E.20497
G1 X82.877 Y102.01 E.01465
G1 X82.877 Y108.754 E.21145
G1 X82.458 Y108.754 E.01314
G1 X82.458 Y101.782 E.2186
G1 X82.039 Y101.536 E.01523
G1 X82.039 Y108.754 E.22631
G1 X81.62 Y108.754 E.01314
G1 X81.62 Y101.27 E.23463
G1 X81.201 Y100.984 E.01591
G1 X81.201 Y108.754 E.24361
G1 X80.783 Y108.754 E.01314
G1 X80.783 Y100.675 E.2533
G1 X80.364 Y100.339 E.01684
G1 X80.364 Y106.447 E.19151
G1 X79.945 Y106.447 E.01314
G1 X79.945 Y99.973 E.20298
G1 X79.526 Y99.576 E.01809
G1 X79.526 Y106.447 E.21542
G1 X79.107 Y106.447 E.01314
G1 X79.107 Y99.145 E.22894
G1 X78.688 Y98.674 E.01977
G1 X78.688 Y106.447 E.24371
G1 X78.269 Y106.447 E.01314
G1 X78.269 Y98.157 E.25992
G1 X77.85 Y97.579 E.02238
G1 X77.85 Y106.447 E.27804
G1 X77.431 Y106.447 E.01314
G1 X77.431 Y96.931 E.29836
G1 X77.012 Y96.197 E.02648
G1 X77.012 Y106.447 E.32136
G1 X76.593 Y106.447 E.01314
G1 X76.593 Y95.331 E.34853
G1 X76.454 Y95.015 E.01079
G1 X76.174 Y94.269 E.025
G1 X76.174 Y106.447 E.38182
G1 X75.861 Y106.447 E.00982
G1 X75.861 Y104.139 E.07234
G1 X75.755 Y104.139 E.00332
G1 X75.755 Y92.814 E.35511
G1 X75.617 Y92.144 E.02145
G1 X75.523 Y91.53 E.01947
G1 X75.459 Y90.948 E.01835
G1 X75.42 Y90.347 E.0189
G1 X75.406 Y89.744 E.01891
G1 X75.42 Y89.123 E.01947
G1 X75.459 Y88.522 E.0189
G1 X75.523 Y87.94 E.01835
G1 X75.617 Y87.327 E.01947
G1 X75.755 Y86.657 E.02144
G1 X75.755 Y73.553 E.41084
G1 X75.336 Y73.553 E.01314
M73 P7 R17
G1 X75.336 Y104.139 E.959
G1 X74.917 Y104.139 E.01314
G1 X74.917 Y73.553 E.959
G1 X74.498 Y73.553 E.01314
G1 X74.498 Y104.139 E.959
G1 X74.079 Y104.139 E.01314
G1 X74.079 Y73.553 E.959
G1 X73.66 Y73.553 E.01314
G1 X73.66 Y104.139 E.959
G1 X73.553 Y104.139 E.00334
G1 X73.553 Y101.832 E.07234
G1 X73.241 Y101.832 E.0098
G1 X73.241 Y78.168 E.74199
G1 X72.822 Y78.168 E.01314
G1 X72.822 Y101.832 E.74199
G1 X72.403 Y101.832 E.01314
G1 X72.403 Y78.168 E.74199
G1 X71.984 Y78.168 E.01314
M73 P8 R17
G1 X71.984 Y101.832 E.74199
G1 X71.565 Y101.832 E.01314
G1 X71.565 Y77.998 E.74731
M204 S1250
G1 E-2.24 F4200
;WIPE_START
G1 F7200
G1 X71.565 Y79.644 E-.912
;WIPE_END
G1 E-.048 F4200
G1 Z.4 F9000
G1 X102.569 Y86.87
G1 Z.2
G1 E3.2 F2400
M204 S800
G1 F1200
G1 X102.569 Y75.861 E.3452
G1 X102.15 Y75.861 E.01314
G1 X102.15 Y84.851 E.2819
G1 X101.731 Y83.857 E.03384
G1 X101.731 Y73.553 E.32305
G1 X101.312 Y73.553 E.01314
G1 X101.312 Y83.042 E.29752
G1 X100.893 Y82.331 E.02588
G1 X100.893 Y73.553 E.27521
G1 X100.474 Y73.553 E.01314
G1 X100.474 Y81.711 E.25579
G1 X100.055 Y81.156 E.02182
G1 X100.055 Y73.553 E.23837
G1 X99.636 Y73.553 E.01314
G1 X99.636 Y80.652 E.22258
G1 X99.217 Y80.193 E.01948
G1 X99.217 Y71.246 E.28053
G1 X98.799 Y71.246 E.01314
G1 X98.799 Y79.773 E.26735
G1 X98.38 Y79.387 E.01787
G1 X98.38 Y71.246 E.25523
G1 X97.961 Y71.246 E.01314
G1 X97.961 Y79.03 E.24405
G1 X97.542 Y78.701 E.01671
G1 X97.542 Y71.246 E.23372
G1 X97.123 Y71.246 E.01314
G1 X97.123 Y78.395 E.22415
G1 X96.704 Y78.115 E.0158
G1 X96.704 Y71.246 E.21537
G1 X96.285 Y71.246 E.01314
G1 X96.285 Y77.858 E.2073
G1 X95.866 Y77.619 E.01512
G1 X95.866 Y71.246 E.19982
G1 X95.447 Y71.246 E.01314
G1 X95.447 Y77.398 E.19289
G1 X95.028 Y77.194 E.01462
M73 P9 R17
G1 X95.028 Y71.246 E.18647
G1 X94.609 Y71.246 E.01314
G1 X94.609 Y77.009 E.18069
G1 X94.19 Y76.842 E.01415
G1 X94.19 Y71.246 E.17543
G1 X93.771 Y71.246 E.01314
G1 X93.771 Y76.688 E.1706
G1 X93.352 Y76.547 E.01386
G1 X93.352 Y71.246 E.16619
G1 X92.933 Y71.246 E.01314
G1 X92.933 Y76.425 E.16236
G1 X92.514 Y76.316 E.01357
G1 X92.514 Y71.246 E.15895
G1 X92.095 Y71.246 E.01314
G1 X92.095 Y76.219 E.15591
G1 X91.676 Y76.136 E.01339
G1 X91.676 Y71.246 E.1533
G1 X91.257 Y71.246 E.01314
G1 X91.257 Y76.069 E.15121
G1 X90.838 Y76.013 E.01325
G1 X90.838 Y71.246 E.14945
G1 X90.419 Y71.246 E.01314
G1 X90.419 Y75.968 E.14803
G1 X90 Y75.94 E.01316
G1 X90 Y71.246 E.14717
G1 X89.581 Y71.246 E.01314
G1 X89.581 Y75.923 E.14664
G1 X89.162 Y75.917 E.01314
G1 X89.162 Y71.246 E.14644
G1 X88.743 Y71.246 E.01314
G1 X88.743 Y75.926 E.14673
G1 X88.324 Y75.948 E.01316
G1 X88.324 Y71.246 E.14743
G1 X87.905 Y71.246 E.01314
G1 X87.905 Y75.981 E.14845
G1 X87.486 Y76.027 E.01322
G1 X87.486 Y71.246 E.14988
G1 X87.067 Y71.246 E.01314
G1 X87.067 Y76.088 E.15182
G1 X86.648 Y76.161 E.01333
G1 X86.648 Y71.246 E.15409
G1 X86.229 Y71.246 E.01314
G1 X86.229 Y76.245 E.15671
G1 X85.81 Y76.347 E.01352
G1 X85.81 Y71.246 E.15993
G1 X85.391 Y71.246 E.01314
G1 X85.391 Y76.461 E.16352
G1 X84.972 Y76.588 E.01372
G1 X84.972 Y71.246 E.16749
G1 X84.553 Y71.246 E.01314
G1 X84.553 Y76.73 E.17195
G1 X84.134 Y76.891 E.01406
G1 X84.134 Y71.246 E.17698
G1 X83.715 Y71.246 E.01314
G1 X83.715 Y77.065 E.18244
G1 X83.296 Y77.254 E.01441
G1 X83.296 Y71.246 E.18837
G1 X82.877 Y71.246 E.01314
G1 X82.877 Y77.461 E.19485
G1 X82.458 Y77.689 E.01496
G1 X82.458 Y71.246 E.20199
G1 X82.039 Y71.246 E.01314
G1 X82.039 Y77.935 E.2097
G1 X81.62 Y78.2 E.01555
G1 X81.62 Y71.246 E.21802
G1 X81.201 Y71.246 E.01314
G1 X81.201 Y78.486 E.227
G1 X80.783 Y78.795 E.01633
G1 X80.783 Y71.246 E.23669
G1 X80.364 Y71.246 E.01314
G1 X80.364 Y79.132 E.24724
G1 X79.945 Y79.498 E.01744
M73 P10 R17
