; generated by PrusaSlicer 2.4.1 on 2022-05-05 at 17:22:31 UTC


;
;

;
;
; 

; external perimeters extrusion width = 0.45mm
; perimeters extrusion width = 0.45mm
; infill extrusion width = 0.45mm
; solid infill extrusion width = 0.45mm
; top infill extrusion width = 0.40mm
; support material extrusion width = 0.35mm
; first layer extrusion width = 0.42mm

M73 P0 R88
M201 X1250 Y1250 Z400 E5000 ; sets maximum accelerations, mm/sec^2
M203 X180 Y180 Z12 E80 ; sets maximum feedrates, mm / sec
M204 P1250 R1250 T1250 ; sets acceleration (P, T) and retract acceleration (R), mm/sec^2
M205 X8.00 Y8.00 Z2.00 E10.00 ; sets the jerk limits, mm/sec
M205 S0 T0 ; sets the minimum extruding and travel feed rate, mm/sec
M107
;TYPE:Custom
G90 ; use absolute coordinates
M83 ; extruder relative mode
M104 S170 ; set extruder temp for bed leveling
M140 S60 ; set bed temp
M109 R170 ; wait for bed leveling temp
M190 S60 ; wait for bed temp
G28 ; home all without mesh bed level
G29 ; mesh bed leveling 
M104 S215 ; set extruder temp
G92 E0.0
G1 Y-2.0 X179 F2400
G1 Z3 F720
M109 S215 ; wait for extruder temp

; intro line
G1 X170 F1000
G1 Z0.2 F720
G1 X110.0 E8.0 F900
G1 X40.0 E10.0 F700
G92 E0.0

M221 S95 ; set flow
G21 ; set units to millimeters
G90 ; use absolute coordinates
M83 ; use relative distances for extrusion
M900 K0.2 ; Filament gcode LA 1.5
; ; Filament gcode LA 1.0
M107
;LAYER_CHANGE
;Z:0.2
;HEIGHT:0.2
;BEFORE_LAYER_CHANGE
G92 E0.0
;0.2


G1 E-3.2 F4200
G1 Z.2 F9000
;AFTER_LAYER_CHANGE
;0.2
G1 Z.4
G1 X29.187 Y37.828
G1 Z.2
G1 E3.2 F2400
M204 S800
;TYPE:Skirt/Brim
;WIDTH:0.42
G1 F1200
G1 X40.489 Y31.304 E.40917
G1 X41.169 Y31.017 E.02314
G1 X41.894 Y30.884 E.02313
G1 X137.88 Y30.876 E3.00957
G1 X138.672 Y30.974 E.02502
G1 X139.454 Y31.273 E.02626
G1 X150.967 Y37.923 E.41686
G1 X151.55 Y38.403 E.02369
G1 X151.998 Y38.98 E.02289
G1 X152.323 Y39.669 E.02388
G1 X152.478 Y40.36 E.02222
G1 X152.501 Y139.292 E3.10194
G1 X152.426 Y139.954 E.02088
M73 P0 R87
G1 X152.241 Y140.546 E.01945
G1 X151.921 Y141.14 E.02115
G1 X151.534 Y141.613 E.01916
G1 X150.814 Y142.171 E.02858
G1 X139.473 Y148.717 E.41058
G1 X138.692 Y149.021 E.02627
G1 X137.867 Y149.124 E.02606
G1 X41.893 Y149.115 E3.00923
G1 X41.186 Y148.988 E.02251
G1 X40.508 Y148.707 E.023
G1 X29.187 Y142.172 E.40986
G1 X28.483 Y141.63 E.02784
G1 X28.079 Y141.14 E.01994
G1 X27.752 Y140.53 E.02169
G1 X27.56 Y139.887 E.02105
G1 X27.499 Y139.24 E.02036
G1 X27.499 Y40.753 E3.088
G1 X27.559 Y40.116 E.02005
G1 X27.735 Y39.511 E.01975
G1 X28.054 Y38.897 E.0217
G1 X28.445 Y38.409 E.0196
G1 X29.14 Y37.865 E.02766
M204 S1250
; printing object support_cross.stl id:0 copy 0
G1 E-2.24 F4200
;WIPE_START
G1 F7200
G1 X30.565 Y37.041 E-.912
;WIPE_END
G1 E-.048 F4200
G1 Z.4 F9000
G1 X88.27 Y88.356
G1 Z.2
G1 E3.2 F2400
M204 S800
;TYPE:Perimeter
G1 F1200
G1 X88.624 Y88.046 E.01475
G1 X88.99 Y87.835 E.01327
G1 X89.388 Y87.69 E.01326
G1 X89.889 Y87.613 E.01591
G1 X90.318 Y87.631 E.01346
G1 X90.817 Y87.753 E.01611
G1 X91.279 Y87.981 E.01612
G1 X91.619 Y88.242 E.01346
G1 X91.954 Y88.624 E.01591
G1 X92.165 Y88.99 E.01327
G1 X92.31 Y89.388 E.01326
G1 X92.387 Y89.889 E.01591
G1 X92.369 Y90.318 E.01346
G1 X92.247 Y90.817 E.01611
G1 X92.019 Y91.279 E.01612
G1 X91.758 Y91.619 E.01346
G1 X91.376 Y91.954 E.01591
G1 X91.01 Y92.165 E.01327
G1 X90.612 Y92.31 E.01326
G1 X90.111 Y92.387 E.01591
G1 X89.682 Y92.369 E.01346
G1 X89.183 Y92.247 E.01611
G1 X88.721 Y92.019 E.01612
G1 X88.381 Y91.758 E.01346
G1 X88.046 Y91.376 E.01591
G1 X87.835 Y91.01 E.01327
G1 X87.69 Y90.612 E.01326
G1 X87.613 Y90.111 E.01591
G1 X87.631 Y89.682 E.01346
G1 X87.753 Y89.183 E.01611
G1 X87.981 Y88.721 E.01612
G1 X88.228 Y88.399 E.01275
M204 S1250
G1 X88.519 Y88.64 F9000
M204 S800
;TYPE:External perimeter
G1 F1200
G1 X88.844 Y88.354 E.01358
G1 X89.15 Y88.178 E.01107
G1 X89.482 Y88.057 E.01106
G1 X89.91 Y87.991 E.01359
G1 X90.265 Y88.006 E.01113
G1 X90.688 Y88.11 E.01365
G1 X91.079 Y88.303 E.01366
G1 X91.36 Y88.519 E.01113
G1 X91.646 Y88.844 E.01358
G1 X91.822 Y89.15 E.01107
G1 X91.943 Y89.482 E.01106
G1 X92.009 Y89.91 E.01359
G1 X91.994 Y90.265 E.01113
G1 X91.89 Y90.688 E.01365
G1 X91.697 Y91.079 E.01366
G1 X91.481 Y91.36 E.01113
G1 X91.156 Y91.646 E.01358
G1 X90.85 Y91.822 E.01107
G1 X90.518 Y91.943 E.01106
G1 X90.09 Y92.009 E.01359
G1 X89.735 Y91.994 E.01113
G1 X89.312 Y91.89 E.01365
G1 X88.921 Y91.697 E.01366
G1 X88.64 Y91.481 E.01113
G1 X88.354 Y91.156 E.01358
G1 X88.178 Y90.85 E.01107
G1 X88.057 Y90.518 E.01106
G1 X87.991 Y90.09 E.01359
G1 X88.006 Y89.735 E.01113
G1 X88.11 Y89.312 E.01365
G1 X88.303 Y88.921 E.01366
G1 X88.482 Y88.687 E.00925
M204 S1250
G1 X88.401 Y88.257 F9000
G1 E-2.24 F4200
;WIPE_START
G1 F7200
G1 X88.844 Y88.354 E-.27273
G1 X89.15 Y88.178 E-.1956
G1 X89.482 Y88.057 E-.19554
G1 X89.91 Y87.991 E-.24012
G1 X89.924 Y87.992 E-.00802
;WIPE_END
G1 E-.048 F4200
G1 Z.4 F9000
G1 X77.386 Y89.939
G1 Z.2
G1 E3.2 F2400
M204 S800
;TYPE:Perimeter
G1 F1200
G1 X77.355 Y90.409 E.01475
G1 X77.244 Y90.823 E.01347
G1 X77.019 Y91.279 E.01592
G1 X76.762 Y91.614 E.01326
G1 X76.45 Y91.9 E.01326
G1 X76.016 Y92.163 E.01591
G1 X75.612 Y92.31 E.01346
G1 X75.111 Y92.387 E.01591
G1 X74.682 Y92.369 E.01347
G1 X74.182 Y92.246 E.01612
G1 X73.721 Y92.019 E.01612
G1 X73.386 Y91.762 E.01326
G1 X73.1 Y91.45 E.01326
G1 X72.833 Y91.01 E.01612
G1 X72.668 Y90.524 E.01612
G1 X72.612 Y90.098 E.01345
G1 X72.645 Y89.594 E.01583
G1 X72.756 Y89.177 E.01355
G1 X72.981 Y88.721 E.01593
G1 X73.238 Y88.386 E.01326
G1 X73.55 Y88.1 E.01326
G1 X73.984 Y87.837 E.01591
G1 X74.388 Y87.69 E.01346
G1 X74.889 Y87.613 E.01591
G1 X75.318 Y87.631 E.01346
G1 X75.818 Y87.754 E.01612
G1 X76.279 Y87.981 E.01612
G1 X76.614 Y88.238 E.01326
G1 X76.9 Y88.55 E.01326
G1 X77.167 Y88.99 E.01612
G1 X77.332 Y89.476 E.01612
G1 X77.385 Y89.879 E.01274
M204 S1250
G1 X77.009 Y89.914 F9000
M204 S800
;TYPE:External perimeter
G1 F1200
G1 X76.981 Y90.347 E.01359
G1 X76.889 Y90.69 E.01114
G1 X76.697 Y91.079 E.01359
G1 X76.483 Y91.359 E.01106
G1 X76.222 Y91.597 E.01106
G1 X75.852 Y91.822 E.01358
G1 X75.518 Y91.943 E.01114
G1 X75.09 Y92.009 E.01358
G1 X74.735 Y91.994 E.01114
G1 X74.312 Y91.89 E.01366
G1 X73.921 Y91.697 E.01366
G1 X73.642 Y91.483 E.01106
G1 X73.403 Y91.222 E.01107
G1 X73.177 Y90.85 E.01366
G1 X73.037 Y90.438 E.01366
G1 X72.991 Y90.086 E.01113
G1 X73.019 Y89.656 E.01351
G1 X73.111 Y89.31 E.01121
G1 X73.303 Y88.921 E.01359
G1 X73.518 Y88.641 E.01106
G1 X73.778 Y88.403 E.01106
G1 X74.148 Y88.178 E.01358
G1 X74.482 Y88.057 E.01114
G1 X74.91 Y87.991 E.01359
G1 X75.265 Y88.006 E.01113
G1 X75.688 Y88.11 E.01366
G1 X76.079 Y88.303 E.01366
G1 X76.358 Y88.517 E.01106
G1 X76.597 Y88.778 E.01107
G1 X76.823 Y89.15 E.01366
G1 X76.963 Y89.562 E.01366
G1 X77.001 Y89.855 E.00925
M204 S1250
G1 X77.363 Y90.102 F9000
G1 E-2.24 F4200
;WIPE_START
G1 F7200
G1 X76.981 Y90.347 E-.27286
G1 X76.889 Y90.69 E-.19682
G1 X76.697 Y91.079 E-.24015
G1 X76.483 Y91.359 E-.19551
G1 X76.474 Y91.367 E-.00665
;WIPE_END
G1 E-.048 F4200
G1 Z.4 F9000
G1 X74.454 Y102.676
G1 Z.2
G1 E3.2 F2400
M204 S800
;TYPE:Perimeter
G1 F1200
G1 X74.966 Y102.613 E.01618
G1 X105.117 Y102.615 E.94537
G1 X105.524 Y102.668 E.01286
G1 X106.01 Y102.833 E.01612
G1 X106.45 Y103.1 E.01611
G1 X106.762 Y103.386 E.01326
G1 X107.019 Y103.721 E.01326
G1 X107.244 Y104.177 E.01592
G1 X107.355 Y104.591 E.01346
G1 X107.388 Y105.098 E.01591
G1 X107.332 Y105.524 E.01346
G1 X107.169 Y106.004 E.01592
G1 X106.957 Y106.37 E.01326
G1 X106.69 Y106.69 E.01306
G1 X106.37 Y106.957 E.01306
G1 X106.004 Y107.169 E.01325
G1 X105.526 Y107.331 E.01583
G1 X105.117 Y107.385 E.01294
G1 X74.883 Y107.385 E.94798
G1 X74.476 Y107.332 E.01286
G1 X73.996 Y107.169 E.01592
G1 X73.63 Y106.957 E.01326
G1 X73.306 Y106.685 E.01326
G1 X72.988 Y106.29 E.01592
G1 X72.793 Y105.914 E.01326
G1 X72.665 Y105.511 E.01326
G1 X72.609 Y105 E.01611
G1 X72.665 Y104.489 E.01612
G1 X72.793 Y104.086 E.01326
G1 X72.988 Y103.71 E.01326
G1 X73.31 Y103.31 E.01612
G1 X73.71 Y102.988 E.01612
G1 X74.086 Y102.793 E.01326
G1 X74.396 Y102.695 E.01021
M204 S1250
G1 X74.567 Y103.036 F9000
M204 S800
;TYPE:External perimeter
G1 F1200
G1 X74.986 Y102.99 E.01323
G1 X105.092 Y102.992 E.94395
G1 X105.438 Y103.037 E.01092
G1 X105.85 Y103.177 E.01366
G1 X106.222 Y103.403 E.01365
G1 X106.482 Y103.642 E.01107
G1 X106.697 Y103.921 E.01106
G1 X106.889 Y104.31 E.01359
G1 X106.981 Y104.653 E.01113
G1 X107.009 Y105.085 E.01358
G1 X106.963 Y105.438 E.01113
G1 X106.824 Y105.848 E.01359
G1 X106.647 Y106.153 E.01106
G1 X106.422 Y106.422 E.01099
G1 X106.153 Y106.647 E.01099
G1 X105.848 Y106.824 E.01106
G1 X105.44 Y106.962 E.01351
G1 X105.092 Y107.008 E.011
G1 X74.908 Y107.008 E.94642
G1 X74.562 Y106.963 E.01092
G1 X74.152 Y106.824 E.01359
G1 X73.847 Y106.647 E.01106
G1 X73.576 Y106.42 E.01106
G1 X73.305 Y106.083 E.01359
G1 X73.142 Y105.769 E.01107
G1 X73.036 Y105.433 E.01106
G1 X72.989 Y105 E.01365
G1 X73.036 Y104.567 E.01366
G1 X73.142 Y104.23 E.01106
G1 X73.305 Y103.917 E.01106
G1 X73.578 Y103.578 E.01366
G1 X73.917 Y103.305 E.01366
G1 X74.231 Y103.142 E.01107
G1 X74.51 Y103.054 E.00918
M204 S1250
G1 X74.693 Y102.656 F9000
G1 E-2.24 F4200
;WIPE_START
G1 F7200
G1 X74.986 Y102.99 E-.26651
G1 X76.151 Y102.99 E-.64549
;WIPE_END
G1 E-.048 F4200
G1 Z.4 F9000
G1 X74.441 Y77.32
G1 Z.2
G1 E3.2 F2400
M204 S800
;TYPE:Perimeter
G1 F1200
G1 X73.996 Y77.169 E.01475
G1 X73.63 Y76.957 E.01325
G1 X73.306 Y76.685 E.01327
G1 X72.988 Y76.29 E.01592
G1 X72.793 Y75.914 E.01326
G1 X72.665 Y75.511 E.01326
G1 X72.609 Y75 E.01611
G1 X72.665 Y74.489 E.01612
G1 X72.793 Y74.086 E.01326
G1 X72.988 Y73.71 E.01326
G1 X73.31 Y73.31 E.01612
G1 X73.71 Y72.988 E.01612
G1 X74.086 Y72.793 E.01326
G1 X74.489 Y72.665 E.01326
G1 X74.966 Y72.613 E.01504
G1 X105.117 Y72.615 E.94537
G1 X105.524 Y72.668 E.01286
M73 P1 R87
G1 X106.01 Y72.833 E.01612
G1 X106.45 Y73.1 E.01611
G1 X106.762 Y73.386 E.01326
G1 X107.019 Y73.721 E.01326
G1 X107.244 Y74.177 E.01592
G1 X107.355 Y74.591 E.01346
G1 X107.388 Y75.098 E.01591
G1 X107.332 Y75.524 E.01346
G1 X107.169 Y76.004 E.01592
G1 X106.957 Y76.37 E.01326
G1 X106.69 Y76.69 E.01306
G1 X106.37 Y76.957 E.01306
G1 X106.004 Y77.169 E.01325
G1 X105.526 Y77.331 E.01583
G1 X105.117 Y77.385 E.01294
G1 X74.883 Y77.385 E.94798
G1 X74.499 Y77.335 E.01214
M204 S1250
G1 X74.563 Y76.963 F9000
M204 S800
;TYPE:External perimeter
G1 F1200
G1 X74.152 Y76.824 E.01359
G1 X73.847 Y76.647 E.01106
G1 X73.576 Y76.42 E.01107
G1 X73.305 Y76.083 E.01359
G1 X73.142 Y75.769 E.01107
G1 X73.036 Y75.433 E.01106
G1 X72.989 Y75 E.01365
G1 X73.036 Y74.567 E.01366
G1 X73.142 Y74.23 E.01106
G1 X73.305 Y73.917 E.01106
G1 X73.578 Y73.578 E.01366
G1 X73.917 Y73.305 E.01366
G1 X74.231 Y73.142 E.01107
G1 X74.567 Y73.036 E.01106
G1 X74.986 Y72.99 E.01323
G1 X105.092 Y72.992 E.94395
G1 X105.438 Y73.037 E.01092
G1 X105.85 Y73.177 E.01366
G1 X106.222 Y73.403 E.01365
G1 X106.482 Y73.642 E.01107
G1 X106.697 Y73.921 E.01106
G1 X106.889 Y74.31 E.01359
G1 X106.981 Y74.653 E.01113
G1 X107.009 Y75.085 E.01358
G1 X106.963 Y75.438 E.01113
G1 X106.824 Y75.848 E.01359
G1 X106.647 Y76.153 E.01106
G1 X106.422 Y76.422 E.01099
G1 X106.153 Y76.647 E.01099
G1 X105.848 Y76.824 E.01106
G1 X105.44 Y76.962 E.01351
G1 X105.092 Y77.008 E.011
G1 X74.908 Y77.008 E.94642
G1 X74.622 Y76.971 E.00903
M204 S1250
G1 X74.292 Y77.258 F9000
G1 E-2.24 F4200
;WIPE_START
G1 F7200
G1 X74.152 Y76.824 E-.27284
G1 X73.847 Y76.647 E-.1954
G1 X73.576 Y76.42 E-.19562
G1 X73.305 Y76.083 E-.24011
G1 X73.298 Y76.07 E-.00803
;WIPE_END
G1 E-.048 F4200
G1 Z.4 F9000
G1 X102.773 Y89.143
G1 Z.2
G1 E3.2 F2400
M204 S800
;TYPE:Perimeter
G1 F1200
G1 X102.981 Y88.721 E.01475
G1 X103.238 Y88.386 E.01326
G1 X103.55 Y88.1 E.01326
G1 X103.984 Y87.837 E.01591
G1 X104.388 Y87.69 E.01346
G1 X104.889 Y87.613 E.01591
G1 X105.318 Y87.631 E.01346
G1 X105.818 Y87.754 E.01612
G1 X106.279 Y87.981 E.01612
G1 X106.614 Y88.238 E.01326
G1 X106.9 Y88.55 E.01326
G1 X107.167 Y88.99 E.01612
G1 X107.332 Y89.476 E.01612
G1 X107.388 Y89.902 E.01345
G1 X107.355 Y90.406 E.01583
G1 X107.244 Y90.823 E.01355
G1 X107.019 Y91.279 E.01593
G1 X106.762 Y91.614 E.01326
G1 X106.45 Y91.9 E.01326
G1 X106.016 Y92.163 E.01591
G1 X105.612 Y92.31 E.01346
G1 X105.111 Y92.387 E.01591
G1 X104.682 Y92.369 E.01347
G1 X104.182 Y92.246 E.01612
G1 X103.721 Y92.019 E.01612
G1 X103.386 Y91.762 E.01326
G1 X103.1 Y91.45 E.01326
G1 X102.833 Y91.01 E.01612
G1 X102.668 Y90.524 E.01612
G1 X102.612 Y90.098 E.01346
G1 X102.645 Y89.591 E.01592
G1 X102.75 Y89.199 E.01275
M204 S1250
G1 X103.111 Y89.31 F9000
M204 S800
;TYPE:External perimeter
G1 F1200
G1 X103.303 Y88.921 E.01359
G1 X103.517 Y88.641 E.01106
G1 X103.778 Y88.403 E.01106
G1 X104.148 Y88.178 E.01358
G1 X104.482 Y88.057 E.01114
G1 X104.91 Y87.991 E.01359
G1 X105.265 Y88.006 E.01113
G1 X105.688 Y88.11 E.01366
G1 X106.079 Y88.303 E.01366
G1 X106.358 Y88.517 E.01106
G1 X106.597 Y88.778 E.01107
G1 X106.823 Y89.15 E.01366
G1 X106.963 Y89.562 E.01366
G1 X107.009 Y89.914 E.01113
G1 X106.981 Y90.344 E.01351
G1 X106.889 Y90.69 E.01121
G1 X106.697 Y91.079 E.01359
G1 X106.482 Y91.359 E.01106
G1 X106.222 Y91.597 E.01106
G1 X105.852 Y91.822 E.01358
G1 X105.518 Y91.943 E.01114
G1 X105.09 Y92.009 E.01358
G1 X104.735 Y91.994 E.01114
G1 X104.312 Y91.89 E.01366
G1 X103.921 Y91.697 E.01366
G1 X103.642 Y91.483 E.01106
G1 X103.403 Y91.222 E.01107
G1 X103.177 Y90.85 E.01366
G1 X103.037 Y90.438 E.01366
G1 X102.991 Y90.086 E.01113
G1 X103.019 Y89.653 E.01359
G1 X103.095 Y89.368 E.00925
M204 S1250
G1 X102.856 Y89.002 F9000
G1 E-2.24 F4200
;WIPE_START
G1 F7200
G1 X103.303 Y88.921 E-.27284
G1 X103.517 Y88.641 E-.19551
G1 X103.778 Y88.403 E-.19555
G1 X104.148 Y88.178 E-.24006
G1 X104.162 Y88.173 E-.00803
;WIPE_END
G1 E-.048 F4200
G1 Z.4 F9000
G1 X130.688 Y122.667
G1 Z.2
G1 E3.2 F2400
M204 S800
;TYPE:Perimeter
G1 F1200
G1 X130.85 Y122.424 E.00917
G1 X131.056 Y122.189 E.00979
G1 X131.291 Y121.983 E.0098
G1 X131.551 Y121.809 E.00979
G1 X131.831 Y121.671 E.0098
G1 X132.127 Y121.571 E.0098
G1 X132.433 Y121.51 E.00977
G1 X132.747 Y121.489 E.00989
G1 X133.249 Y121.542 E.01581
G1 X133.562 Y121.633 E.01022
G1 X133.848 Y121.759 E.0098
G1 X134.115 Y121.921 E.0098
G1 X134.359 Y122.117 E.00979
G1 X134.575 Y122.342 E.00979
G1 X134.756 Y122.589 E.0096
G1 X142.373 Y135.782 E.47764
G1 X142.552 Y136.243 E.01551
G1 X142.627 Y136.666 E.01347
G1 X142.616 Y137.174 E.01592
G1 X142.524 Y137.587 E.01326
G1 X142.362 Y137.977 E.01326
G1 X142.08 Y138.399 E.01591
G1 X141.776 Y138.703 E.01347
G1 X141.354 Y138.985 E.01591
G1 X140.964 Y139.147 E.01326
G1 X140.557 Y139.237 E.01306
G1 X140.141 Y139.255 E.01306
G1 X139.728 Y139.201 E.01306
G1 X139.331 Y139.076 E.01306
G1 X138.961 Y138.883 E.01306
G1 X138.626 Y138.626 E.01326
G1 X138.291 Y138.244 E.01591
G1 X130.624 Y124.975 E.48051
G1 X130.501 Y124.695 E.00959
G1 X130.413 Y124.395 E.0098
G1 X130.366 Y124.086 E.00979
G1 X130.359 Y123.774 E.0098
G1 X130.393 Y123.463 E.00979
G1 X130.47 Y123.147 E.0102
G1 X130.659 Y122.719 E.01466
M204 S1250
G1 X131.002 Y122.876 F9000
M204 S800
;TYPE:External perimeter
G1 F1200
G1 X131.15 Y122.654 E.00839
G1 X131.324 Y122.456 E.00824
G1 X131.521 Y122.283 E.00825
G1 X131.74 Y122.137 E.00824
G1 X131.976 Y122.02 E.00824
G1 X132.225 Y121.936 E.00825
G1 X132.482 Y121.884 E.00823
G1 X132.74 Y121.867 E.0081
G1 X133.176 Y121.913 E.01373
G1 X133.433 Y121.988 E.0084
G1 X133.674 Y122.094 E.00825
G1 X133.898 Y122.231 E.00825
G1 X134.103 Y122.395 E.00824
G1 X134.285 Y122.585 E.00824
G1 X134.439 Y122.796 E.00818
G1 X142.032 Y135.946 E.4761
G1 X142.187 Y136.345 E.01344
G1 X142.249 Y136.695 E.01114
G1 X142.239 Y137.128 E.01359
G1 X142.163 Y137.473 E.01106
G1 X142.028 Y137.799 E.01106
G1 X141.787 Y138.159 E.01358
G1 X141.536 Y138.41 E.01114
G1 X141.176 Y138.651 E.01359
G1 X140.85 Y138.786 E.01106
G1 X140.508 Y138.862 E.01099
G1 X140.157 Y138.877 E.01099
G1 X139.81 Y138.831 E.01099
G1 X139.476 Y138.726 E.01099
G1 X139.165 Y138.564 E.01099
G1 X138.885 Y138.349 E.01106
G1 X138.599 Y138.023 E.01358
G1 X130.961 Y124.804 E.4787
G1 X130.856 Y124.565 E.00817
G1 X130.782 Y124.313 E.00825
G1 X130.742 Y124.053 E.00824
G1 X130.737 Y123.79 E.00825
