; generated by PrusaSlicer 2.3.3 on 2022-01-25 at 22:33:26 UTC


;
;

;
;
; 

; external perimeters extrusion width = 0.45mm
; perimeters extrusion width = 0.45mm
; infill extrusion width = 0.45mm
; solid infill extrusion width = 0.45mm
; top infill extrusion width = 0.40mm
; support material extrusion width = 0.35mm
; first layer extrusion width = 0.42mm

M73 P0 R23
M201 X1250 Y1250 Z400 E5000 ; sets maximum accelerations, mm/sec^2
M203 X180 Y180 Z12 E80 ; sets maximum feedrates, mm/sec
M204 P1250 R1250 T1250 ; sets acceleration (P, T) and retract acceleration (R), mm/sec^2
M205 X8.00 Y8.00 Z2.00 E10.00 ; sets the jerk limits, mm/sec
M205 S0 T0 ; sets the minimum extruding and travel feed rate, mm/sec
M107
;TYPE:Custom
G90 ; use absolute coordinates
M83 ; extruder relative mode
M104 S170 ; set extruder temp for bed leveling
M140 S60 ; set bed temp
M109 R170 ; wait for bed leveling temp
M190 S60 ; wait for bed temp
G28 ; home all without mesh bed level
G29 ; mesh bed leveling 
M104 S215 ; set extruder temp
G92 E0.0
G1 Y-2.0 X179 F2400
G1 Z3 F720
M109 S215 ; wait for extruder temp

; intro line
G1 X170 F1000
G1 Z0.2 F720
G1 X110.0 E8.0 F900
G1 X40.0 E10.0 F700
G92 E0.0

M221 S95 ; set flow
G21 ; set units to millimeters
G90 ; use absolute coordinates
M83 ; use relative distances for extrusion
M900 K0.2 ; Filament gcode LA 1.5
; ; Filament gcode LA 1.0
;LAYER_CHANGE
;Z:0.2
;HEIGHT:0.2
;BEFORE_LAYER_CHANGE
G92 E0.0
;0.2


M73 P1 R23
G1 E-3.20000 F4200.000
G1 Z0.200 F9000.000
;AFTER_LAYER_CHANGE
;0.2
G1 Z0.400
G1 X59.636 Y73.553
G1 Z0.200
G1 E3.20000 F2400.000
M204 S800
;TYPE:Skirt
;WIDTH:0.42
G1 F1200.000
G1 X60.084 Y73.302 E0.01609
G1 X61.066 Y72.946 E0.03276
G1 X61.554 Y72.894 E0.01538
G1 X118.695 Y72.894 E1.79160
G1 X119.433 Y73.012 E0.02343
G1 X120.098 Y73.352 E0.02343
G1 X122.348 Y75.567 E0.09900
G1 X122.701 Y76.081 E0.01953
G1 X123.956 Y78.722 E0.09170
G1 X124.097 Y79.487 E0.02437
G1 X124.098 Y85.954 E0.20276
G1 X124.024 Y86.503 E0.01740
G1 X123.823 Y87.025 E0.01752
G1 X123.230 Y87.932 E0.03398
G1 X121.868 Y89.299 E0.06050
G1 X102.247 Y106.302 E0.81405
G1 X101.706 Y106.653 E0.02024
G1 X100.650 Y107.054 E0.03543
G1 X100.162 Y107.106 E0.01538
G1 X79.570 Y107.106 E0.64565
G1 X79.064 Y107.047 E0.01597
G1 X78.585 Y106.884 E0.01585
G1 X78.025 Y106.519 E0.02095
G1 X58.876 Y89.660 E0.79994
G1 X56.462 Y87.237 E0.10725
G1 X56.144 Y86.750 E0.01823
G1 X55.954 Y86.197 E0.01835
G1 X55.902 Y79.498 E0.21004
G1 X56.062 Y78.676 E0.02626
G1 X57.512 Y75.947 E0.09691
G1 X58.081 Y75.069 E0.03278
G1 X59.593 Y73.595 E0.06622
M204 S1250
; printing object support_side_120.stl id:0 copy 0
G1 E-2.24000 F4200.000
;WIPE_START
G1 F7200.000
G1 X60.084 Y73.302 E-0.31664
G1 X61.066 Y72.946 E-0.57910
G1 X61.096 Y72.943 E-0.01626
;WIPE_END
G1 E-0.04800 F4200.000
G1 Z0.400 F9000.000
G1 X60.481 Y87.906
G1 Z0.200
G1 E3.20000 F2400.000
M204 S800
;TYPE:Support material
G1 F1200.000
G1 X58.279 Y85.705 E0.09763
G1 X58.279 Y84.943 E0.02389
G1 X61.073 Y87.737 E0.12389
G1 X61.233 Y87.737 E0.00502
G1 X62.540 Y89.044 E0.05796
G1 X63.142 Y89.044 E0.01887
G1 X58.279 Y84.181 E0.21563
G1 X58.279 Y83.419 E0.02389
G1 X66.518 Y91.658 E0.36532
G1 X67.280 Y91.658 E0.02389
G1 X58.279 Y82.657 E0.39910
M73 P2 R23
G1 X58.279 Y81.895 E0.02389
G1 X69.349 Y92.965 E0.49084
G1 X70.111 Y92.965 E0.02389
G1 X58.279 Y81.134 E0.52462
G1 X58.279 Y80.372 E0.02389
G1 X72.179 Y94.272 E0.61636
G1 X72.941 Y94.272 E0.02389
G1 X58.279 Y79.610 E0.65014
G1 X58.279 Y79.532 E0.00243
G1 X58.621 Y79.190 E0.01517
G1 X76.487 Y97.056 E0.79219
M204 S1250
G1 E-2.24000 F4200.000
;WIPE_START
G1 F7200.000
G1 X75.323 Y95.892 E-0.91200
;WIPE_END
G1 E-0.04800 F4200.000
G1 Z0.400 F9000.000
G1 X77.716 Y102.856
G1 Z0.200
G1 E3.20000 F2400.000
M204 S800
G1 F1200.000
G1 X79.589 Y104.729 E0.08305
G1 X80.351 Y104.729 E0.02389
G1 X77.885 Y102.264 E0.10931
G1 X77.885 Y101.502 E0.02389
G1 X81.112 Y104.729 E0.14309
G1 X81.874 Y104.729 E0.02389
G1 X77.885 Y100.740 E0.17687
G1 X77.885 Y99.978 E0.02389
G1 X82.636 Y104.729 E0.21065
G1 X83.398 Y104.729 E0.02389
G1 X77.885 Y99.216 E0.24443
G1 X77.885 Y98.454 E0.02389
G1 X84.160 Y104.729 E0.27821
G1 X84.921 Y104.729 E0.02389
G1 X59.002 Y78.809 E1.14930
G1 X59.383 Y78.428 E0.01689
G1 X85.683 Y104.729 E1.16620
G1 X86.445 Y104.729 E0.02389
G1 X59.586 Y77.870 E1.19097
M73 P2 R22
G1 X59.586 Y77.108 E0.02389
G1 X87.207 Y104.729 E1.22475
M73 P3 R22
G1 X87.969 Y104.729 E0.02389
G1 X59.872 Y76.632 E1.24584
G1 X60.253 Y76.251 E0.01689
G1 X88.731 Y104.729 E1.26273
G1 X89.492 Y104.729 E0.02389
G1 X60.634 Y75.870 E1.27962
G1 X61.015 Y75.489 E0.01689
G1 X90.254 Y104.729 E1.29651
G1 X91.016 Y104.729 E0.02389
G1 X61.559 Y75.271 E1.30619
G1 X62.320 Y75.271 E0.02389
G1 X91.778 Y104.729 E1.30619
M73 P4 R22
G1 X92.540 Y104.729 E0.02389
G1 X63.082 Y75.271 E1.30619
G1 X63.844 Y75.271 E0.02389
G1 X93.301 Y104.729 E1.30619
G1 X94.063 Y104.729 E0.02389
G1 X64.606 Y75.271 E1.30619
G1 X65.368 Y75.271 E0.02389
G1 X94.825 Y104.729 E1.30619
G1 X95.587 Y104.729 E0.02389
G1 X66.130 Y75.271 E1.30619
G1 X66.484 Y75.271 E0.01110
G1 X67.791 Y76.578 E0.05796
G1 X68.198 Y76.578 E0.01279
G1 X96.349 Y104.729 E1.24823
G1 X97.111 Y104.729 E0.02389
G1 X68.960 Y76.578 E1.24823
M73 P5 R22
G1 X69.098 Y76.578 E0.00431
G1 X71.712 Y79.193 E0.11592
G1 X72.336 Y79.193 E0.01958
G1 X97.872 Y104.729 E1.13232
G1 X98.634 Y104.729 E0.02389
G1 X74.405 Y80.500 E1.07436
G1 X75.167 Y80.500 E0.02389
G1 X99.396 Y104.729 E1.07436
G1 X100.158 Y104.729 E0.02389
G1 X78.543 Y83.114 E0.95844
G1 X79.305 Y83.114 E0.02389
G1 X100.694 Y104.503 E0.94842
G1 X101.075 Y104.122 E0.01689
G1 X81.374 Y84.421 E0.87357
G1 X82.135 Y84.421 E0.02389
G1 X101.455 Y103.741 E0.85668
G1 X101.836 Y103.360 E0.01689
G1 X84.204 Y85.728 E0.78184
M73 P6 R22
G1 X84.783 Y85.728 E0.01814
G1 X86.090 Y87.035 E0.05796
G1 X86.273 Y87.035 E0.00575
G1 X102.115 Y102.876 E0.70243
G1 X102.115 Y102.115 E0.02389
G1 X87.035 Y87.035 E0.66865
G1 X87.797 Y87.035 E0.02389
G1 X102.115 Y101.353 E0.63487
G1 X102.115 Y100.591 E0.02389
G1 X88.559 Y87.035 E0.60109
G1 X89.320 Y87.035 E0.02389
G1 X102.115 Y99.829 E0.56731
G1 X102.115 Y99.067 E0.02389
G1 X90.082 Y87.035 E0.53353
G1 X90.844 Y87.035 E0.02389
G1 X102.115 Y98.306 E0.49975
G1 X102.115 Y97.853 E0.01417
G1 X102.269 Y97.699 E0.00687
G1 X91.606 Y87.035 E0.47284
G1 X92.368 Y87.035 E0.02389
G1 X102.650 Y97.318 E0.45595
G1 X103.031 Y96.937 E0.01689
G1 X93.130 Y87.035 E0.43906
G1 X93.891 Y87.035 E0.02389
G1 X103.743 Y96.886 E0.43682
G1 X104.389 Y96.886 E0.02027
G1 X104.447 Y96.828 E0.00256
G1 X94.282 Y86.664 E0.45073
G1 X94.663 Y86.283 E0.01689
G1 X104.828 Y96.448 E0.45073
G1 X105.208 Y96.067 E0.01689
G1 X95.043 Y85.902 E0.45073
G1 X95.217 Y85.728 E0.00771
G1 X95.632 Y85.728 E0.01299
G1 X105.589 Y95.686 E0.44155
G1 X105.970 Y95.305 E0.01689
G1 X96.393 Y85.728 E0.42466
M73 P7 R22
G1 X96.524 Y85.728 E0.00411
G1 X96.840 Y85.413 E0.01398
G1 X106.351 Y94.924 E0.42175
G1 X106.732 Y94.543 E0.01689
G1 X97.221 Y85.032 E0.42175
G1 X97.602 Y84.651 E0.01689
G1 X107.223 Y94.272 E0.42663
G1 X107.985 Y94.272 E0.02389
G1 X98.133 Y84.421 E0.43682
G1 X98.895 Y84.421 E0.02389
G1 X108.528 Y94.054 E0.42714
G1 X108.909 Y93.673 E0.01689
G1 X99.398 Y84.162 E0.42175
M73 P7 R21
G1 X99.779 Y83.781 E0.01689
G1 X109.290 Y93.292 E0.42175
G1 X109.617 Y92.965 E0.01450
G1 X109.725 Y92.965 E0.00338
G1 X100.160 Y83.400 E0.42414
G1 X100.446 Y83.114 E0.01268
G1 X100.635 Y83.114 E0.00595
G1 X110.487 Y92.965 E0.43682
G1 X110.924 Y92.965 E0.01372
G1 X111.086 Y92.803 E0.00719
G1 X101.397 Y83.114 E0.42963
G1 X101.753 Y83.114 E0.01114
G1 X101.956 Y82.911 E0.00901
G1 X111.467 Y92.422 E0.42175
G1 X111.848 Y92.041 E0.01689
G1 X102.337 Y82.530 E0.42175
G1 X102.718 Y82.149 E0.01689
G1 X112.229 Y91.660 E0.42175
G1 X112.989 Y91.658 E0.02382
G1 X103.099 Y81.768 E0.43854
G1 X103.480 Y81.387 E0.01689
G1 X113.644 Y91.552 E0.45073
G1 X114.025 Y91.171 E0.01689
G1 X103.860 Y81.006 E0.45073
G1 X104.241 Y80.625 E0.01689
G1 X114.406 Y90.790 E0.45073
G1 X114.787 Y90.409 E0.01689
G1 X104.878 Y80.500 E0.43941
G1 X105.639 Y80.500 E0.02389
G1 X115.168 Y90.028 E0.42252
M73 P8 R21
G1 X115.549 Y89.647 E0.01689
G1 X106.038 Y80.136 E0.42175
G1 X106.419 Y79.755 E0.01689
G1 X115.930 Y89.266 E0.42175
G1 X116.153 Y89.044 E0.00987
G1 X116.469 Y89.044 E0.00992
G1 X106.799 Y79.374 E0.42877
G1 X106.981 Y79.193 E0.00805
G1 X107.380 Y79.193 E0.01250
G1 X117.231 Y89.044 E0.43682
G1 X117.460 Y89.044 E0.00717
G1 X117.726 Y88.777 E0.01182
G1 X108.141 Y79.193 E0.42500
G1 X108.288 Y79.193 E0.00460
G1 X108.596 Y78.885 E0.01364
G1 X118.107 Y88.396 E0.42175
G1 X118.488 Y88.015 E0.01689
G1 X108.977 Y78.504 E0.42175
G1 X109.358 Y78.123 E0.01689
G1 X118.971 Y87.737 E0.42628
G1 X119.733 Y87.737 E0.02389
G1 X109.738 Y77.742 E0.44317
G1 X110.119 Y77.361 E0.01689
G1 X120.284 Y87.526 E0.45073
G1 X120.665 Y87.145 E0.01689
G1 X110.500 Y76.980 E0.45073
G1 X110.881 Y76.599 E0.01689
G1 X121.046 Y86.764 E0.45073
G1 X121.427 Y86.384 E0.01689
G1 X111.622 Y76.578 E0.43478
G1 X112.209 Y76.578 E0.01842
G1 X112.296 Y76.491 E0.00387
G1 X121.721 Y85.915 E0.41789
G1 X121.721 Y85.154 E0.02389
G1 X112.677 Y76.110 E0.40100
G1 X113.058 Y75.729 E0.01689
G1 X121.721 Y84.392 E0.38411
G1 X121.721 Y83.630 E0.02389
G1 X113.439 Y75.348 E0.36722
G1 X113.516 Y75.271 E0.00342
G1 X114.124 Y75.271 E0.01905
G1 X121.721 Y82.868 E0.33686
G1 X121.721 Y82.106 E0.02389
G1 X114.886 Y75.271 E0.30308
G1 X115.647 Y75.271 E0.02389
G1 X121.721 Y81.345 E0.26930
M73 P9 R21
G1 X121.721 Y80.583 E0.02389
G1 X116.409 Y75.271 E0.23552
G1 X117.171 Y75.271 E0.02389
G1 X121.721 Y79.821 E0.20174
G1 X121.721 Y79.532 E0.00905
G1 X120.414 Y78.225 E0.05796
G1 X120.414 Y77.752 E0.01484
G1 X117.933 Y75.271 E0.11000
G1 X118.695 Y75.271 E0.02389
G1 X120.583 Y77.160 E0.08374
M204 S1250
; stop printing object support_side_120.stl id:0 copy 0
M106 S84.15
;LAYER_CHANGE
;Z:0.5
;HEIGHT:0.3
;BEFORE_LAYER_CHANGE
G92 E0.0
;0.5


G1 E-2.24000 F4200.000
;WIPE_START
G1 F7200.000
G1 X119.420 Y75.996 E-0.91200
;WIPE_END
G1 E-0.04800 F4200.000
G1 Z0.400 F9000.000
G1 Z0.500
;AFTER_LAYER_CHANGE
;0.5
G1 Z0.700
G1 X121.075 Y74.314
G1 Z0.500
G1 E3.20000 F2400.000
;TYPE:Skirt
G1 X122.348 Y75.567 E0.07923
G1 X122.701 Y76.081 E0.02763
G1 X123.956 Y78.722 E0.12972
G1 X124.097 Y79.487 E0.03448
G1 X124.098 Y85.954 E0.28684
G1 X124.024 Y86.503 E0.02461
G1 X123.823 Y87.025 E0.02478
G1 X123.230 Y87.932 E0.04807
G1 X121.868 Y89.299 E0.08559
G1 X102.247 Y106.302 E1.15158
G1 X101.706 Y106.653 E0.02863
G1 X100.650 Y107.054 E0.05013
G1 X100.162 Y107.106 E0.02176
G1 X79.570 Y107.106 E0.91336
G1 X79.064 Y107.047 E0.02260
G1 X78.585 Y106.884 E0.02243
G1 X78.025 Y106.519 E0.02964
G1 X58.876 Y89.660 E1.13162
G1 X56.462 Y87.237 E0.15173
G1 X56.144 Y86.750 E0.02578
G1 X55.954 Y86.197 E0.02595
G1 X55.902 Y79.498 E0.29712
G1 X56.062 Y78.676 E0.03714
G1 X57.512 Y75.947 E0.13710
G1 X58.081 Y75.069 E0.04638
G1 X59.636 Y73.553 E0.09633
G1 X60.084 Y73.302 E0.02276
G1 X61.066 Y72.946 E0.04635
G1 X61.554 Y72.894 E0.02176
G1 X118.695 Y72.894 E2.53446
G1 X119.433 Y73.012 E0.03314
G1 X120.098 Y73.352 E0.03314
G1 X121.032 Y74.272 E0.05816
; printing object support_side_120.stl id:0 copy 0
G1 E-2.24000 F4200.000
;WIPE_START
G1 F7200.000
G1 X122.205 Y75.427 E-0.91200
;WIPE_END
G1 E-0.04800 F4200.000
G1 Z0.700 F9000.000
G1 X61.604 Y80.712
G1 Z0.500
G1 E3.20000 F2400.000
;TYPE:Support material interface
;WIDTH:0.35
G1 F1920.000
G1 X61.604 Y84.772 E0.14461
G1 X62.111 Y84.772 E0.01806
G1 X62.111 Y80.850 E0.13969
G1 X62.551 Y80.850 E0.01570
G1 X62.551 Y78.236 E0.09313
G1 X62.618 Y78.236 E0.00237
G1 X62.618 Y84.772 E0.23282
G1 X63.125 Y84.772 E0.01806
G1 X63.125 Y78.236 E0.23282
G1 X63.632 Y78.236 E0.01806
G1 X63.632 Y84.772 E0.23282
G1 X63.858 Y84.772 E0.00807
G1 X63.858 Y86.079 E0.04656
G1 X64.139 Y86.079 E0.01000
G1 X64.139 Y78.236 E0.27938
G1 X64.646 Y78.236 E0.01806
G1 X64.646 Y86.079 E0.27938
G1 X65.153 Y86.079 E0.01806
G1 X65.165 Y78.236 E0.27938
G1 X65.165 Y79.543 E0.04656
G1 X65.660 Y79.543 E0.01762
G1 X65.660 Y86.079 E0.23282
G1 X66.167 Y86.079 E0.01806
G1 X66.167 Y79.543 E0.23282
G1 X66.674 Y79.543 E0.01806
G1 X66.674 Y87.386 E0.27938
G1 X67.181 Y87.386 E0.01806
G1 X67.181 Y79.543 E0.27938
G1 X67.689 Y79.543 E0.01806
G1 X67.689 Y87.386 E0.27938
G1 X67.780 Y87.386 E0.00325
G1 X67.780 Y88.693 E0.04656
G1 X68.196 Y88.693 E0.01482
G1 X68.196 Y80.850 E0.27938
G1 X68.703 Y80.850 E0.01806
G1 X68.703 Y88.693 E0.27938
G1 X69.210 Y88.693 E0.01806
G1 X69.210 Y82.157 E0.23282
G1 X69.717 Y82.157 E0.01806
G1 X69.717 Y88.693 E0.23282
G1 X70.224 Y88.693 E0.01806
G1 X70.224 Y82.157 E0.23282
G1 X70.731 Y82.157 E0.01806
G1 X70.731 Y90.000 E0.27938
G1 X71.238 Y90.000 E0.01806
G1 X71.238 Y82.157 E0.27938
G1 X71.701 Y82.157 E0.01649
G1 X71.701 Y83.465 E0.04656
G1 X71.745 Y83.465 E0.00158
G1 X71.745 Y90.000 E0.23282
G1 X72.252 Y90.000 E0.01806
G1 X72.252 Y83.465 E0.23282
G1 X72.759 Y83.465 E0.01806
G1 X72.759 Y90.000 E0.23282
G1 X73.008 Y90.000 E0.00886
G1 X73.008 Y91.307 E0.04656
G1 X73.266 Y91.307 E0.00921
G1 X73.266 Y83.465 E0.27938
G1 X73.773 Y83.465 E0.01806
G1 X73.773 Y91.307 E0.27938
M73 P10 R21
G1 X74.281 Y91.307 E0.01806
G1 X74.281 Y83.465 E0.27938
G1 X74.315 Y83.465 E0.00123
G1 X74.315 Y84.772 E0.04656
G1 X74.788 Y84.772 E0.01684
G1 X74.788 Y91.307 E0.23282
G1 X75.295 Y91.307 E0.01806
G1 X75.295 Y84.772 E0.23282
G1 X75.622 Y84.772 E0.01166
G1 X75.622 Y86.079 E0.04656
G1 X75.802 Y86.079 E0.00640
G1 X75.802 Y92.614 E0.23282
G1 X76.309 Y92.614 E0.01806
G1 X76.309 Y86.079 E0.23282
G1 X76.816 Y86.079 E0.01806
G1 X76.816 Y92.614 E0.23282
G1 X76.929 Y92.614 E0.00403
G1 X76.929 Y93.921 E0.04656
G1 X77.323 Y93.921 E0.01403
G1 X77.323 Y86.079 E0.27938
G1 X77.830 Y86.079 E0.01806
G1 X77.830 Y93.921 E0.27938
G1 X78.337 Y93.921 E0.01806
G1 X78.337 Y87.386 E0.23282
G1 X78.844 Y87.386 E0.01806
G1 X78.844 Y93.921 E0.23282
G1 X79.351 Y93.921 E0.01806
G1 X79.351 Y87.386 E0.23282
G1 X79.858 Y87.386 E0.01806
G1 X79.858 Y95.228 E0.27938
G1 X80.365 Y95.228 E0.01806
G1 X80.365 Y87.386 E0.27938
G1 X80.850 Y87.386 E0.01728
G1 X80.850 Y88.693 E0.04656
G1 X80.873 Y88.693 E0.00079
G1 X80.873 Y101.764 E0.46564
G1 X81.380 Y101.764 E0.01806
G1 X81.380 Y88.693 E0.46564
G1 X81.887 Y88.693 E0.01806
G1 X81.887 Y101.764 E0.46564
G1 X82.394 Y101.764 E0.01806
G1 X82.394 Y88.693 E0.46564
G1 X82.901 Y88.693 E0.01806
G1 X82.901 Y101.764 E0.46564
G1 X83.408 Y101.764 E0.01806
G1 X83.408 Y88.693 E0.46564
G1 X83.465 Y88.693 E0.00202
G1 X83.465 Y90.000 E0.04656
G1 X83.915 Y90.000 E0.01605
G1 X83.915 Y101.764 E0.41907
G1 X84.422 Y101.764 E0.01806
G1 X84.422 Y90.000 E0.41907
G1 X84.929 Y90.000 E0.01806
G1 X84.929 Y101.764 E0.41907
G1 X85.436 Y101.764 E0.01806
G1 X85.436 Y90.000 E0.41907
G1 X85.943 Y90.000 E0.01806
G1 X85.943 Y101.764 E0.41907
G1 X86.450 Y101.764 E0.01806
G1 X86.450 Y90.000 E0.41907
G1 X86.958 Y90.000 E0.01806
G1 X86.958 Y101.764 E0.41907
G1 X87.465 Y101.764 E0.01806
G1 X87.465 Y90.000 E0.41907
G1 X87.972 Y90.000 E0.01806
G1 X87.972 Y101.764 E0.41907
G1 X88.479 Y101.764 E0.01806
G1 X88.479 Y90.000 E0.41907
G1 X88.986 Y90.000 E0.01806
G1 X88.986 Y101.764 E0.41907
G1 X89.493 Y101.764 E0.01806
G1 X89.493 Y90.000 E0.41907
G1 X90.000 Y90.000 E0.01806
G1 X90.000 Y101.764 E0.41907
G1 X90.507 Y101.764 E0.01806
G1 X90.507 Y90.000 E0.41907
G1 X91.014 Y90.000 E0.01806
G1 X91.014 Y101.764 E0.41907
G1 X91.521 Y101.764 E0.01806
G1 X91.521 Y90.000 E0.41907
G1 X92.028 Y90.000 E0.01806
G1 X92.028 Y101.764 E0.41907
G1 X92.535 Y101.764 E0.01806
G1 X92.535 Y90.000 E0.41907
G1 X93.042 Y90.000 E0.01806
M73 P11 R21
G1 X93.042 Y101.764 E0.41907
G1 X93.550 Y101.764 E0.01806
G1 X93.550 Y90.000 E0.41907
G1 X94.057 Y90.000 E0.01806
G1 X94.057 Y101.764 E0.41907
G1 X94.564 Y101.764 E0.01806
G1 X94.564 Y90.000 E0.41907
G1 X95.071 Y90.000 E0.01806
G1 X95.071 Y101.764 E0.41907
G1 X95.578 Y101.764 E0.01806
G1 X95.578 Y90.000 E0.41907
G1 X96.085 Y90.000 E0.01806
G1 X96.085 Y101.764 E0.41907
G1 X96.592 Y101.764 E0.01806
G1 X96.592 Y88.693 E0.46564
G1 X97.099 Y88.693 E0.01806
G1 X97.099 Y101.764 E0.46564
G1 X97.606 Y101.764 E0.01806
G1 X97.606 Y88.693 E0.46564
G1 X98.113 Y88.693 E0.01806
