; generated by PrusaSlicer 2.3.3 on 2022-01-25 at 22:23:51 UTC


;
;

;
;
; 

; external perimeters extrusion width = 0.45mm
; perimeters extrusion width = 0.45mm
; infill extrusion width = 0.45mm
; solid infill extrusion width = 0.45mm
; top infill extrusion width = 0.40mm
; support material extrusion width = 0.35mm
; first layer extrusion width = 0.42mm

M73 P0 R5
M201 X1250 Y1250 Z400 E5000 ; sets maximum accelerations, mm/sec^2
M203 X180 Y180 Z12 E80 ; sets maximum feedrates, mm/sec
M204 P1250 R1250 T1250 ; sets acceleration (P, T) and retract acceleration (R), mm/sec^2
M205 X8.00 Y8.00 Z2.00 E10.00 ; sets the jerk limits, mm/sec
M205 S0 T0 ; sets the minimum extruding and travel feed rate, mm/sec
M107
;TYPE:Custom
G90 ; use absolute coordinates
M83 ; extruder relative mode
M104 S170 ; set extruder temp for bed leveling
M140 S60 ; set bed temp
M109 R170 ; wait for bed leveling temp
M190 S60 ; wait for bed temp
G28 ; home all without mesh bed level
G29 ; mesh bed leveling 
M104 S215 ; set extruder temp
G92 E0.0
G1 Y-2.0 X179 F2400
M73 P1 R5
G1 Z3 F720
M109 S215 ; wait for extruder temp

; intro line
G1 X170 F1000
G1 Z0.2 F720
G1 X110.0 E8.0 F900
M73 P2 R5
G1 X40.0 E10.0 F700
G92 E0.0

M221 S95 ; set flow
G21 ; set units to millimeters
G90 ; use absolute coordinates
M83 ; use relative distances for extrusion
M900 K0.2 ; Filament gcode LA 1.5
; ; Filament gcode LA 1.0
;LAYER_CHANGE
;Z:0.2
;HEIGHT:0.2
;BEFORE_LAYER_CHANGE
G92 E0.0
;0.2


M73 P4 R5
G1 E-3.20000 F4200.000
G1 Z0.200 F9000.000
;AFTER_LAYER_CHANGE
;0.2
G1 Z0.400
G1 X80.515 Y73.724
G1 Z0.200
G1 E3.20000 F2400.000
M204 S800
;TYPE:Skirt
;WIDTH:0.42
M73 P5 R5
G1 F1200.000
G1 X81.203 Y73.030 E0.03064
G1 X82.045 Y72.539 E0.03054
G1 X82.981 Y72.282 E0.03045
G1 X96.504 Y72.246 E0.42400
G1 X97.168 Y72.306 E0.02092
G1 X97.834 Y72.491 E0.02166
G1 X98.476 Y72.808 E0.02245
G1 X99.023 Y73.220 E0.02147
G1 X99.483 Y73.721 E0.02134
G1 X99.846 Y74.298 E0.02135
G1 X100.109 Y74.968 E0.02258
G1 X100.235 Y75.626 E0.02100
G1 X100.254 Y104.025 E0.89043
G1 X100.179 Y104.748 E0.02282
G1 X99.973 Y105.426 E0.02220
G1 X99.477 Y106.287 E0.03114
G1 X98.775 Y106.986 E0.03108
G1 X97.920 Y107.475 E0.03089
G1 X96.944 Y107.728 E0.03161
G1 X83.455 Y107.754 E0.42294
M73 P6 R5
G1 X82.738 Y107.676 E0.02260
G1 X82.082 Y107.476 E0.02152
G1 X81.184 Y106.955 E0.03253
G1 X80.445 Y106.181 E0.03356
G1 X79.967 Y105.268 E0.03233
G1 X79.753 Y104.224 E0.03340
G1 X79.746 Y75.975 E0.88572
G1 X79.823 Y75.242 E0.02311
G1 X80.026 Y74.577 E0.02182
G1 X80.485 Y73.776 E0.02894
M204 S1250
G1 X80.810 Y73.963 F9000.000
M204 S800
G1 F1200.000
G1 X81.444 Y73.321 E0.02828
G1 X82.206 Y72.881 E0.02760
G1 X83.060 Y72.652 E0.02773
G1 X96.504 Y72.623 E0.42151
G1 X97.113 Y72.679 E0.01919
G1 X97.735 Y72.857 E0.02027
G1 X98.293 Y73.138 E0.01959
G1 X98.778 Y73.507 E0.01911
G1 X99.187 Y73.954 E0.01898
G1 X99.515 Y74.480 E0.01946
G1 X99.751 Y75.085 E0.02036
G1 X99.863 Y75.689 E0.01925
G1 X99.877 Y104.019 E0.88828
M73 P7 R5
G1 X99.808 Y104.678 E0.02079
G1 X99.620 Y105.293 E0.02016
G1 X99.171 Y106.066 E0.02802
G1 X98.525 Y106.703 E0.02844
G1 X97.716 Y107.150 E0.02898
G1 X96.835 Y107.360 E0.02841
G1 X83.462 Y107.377 E0.41930
G1 X82.809 Y107.305 E0.02061
G1 X82.214 Y107.123 E0.01949
G1 X81.410 Y106.652 E0.02922
G1 X80.746 Y105.954 E0.03023
G1 X80.319 Y105.134 E0.02897
G1 X80.128 Y104.189 E0.03023
G1 X80.123 Y75.981 E0.88444
M73 P8 R5
G1 X80.194 Y75.312 E0.02108
G1 X80.379 Y74.709 E0.01980
G1 X80.780 Y74.015 E0.02512
M204 S1250
; printing object support_simple.stl id:0 copy 0
G1 E-2.24000 F4200.000
;WIPE_START
G1 F7200.000
G1 X81.444 Y73.321 E-0.53208
G1 X82.037 Y72.978 E-0.37992
;WIPE_END
G1 E-0.04800 F4200.000
G1 Z0.400 F9000.000
G1 X89.086 Y95.293
G1 Z0.200
G1 E3.20000 F2400.000
M204 S800
;TYPE:Perimeter
G1 F1200.000
G1 X89.488 Y95.166 E0.01324
G1 X89.983 Y95.110 E0.01561
G1 X90.420 Y95.147 E0.01376
G1 X90.909 Y95.290 E0.01594
G1 X91.290 Y95.488 E0.01346
G1 X91.690 Y95.810 E0.01612
G1 X92.012 Y96.210 E0.01612
G1 X92.210 Y96.591 E0.01346
G1 X92.353 Y97.079 E0.01591
G1 X92.389 Y97.500 E0.01326
G1 X92.353 Y97.921 E0.01326
G1 X92.210 Y98.409 E0.01591
G1 X92.012 Y98.790 E0.01346
G1 X91.690 Y99.190 E0.01612
G1 X91.290 Y99.512 E0.01612
G1 X90.909 Y99.710 E0.01346
G1 X90.421 Y99.853 E0.01591
G1 X90.000 Y99.889 E0.01326
G1 X89.579 Y99.853 E0.01326
G1 X89.091 Y99.710 E0.01591
G1 X88.710 Y99.512 E0.01346
G1 X88.310 Y99.190 E0.01612
G1 X87.988 Y98.790 E0.01612
G1 X87.790 Y98.409 E0.01346
G1 X87.647 Y97.921 E0.01591
G1 X87.611 Y97.500 E0.01326
G1 X87.647 Y97.079 E0.01326
G1 X87.790 Y96.591 E0.01591
G1 X87.988 Y96.210 E0.01346
G1 X88.310 Y95.810 E0.01612
G1 X88.710 Y95.488 E0.01612
G1 X89.032 Y95.320 E0.01138
M204 S1250
G1 X88.918 Y95.805 F9000.000
M204 S800
;TYPE:External perimeter
G1 F1200.000
G1 X89.230 Y95.642 E0.01106
G1 X89.567 Y95.536 E0.01106
G1 X89.988 Y95.489 E0.01329
G1 X90.351 Y95.520 E0.01142
G1 X90.767 Y95.641 E0.01360
G1 X91.082 Y95.805 E0.01114
G1 X91.422 Y96.078 E0.01366
G1 X91.695 Y96.418 E0.01366
G1 X91.859 Y96.733 E0.01114
G1 X91.980 Y97.149 E0.01359
G1 X92.011 Y97.500 E0.01106
G1 X91.980 Y97.851 E0.01106
G1 X91.859 Y98.267 E0.01359
G1 X91.695 Y98.582 E0.01114
G1 X91.422 Y98.922 E0.01366
G1 X91.082 Y99.195 E0.01366
G1 X90.767 Y99.359 E0.01114
G1 X90.351 Y99.480 E0.01359
G1 X90.000 Y99.511 E0.01106
G1 X89.649 Y99.480 E0.01106
G1 X89.233 Y99.359 E0.01359
G1 X88.918 Y99.195 E0.01114
G1 X88.578 Y98.922 E0.01366
G1 X88.305 Y98.582 E0.01366
G1 X88.141 Y98.267 E0.01114
G1 X88.020 Y97.851 E0.01359
G1 X87.989 Y97.500 E0.01106
G1 X88.020 Y97.149 E0.01106
G1 X88.141 Y96.733 E0.01359
G1 X88.305 Y96.418 E0.01114
G1 X88.578 Y96.078 E0.01366
G1 X88.871 Y95.843 E0.01178
M204 S1250
G1 X88.897 Y95.453 F9000.000
G1 E-2.24000 F4200.000
;WIPE_START
G1 F7200.000
G1 X89.230 Y95.642 E-0.22823
G1 X89.567 Y95.536 E-0.19540
G1 X89.988 Y95.489 E-0.23497
G1 X90.351 Y95.520 E-0.20189
G1 X90.440 Y95.546 E-0.05151
;WIPE_END
G1 E-0.04800 F4200.000
G1 Z0.400 F9000.000
G1 X89.489 Y90.735
G1 Z0.200
G1 E3.20000 F2400.000
M204 S800
;TYPE:Perimeter
G1 F1200.000
G1 X89.086 Y90.607 E0.01326
G1 X88.710 Y90.412 E0.01326
G1 X88.310 Y90.090 E0.01612
G1 X87.988 Y89.690 E0.01612
G1 X87.792 Y89.314 E0.01326
G1 X87.665 Y88.911 E0.01326
G1 X87.613 Y88.434 E0.01504
G1 X87.613 Y82.466 E0.18715
M73 P9 R5
G1 X87.665 Y81.989 E0.01504
G1 X87.792 Y81.586 E0.01326
G1 X87.982 Y81.222 E0.01286
G1 X88.174 Y80.960 E0.01020
G1 X88.464 Y80.670 E0.01285
G1 X88.805 Y80.431 E0.01306
G1 X89.183 Y80.255 E0.01306
G1 X89.585 Y80.147 E0.01304
G1 X89.990 Y80.111 E0.01275
G1 X90.420 Y80.147 E0.01356
G1 X90.909 Y80.290 E0.01594
G1 X91.290 Y80.488 E0.01346
G1 X91.690 Y80.810 E0.01612
G1 X92.012 Y81.210 E0.01612
G1 X92.208 Y81.586 E0.01326
G1 X92.335 Y81.989 E0.01326
G1 X92.387 Y82.466 E0.01504
G1 X92.387 Y88.434 E0.18715
G1 X92.335 Y88.911 E0.01504
G1 X92.208 Y89.314 E0.01326
G1 X92.015 Y89.684 E0.01306
G1 X91.762 Y90.014 E0.01306
G1 X91.455 Y90.296 E0.01306
G1 X91.109 Y90.516 E0.01285
G1 X90.811 Y90.647 E0.01020
G1 X90.415 Y90.753 E0.01286
G1 X89.994 Y90.790 E0.01326
G1 X89.549 Y90.741 E0.01403
M204 S1250
G1 X89.590 Y90.366 F9000.000
M204 S800
;TYPE:External perimeter
G1 F1200.000
G1 X89.230 Y90.258 E0.01177
G1 X88.918 Y90.095 E0.01106
G1 X88.578 Y89.822 E0.01366
G1 X88.305 Y89.483 E0.01366
G1 X88.142 Y89.170 E0.01106
G1 X88.036 Y88.833 E0.01106
G1 X87.990 Y88.414 E0.01323
G1 X87.990 Y82.486 E0.18585
G1 X88.036 Y82.067 E0.01323
G1 X88.142 Y81.730 E0.01106
G1 X88.303 Y81.422 E0.01092
G1 X88.461 Y81.206 E0.00839
G1 X88.707 Y80.960 E0.01091
G1 X88.995 Y80.759 E0.01099
G1 X89.312 Y80.610 E0.01099
G1 X89.651 Y80.520 E0.01098
G1 X89.991 Y80.489 E0.01070
G1 X90.351 Y80.520 E0.01135
G1 X90.767 Y80.641 E0.01360
G1 X91.082 Y80.805 E0.01114
G1 X91.422 Y81.078 E0.01366
G1 X91.695 Y81.417 E0.01366
G1 X91.858 Y81.730 E0.01106
G1 X91.964 Y82.067 E0.01106
G1 X92.010 Y82.486 E0.01323
G1 X92.010 Y88.414 E0.18585
G1 X91.964 Y88.833 E0.01323
G1 X91.858 Y89.170 E0.01106
G1 X91.696 Y89.480 E0.01099
G1 X91.483 Y89.758 E0.01099
G1 X91.224 Y89.995 E0.01099
G1 X90.930 Y90.182 E0.01091
G1 X90.685 Y90.290 E0.00839
G1 X90.349 Y90.380 E0.01092
G1 X89.998 Y90.411 E0.01106
G1 X89.649 Y90.373 E0.01099
M204 S1250
G1 X89.341 Y90.647 F9000.000
G1 E-2.24000 F4200.000
;WIPE_START
G1 F7200.000
G1 X89.230 Y90.258 E-0.24072
G1 X88.918 Y90.095 E-0.19553
G1 X88.578 Y89.822 E-0.24138
G1 X88.313 Y89.492 E-0.23437
;WIPE_END
G1 E-0.04800 F4200.000
G1 Z0.400 F9000.000
G1 X83.326 Y104.111
G1 Z0.200
G1 E3.20000 F2400.000
M204 S800
;TYPE:Perimeter
G1 F1200.000
G1 X83.287 Y103.960 E0.00489
G1 X83.287 Y76.034 E0.87559
M73 P10 R5
G1 X83.308 Y75.918 E0.00370
G1 X83.381 Y75.830 E0.00358
G1 X83.523 Y75.788 E0.00464
G1 X96.471 Y75.788 E0.40597
G1 X96.597 Y75.816 E0.00407
G1 X96.684 Y75.903 E0.00384
G1 X96.712 Y76.029 E0.00407
G1 X96.713 Y103.966 E0.87593
G1 X96.692 Y104.082 E0.00370
G1 X96.624 Y104.166 E0.00337
G1 X96.484 Y104.212 E0.00464
G1 X83.534 Y104.213 E0.40603
M73 P11 R5
G1 X83.418 Y104.192 E0.00370
G1 X83.366 Y104.156 E0.00198
M204 S1250
G1 X83.005 Y104.316 F9000.000
M204 S800
;TYPE:External perimeter
G1 F1200.000
G1 X82.932 Y104.150 E0.00567
G1 X82.910 Y103.984 E0.00524
G1 X82.910 Y76.014 E0.87700
G1 X82.925 Y75.872 E0.00445
G1 X82.966 Y75.753 E0.00394
G1 X83.049 Y75.622 E0.00489
G1 X83.163 Y75.518 E0.00481
G1 X83.297 Y75.448 E0.00474
G1 X83.486 Y75.411 E0.00604
G1 X96.512 Y75.411 E0.40843
G1 X96.731 Y75.459 E0.00705
G1 X96.840 Y75.519 E0.00387
G1 X96.981 Y75.660 E0.00627
G1 X97.041 Y75.769 E0.00387
G1 X97.089 Y75.988 E0.00705
G1 X97.090 Y103.986 E0.87787
M73 P12 R5
G1 X97.075 Y104.127 E0.00445
G1 X97.034 Y104.247 E0.00394
G1 X96.951 Y104.378 E0.00489
G1 X96.839 Y104.480 E0.00474
G1 X96.675 Y104.561 E0.00575
G1 X96.517 Y104.589 E0.00503
G1 X83.514 Y104.590 E0.40770
G1 X83.372 Y104.575 E0.00445
G1 X83.253 Y104.534 E0.00394
G1 X83.124 Y104.452 E0.00481
G1 X83.044 Y104.361 E0.00380
M204 S1250
G1 X83.089 Y104.156 F9000.000
G1 X83.638 Y103.930
M204 S800
;TYPE:Solid infill
G1 F1200.000
G1 X83.703 Y103.865 E0.00289
G1 X83.570 Y103.731 E0.00592
M204 S1250
G1 X83.570 Y102.932 F9000.000
M204 S800
G1 F1200.000
G1 X83.703 Y102.798 E0.00592
G1 X83.570 Y102.665 E0.00592
M204 S1250
G1 X83.570 Y102.399 F9000.000
M204 S800
G1 F1200.000
G1 X83.970 Y101.999 E0.01774
G1 X84.237 Y102.265 E0.01182
G1 X83.970 Y102.532 E0.01182
G1 X84.237 Y102.798 E0.01182
G1 X84.503 Y102.532 E0.01182
G1 X84.770 Y102.798 E0.01182
G1 X84.237 Y103.332 E0.02365
G1 X83.970 Y103.065 E0.01182
G1 X83.703 Y103.332 E0.01182
G1 X84.237 Y103.865 E0.02365
G1 X84.503 Y103.598 E0.01182
G1 X84.770 Y103.865 E0.01182
G1 X84.705 Y103.930 E0.00288
M204 S1250
G1 X85.238 Y103.930 F9000.000
M204 S800
G1 F1200.000
G1 X85.303 Y103.865 E0.00288
G1 X85.368 Y103.930 E0.00288
M204 S1250
G1 X85.772 Y103.930 F9000.000
M204 S800
G1 F1200.000
G1 X85.836 Y103.865 E0.00288
G1 X85.303 Y103.332 E0.02365
G1 X85.037 Y103.598 E0.01182
G1 X84.770 Y103.332 E0.01182
G1 X85.570 Y102.532 E0.03547
G1 X85.836 Y102.798 E0.01182
G1 X85.570 Y103.065 E0.01182
G1 X86.103 Y103.598 E0.02365
G1 X86.370 Y103.332 E0.01182
G1 X86.103 Y103.065 E0.01182
G1 X86.370 Y102.798 E0.01182
G1 X86.636 Y103.065 E0.01182
G1 X86.903 Y102.798 E0.01182
G1 X86.370 Y102.265 E0.02365
G1 X86.103 Y102.532 E0.01182
G1 X85.836 Y102.265 E0.01182
G1 X86.103 Y101.999 E0.01182
G1 X85.570 Y101.465 E0.02365
G1 X85.303 Y101.732 E0.01182
G1 X85.570 Y101.999 E0.01182
G1 X85.037 Y102.532 E0.02365
G1 X84.770 Y102.265 E0.01182
G1 X85.037 Y101.999 E0.01182
G1 X84.770 Y101.732 E0.01182
G1 X84.503 Y101.999 E0.01182
G1 X84.237 Y101.732 E0.01182
G1 X84.770 Y101.199 E0.02365
G1 X85.037 Y101.465 E0.01182
G1 X85.303 Y101.199 E0.01182
G1 X85.037 Y100.932 E0.01182
G1 X85.570 Y100.399 E0.02365
G1 X85.836 Y100.665 E0.01182
G1 X85.570 Y100.932 E0.01182
G1 X86.103 Y101.465 E0.02365
G1 X86.370 Y101.199 E0.01182
G1 X86.103 Y100.932 E0.01182
G1 X86.370 Y100.665 E0.01182
G1 X86.636 Y100.932 E0.01182
G1 X86.903 Y100.665 E0.01182
G1 X86.370 Y100.132 E0.02365
M73 P13 R5
G1 X86.103 Y100.399 E0.01182
G1 X85.836 Y100.132 E0.01182
G1 X86.370 Y99.599 E0.02365
G1 X86.636 Y99.865 E0.01182
G1 X86.903 Y99.599 E0.01182
G1 X86.636 Y99.332 E0.01182
G1 X87.170 Y98.799 E0.02365
G1 X87.436 Y99.066 E0.01182
G1 X87.170 Y99.332 E0.01182
G1 X87.436 Y99.599 E0.01182
G1 X87.703 Y99.332 E0.01182
G1 X87.970 Y99.599 E0.01182
G1 X87.436 Y100.132 E0.02365
G1 X87.170 Y99.865 E0.01182
G1 X86.903 Y100.132 E0.01182
G1 X87.170 Y100.399 E0.01182
G1 X87.703 Y100.932 E0.02365
G1 X87.970 Y100.665 E0.01182
G1 X87.703 Y100.399 E0.01182
G1 X88.236 Y99.865 E0.02365
G1 X88.503 Y100.132 E0.01182
G1 X88.236 Y100.399 E0.01182
G1 X88.503 Y100.665 E0.01182
G1 X88.769 Y100.399 E0.01182
G1 X89.036 Y100.665 E0.01182
G1 X88.503 Y101.199 E0.02365
G1 X88.236 Y100.932 E0.01182
G1 X87.970 Y101.199 E0.01182
G1 X88.236 Y101.465 E0.01182
G1 X87.703 Y101.999 E0.02365
G1 X87.436 Y101.732 E0.01182
G1 X87.703 Y101.465 E0.01182
G1 X87.170 Y100.932 E0.02365
G1 X86.903 Y101.199 E0.01182
G1 X87.170 Y101.465 E0.01182
G1 X86.903 Y101.732 E0.01182
G1 X86.636 Y101.465 E0.01182
G1 X86.370 Y101.732 E0.01182
G1 X86.903 Y102.265 E0.02365
G1 X87.170 Y101.999 E0.01182
G1 X87.436 Y102.265 E0.01182
G1 X87.170 Y102.532 E0.01182
G1 X87.436 Y102.798 E0.01182
G1 X87.703 Y102.532 E0.01182
G1 X87.970 Y102.798 E0.01182
G1 X87.703 Y103.065 E0.01182
G1 X88.236 Y103.598 E0.02365
G1 X88.503 Y103.332 E0.01182
G1 X88.236 Y103.065 E0.01182
G1 X88.503 Y102.798 E0.01182
G1 X88.769 Y103.065 E0.01182
G1 X89.036 Y102.798 E0.01182
G1 X88.503 Y102.265 E0.02365
G1 X88.236 Y102.532 E0.01182
G1 X87.970 Y102.265 E0.01182
G1 X88.503 Y101.732 E0.02365
G1 X88.769 Y101.999 E0.01182
G1 X89.036 Y101.732 E0.01182
G1 X88.769 Y101.465 E0.01182
G1 X89.303 Y100.932 E0.02365
G1 X89.569 Y101.199 E0.01182
G1 X89.303 Y101.465 E0.01182
G1 X89.569 Y101.732 E0.01182
G1 X89.836 Y101.465 E0.01182
G1 X90.103 Y101.732 E0.01182
G1 X89.569 Y102.265 E0.02365
G1 X89.303 Y101.999 E0.01182
G1 X89.036 Y102.265 E0.01182
G1 X89.303 Y102.532 E0.01182
G1 X89.836 Y103.065 E0.02365
G1 X90.103 Y102.798 E0.01182
G1 X89.836 Y102.532 E0.01182
G1 X90.369 Y101.999 E0.02365
G1 X90.636 Y102.265 E0.01182
G1 X90.369 Y102.532 E0.01182
G1 X90.636 Y102.798 E0.01182
G1 X90.903 Y102.532 E0.01182
G1 X91.169 Y102.798 E0.01182
G1 X90.636 Y103.332 E0.02365
G1 X90.369 Y103.065 E0.01182
G1 X90.103 Y103.332 E0.01182
G1 X90.369 Y103.598 E0.01182
G1 X90.038 Y103.930 E0.01469
M204 S1250
G1 X89.634 Y103.930 F9000.000
M204 S800
G1 F1200.000
G1 X89.569 Y103.865 E0.00287
G1 X89.836 Y103.598 E0.01182
G1 X89.303 Y103.065 E0.02365
G1 X89.036 Y103.332 E0.01182
G1 X89.303 Y103.598 E0.01182
G1 X89.036 Y103.865 E0.01182
G1 X88.769 Y103.598 E0.01182
G1 X88.503 Y103.865 E0.01182
G1 X88.568 Y103.930 E0.00287
M204 S1250
G1 X88.034 Y103.930 F9000.000
M204 S800
G1 F1200.000
G1 X87.970 Y103.865 E0.00287
G1 X87.905 Y103.930 E0.00287
M204 S1250
G1 X87.501 Y103.930 F9000.000
M204 S800
G1 F1200.000
G1 X87.436 Y103.865 E0.00288
G1 X87.703 Y103.598 E0.01182
G1 X87.170 Y103.065 E0.02365
G1 X86.903 Y103.332 E0.01182
G1 X87.170 Y103.598 E0.01182
G1 X86.903 Y103.865 E0.01182
G1 X86.636 Y103.598 E0.01182
G1 X86.370 Y103.865 E0.01182
G1 X86.435 Y103.930 E0.00288
M204 S1250
G1 E-2.24000 F4200.000
;WIPE_START
G1 F7200.000
G1 X86.370 Y103.865 E-0.05087
G1 X86.636 Y103.598 E-0.20896
G1 X86.903 Y103.865 E-0.20896
G1 X87.170 Y103.598 E-0.20896
G1 X86.903 Y103.332 E-0.20896
G1 X86.935 Y103.300 E-0.02527
;WIPE_END
G1 E-0.04800 F4200.000
G1 Z0.400 F9000.000
G1 X83.570 Y101.865
G1 Z0.200
G1 E3.20000 F2400.000
M204 S800
G1 F1200.000
G1 X83.703 Y101.732 E0.00592
G1 X83.570 Y101.598 E0.00592
M204 S1250
G1 E-2.24000 F4200.000
;WIPE_START
M73 P14 R5
G1 F7200.000
G1 X83.703 Y101.732 E-0.10465
G1 X83.570 Y101.865 E-0.10465
;WIPE_END
G1 E-0.75070 F4200.000
G1 Z0.400 F9000.000
G1 X83.570 Y99.732
G1 Z0.200
G1 E3.20000 F2400.000
M204 S800
G1 F1200.000
G1 X83.703 Y99.599 E0.00592
G1 X84.237 Y100.132 E0.02365
G1 X83.970 Y100.399 E0.01182
G1 X83.703 Y100.132 E0.01182
G1 X83.570 Y100.266 E0.00592
M204 S1250
G1 X83.570 Y100.799 F9000.000
M204 S800
G1 F1200.000
