; generated by PrusaSlicer 2.4.1 on 2022-05-05 at 23:01:37 UTC


;
;

;
;
; 

; external perimeters extrusion width = 0.45mm
; perimeters extrusion width = 0.45mm
; infill extrusion width = 0.45mm
; solid infill extrusion width = 0.45mm
; top infill extrusion width = 0.40mm
; support material extrusion width = 0.35mm
; first layer extrusion width = 0.42mm

M73 P0 R109
M201 X1250 Y1250 Z400 E5000 ; sets maximum accelerations, mm/sec^2
M203 X180 Y180 Z12 E80 ; sets maximum feedrates, mm / sec
M204 P1250 R1250 T1250 ; sets acceleration (P, T) and retract acceleration (R), mm/sec^2
M205 X8.00 Y8.00 Z2.00 E10.00 ; sets the jerk limits, mm/sec
M205 S0 T0 ; sets the minimum extruding and travel feed rate, mm/sec
M107
;TYPE:Custom
G90 ; use absolute coordinates
M83 ; extruder relative mode
M104 S170 ; set extruder temp for bed leveling
M140 S60 ; set bed temp
M109 R170 ; wait for bed leveling temp
M190 S60 ; wait for bed temp
G28 ; home all without mesh bed level
G29 ; mesh bed leveling 
M104 S215 ; set extruder temp
G92 E0.0
G1 Y-2.0 X179 F2400
G1 Z3 F720
M109 S215 ; wait for extruder temp

; intro line
G1 X170 F1000
G1 Z0.2 F720
G1 X110.0 E8.0 F900
G1 X40.0 E10.0 F700
G92 E0.0

M221 S95 ; set flow
G21 ; set units to millimeters
G90 ; use absolute coordinates
M83 ; use relative distances for extrusion
M900 K0.2 ; Filament gcode LA 1.5
; ; Filament gcode LA 1.0
M107
;LAYER_CHANGE
;Z:0.2
;HEIGHT:0.2
;BEFORE_LAYER_CHANGE
G92 E0.0
;0.2


G1 E-3.2 F4200
G1 Z.2 F9000
;AFTER_LAYER_CHANGE
;0.2
G1 Z.4
G1 X48.332 Y56.641
G1 Z.2
G1 E3.2 F2400
M204 S800
;TYPE:Skirt/Brim
;WIDTH:0.42
G1 F1200
G1 X49.014 Y56.099 E.02731
G1 X81.523 Y37.37 E1.17635
G1 X82.143 Y37.191 E.02023
G1 X82.721 Y37.133 E.01821
G1 X97.279 Y37.133 E.45647
G1 X98.112 Y37.249 E.02635
G1 X98.877 Y37.561 E.02592
G1 X130.932 Y56.067 E1.16054
G1 X131.614 Y56.587 E.02689
G1 X132.146 Y57.264 E.027
G1 X139.425 Y69.873 E.45649
G1 X139.663 Y70.402 E.0182
G1 X139.816 Y71.021 E.01999
G1 X139.822 Y108.939 E1.18888
G1 X139.664 Y109.594 E.02114
G1 X139.425 Y110.127 E.01831
G1 X132.143 Y122.74 E.45666
G1 X131.6 Y123.428 E.02747
G1 X130.939 Y123.929 E.02602
G1 X98.477 Y142.63 E1.17463
G1 X97.857 Y142.809 E.02023
G1 X97.279 Y142.867 E.01821
G1 X82.285 Y142.833 E.47012
G1 X81.676 Y142.686 E.01967
G1 X81.079 Y142.415 E.02053
G1 X49.068 Y123.933 E1.15898
G1 X48.336 Y123.364 E.02905
G1 X47.832 Y122.698 E.02618
G1 X40.575 Y110.127 E.45513
G1 X40.337 Y109.598 E.0182
M73 P0 R108
G1 X40.184 Y108.979 E.01999
G1 X40.178 Y71.061 E1.18888
G1 X40.336 Y70.406 E.02114
G1 X40.575 Y69.873 E.01831
G1 X47.831 Y57.303 E.45508
G1 X48.296 Y56.688 E.02416
M204 S1250
; printing object tag_support.stl id:0 copy 0
G1 E-2.24 F4200
;WIPE_START
G1 F7200
G1 X49.014 Y56.099 E-.51496
G1 X49.635 Y55.741 E-.39704
;WIPE_END
G1 E-.048 F4200
G1 Z.4 F9000
G1 X86.814 Y87.552
G1 Z.2
G1 E3.2 F2400
M204 S800
;TYPE:Perimeter
G1 F1200
G1 X87.14 Y87.18 E.01551
G1 X87.409 Y86.933 E.01145
G1 X87.825 Y86.628 E.01616
G1 X88.136 Y86.449 E.01125
G1 X88.455 Y86.3 E.01104
G1 X88.786 Y86.18 E.01104
G1 X89.126 Y86.088 E.01104
G1 X89.479 Y86.026 E.01124
G1 X89.984 Y85.993 E.01586
G1 X90.351 Y86.008 E.01154
G1 X90.707 Y86.055 E.01126
G1 X91.208 Y86.177 E.01616
G1 X91.545 Y86.3 E.01125
G1 X91.864 Y86.449 E.01104
G1 X92.175 Y86.628 E.01124
G1 X92.583 Y86.927 E.01586
G1 X92.859 Y87.179 E.01174
G1 X93.2 Y87.567 E.01618
G1 X93.405 Y87.861 E.01125
G1 X93.581 Y88.166 E.01104
G1 X93.73 Y88.485 E.01104
G1 X93.853 Y88.822 E.01124
G1 X93.974 Y89.313 E.01586
G1 X94.022 Y89.678 E.01154
G1 X94.038 Y90.03 E.01106
G1 X94.022 Y90.382 E.01104
G1 X93.976 Y90.732 E.01104
G1 X93.899 Y91.082 E.01125
G1 X93.733 Y91.57 E.01616
G1 X93.581 Y91.895 E.01125
G1 X93.405 Y92.2 E.01104
G1 X93.2 Y92.494 E.01125
G1 X92.86 Y92.881 E.01616
G1 X92.591 Y93.128 E.01145
G1 X92.175 Y93.433 E.01616
G1 X91.864 Y93.612 E.01125
G1 X91.545 Y93.761 E.01104
G1 X91.214 Y93.881 E.01104
G1 X90.868 Y93.974 E.01124
G1 X90.358 Y94.052 E.01616
G1 X90 Y94.068 E.01125
G1 X89.642 Y94.052 E.01125
G1 X89.132 Y93.974 E.01616
G1 X88.786 Y93.881 E.01124
G1 X88.455 Y93.761 E.01104
G1 X88.136 Y93.612 E.01104
G1 X87.825 Y93.433 E.01124
G1 X87.417 Y93.134 E.01586
G1 X87.141 Y92.882 E.01174
G1 X86.8 Y92.494 E.01618
G1 X86.595 Y92.2 E.01125
G1 X86.419 Y91.895 E.01104
G1 X86.27 Y91.576 E.01104
G1 X86.147 Y91.239 E.01124
G1 X86.026 Y90.748 E.01586
G1 X85.978 Y90.383 E.01154
G1 X85.962 Y90.03 E.01106
G1 X85.978 Y89.679 E.01104
G1 X86.024 Y89.329 E.01104
G1 X86.101 Y88.979 E.01125
G1 X86.267 Y88.491 E.01616
G1 X86.419 Y88.166 E.01125
G1 X86.595 Y87.861 E.01104
G1 X86.778 Y87.599 E.01001
M204 S1250
G1 X87.097 Y87.8 F9000
M204 S800
;TYPE:External perimeter
G1 F1200
G1 X87.41 Y87.444 E.01487
G1 X87.649 Y87.225 E.01016
G1 X88.031 Y86.945 E.01487
G1 X88.31 Y86.784 E.01008
G1 X88.599 Y86.649 E.01001
G1 X88.899 Y86.54 E.01001
G1 X89.208 Y86.457 E.01001
G1 X89.524 Y86.401 E.01008
G1 X89.988 Y86.37 E.01458
G1 X90.319 Y86.384 E.01037
G1 X90.638 Y86.426 E.01009
G1 X91.098 Y86.539 E.01487
G1 X91.401 Y86.649 E.01008
G1 X91.69 Y86.784 E.01001
G1 X91.969 Y86.945 E.01008
G1 X92.344 Y87.219 E.01458
G1 X92.59 Y87.444 E.01044
G1 X92.903 Y87.8 E.01487
G1 X93.087 Y88.064 E.01008
G1 X93.247 Y88.34 E.01001
G1 X93.382 Y88.63 E.01001
G1 X93.492 Y88.932 E.01008
G1 X93.603 Y89.383 E.01458
G1 X93.646 Y89.711 E.01037
G1 X93.66 Y90.03 E.01002
G1 X93.646 Y90.349 E.01001
G1 X93.605 Y90.666 E.01001
G1 X93.535 Y90.98 E.01008
G1 X93.383 Y91.429 E.01487
G1 X93.247 Y91.721 E.01008
G1 X93.087 Y91.997 E.01001
G1 X92.903 Y92.261 E.01008
G1 X92.59 Y92.617 E.01487
G1 X92.351 Y92.836 E.01016
G1 X91.969 Y93.116 E.01487
G1 X91.69 Y93.277 E.01008
G1 X91.401 Y93.412 E.01001
G1 X91.101 Y93.521 E.01001
G1 X90.79 Y93.605 E.01008
G1 X90.321 Y93.677 E.01487
G1 X90 Y93.691 E.01008
G1 X89.679 Y93.677 E.01008
G1 X89.21 Y93.605 E.01487
G1 X88.899 Y93.521 E.01008
G1 X88.599 Y93.412 E.01001
G1 X88.31 Y93.277 E.01001
G1 X88.031 Y93.116 E.01008
G1 X87.656 Y92.842 E.01458
G1 X87.41 Y92.617 E.01044
G1 X87.097 Y92.261 E.01487
G1 X86.913 Y91.997 E.01008
G1 X86.753 Y91.721 E.01001
G1 X86.618 Y91.431 E.01001
G1 X86.508 Y91.129 E.01008
G1 X86.397 Y90.678 E.01458
G1 X86.354 Y90.35 E.01037
G1 X86.34 Y90.03 E.01002
G1 X86.354 Y89.711 E.01001
G1 X86.395 Y89.395 E.01001
G1 X86.465 Y89.081 E.01008
G1 X86.617 Y88.632 E.01487
G1 X86.753 Y88.34 E.01008
G1 X86.913 Y88.064 E.01001
G1 X87.063 Y87.85 E.0082
M204 S1250
G1 X86.95 Y87.429 F9000
G1 E-2.24 F4200
;WIPE_START
G1 F7200
G1 X87.41 Y87.444 E-.29586
G1 X87.649 Y87.225 E-.1795
G1 X88.031 Y86.945 E-.26281
G1 X88.303 Y86.788 E-.17383
;WIPE_END
G1 E-.048 F4200
G1 Z.4 F9000
G1 X74.242 Y80.984
G1 Z.2
G1 E3.2 F2400
M204 S800
;TYPE:Perimeter
G1 F1200
G1 X73.914 Y81.405 E.01672
G1 X73.592 Y81.675 E.01319
G1 X73.151 Y81.917 E.01576
G1 X72.678 Y82.056 E.01547
G1 X72.249 Y82.095 E.01349
G1 X71.755 Y82.041 E.0156
G1 X71.359 Y81.916 E.01299
G1 X70.992 Y81.725 E.01299
G1 X70.605 Y81.414 E.01557
G1 X70.334 Y81.092 E.01319
G1 X70.092 Y80.65 E.01578
G1 X69.952 Y80.168 E.01577
G1 X69.915 Y79.748 E.01319
G1 X69.969 Y79.255 E.01557
G1 X70.095 Y78.853 E.01319
G1 X70.334 Y78.418 E.01557
G1 X70.601 Y78.101 E.01299
G1 X70.918 Y77.834 E.01299
G1 X71.353 Y77.595 E.01557
G1 X71.754 Y77.469 E.01317
G1 X72.238 Y77.415 E.01526
G1 X72.667 Y77.451 E.01349
G1 X73.15 Y77.592 E.0158
G1 X73.592 Y77.834 E.01578
G1 X73.914 Y78.105 E.01319
G1 X74.225 Y78.492 E.01557
G1 X74.416 Y78.86 E.01299
G1 X74.541 Y79.255 E.01299
G1 X74.595 Y79.748 E.01557
G1 X74.558 Y80.167 E.01319
G1 X74.419 Y80.644 E.01558
G1 X74.27 Y80.931 E.01014
M204 S1250
G1 X73.908 Y80.81 F9000
M204 S800
;TYPE:External perimeter
G1 F1200
G1 X73.643 Y81.14 E.01325
G1 X73.378 Y81.363 E.01086
G1 X73.006 Y81.567 E.01331
G1 X72.607 Y81.684 E.01303
G1 X72.253 Y81.716 E.01115
G1 X71.833 Y81.67 E.01325
G1 X71.504 Y81.566 E.01079
G1 X71.199 Y81.407 E.01079
G1 X70.87 Y81.143 E.01324
G1 X70.647 Y80.878 E.01087
G1 X70.443 Y80.505 E.01332
G1 X70.324 Y80.098 E.01331
G1 X70.294 Y79.753 E.01086
G1 X70.34 Y79.333 E.01324
G1 X70.444 Y79.002 E.01086
G1 X70.647 Y78.632 E.01324
G1 X70.868 Y78.368 E.0108
G1 X71.132 Y78.147 E.01079
G1 X71.502 Y77.944 E.01324
G1 X71.833 Y77.84 E.01086
G1 X72.243 Y77.794 E.01295
G1 X72.597 Y77.824 E.01115
G1 X73.005 Y77.943 E.01332
G1 X73.378 Y78.147 E.01332
G1 X73.643 Y78.37 E.01087
G1 X73.908 Y78.699 E.01325
G1 X74.066 Y79.004 E.01079
G1 X74.17 Y79.333 E.01079
G1 X74.216 Y79.752 E.01325
G1 X74.186 Y80.097 E.01086
G1 X74.067 Y80.503 E.01325
G1 X73.935 Y80.757 E.00898
M204 S1250
G1 X74.09 Y81.167 F9000
G1 E-2.24 F4200
;WIPE_START
G1 F7200
G1 X73.643 Y81.14 E-.26683
G1 X73.378 Y81.363 E-.19198
G1 X73.006 Y81.567 E-.23526
G1 X72.628 Y81.678 E-.21793
;WIPE_END
G1 E-.048 F4200
G1 Z.4 F9000
G1 X61.203 Y73.559
G1 Z.2
G1 E3.2 F2400
M204 S800
;TYPE:Perimeter
G1 F1200
G1 X60.919 Y73.909 E.01413
G1 X60.601 Y74.175 E.01298
G1 X60.161 Y74.417 E.01576
G1 X59.687 Y74.556 E.01547
G1 X59.259 Y74.595 E.01349
G1 X58.764 Y74.541 E.01561
G1 X58.369 Y74.416 E.01298
G1 X58.002 Y74.225 E.01299
G1 X57.614 Y73.914 E.01557
G1 X57.344 Y73.592 E.0132
G1 X57.102 Y73.151 E.01578
G1 X56.961 Y72.668 E.01577
G1 X56.924 Y72.248 E.01319
G1 X56.979 Y71.755 E.01557
G1 X57.105 Y71.353 E.0132
G1 X57.344 Y70.918 E.01557
G1 X57.61 Y70.601 E.013
G1 X57.928 Y70.334 E.01299
G1 X58.363 Y70.095 E.01557
G1 X58.764 Y69.969 E.01317
G1 X59.247 Y69.915 E.01526
G1 X59.676 Y69.951 E.01349
G1 X60.16 Y70.092 E.0158
G1 X60.601 Y70.334 E.01578
G1 X60.924 Y70.605 E.01319
G1 X61.234 Y70.992 E.01557
G1 X61.426 Y71.359 E.01299
G1 X61.55 Y71.755 E.01299
G1 X61.604 Y72.248 E.01558
G1 X61.568 Y72.668 E.01319
G1 X61.427 Y73.151 E.01578
G1 X61.232 Y73.507 E.01273
M204 S1250
G1 X60.872 Y73.378 F9000
M204 S800
;TYPE:External perimeter
G1 F1200
G1 X60.651 Y73.641 E.01079
G1 X60.387 Y73.863 E.01079
G1 X60.015 Y74.067 E.01331
G1 X59.616 Y74.184 E.01303
G1 X59.262 Y74.216 E.01115
G1 X58.842 Y74.17 E.01326
G1 X58.514 Y74.066 E.01078
G1 X58.209 Y73.908 E.01079
G1 X57.879 Y73.643 E.01324
G1 X57.657 Y73.378 E.01087
G1 X57.452 Y73.005 E.01331
G1 X57.334 Y72.598 E.01332
G1 X57.303 Y72.252 E.01086
G1 X57.349 Y71.833 E.01324
G1 X57.454 Y71.502 E.01087
G1 X57.657 Y71.132 E.01324
G1 X57.878 Y70.868 E.0108
G1 X58.142 Y70.647 E.01079
G1 X58.512 Y70.444 E.01324
G1 X58.842 Y70.34 E.01085
G1 X59.253 Y70.294 E.01295
G1 X59.607 Y70.324 E.01115
G1 X60.015 Y70.443 E.01332
G1 X60.387 Y70.647 E.01332
G1 X60.653 Y70.87 E.01087
G1 X60.917 Y71.199 E.01324
G1 X61.076 Y71.504 E.01079
G1 X61.18 Y71.833 E.01079
G1 X61.225 Y72.253 E.01325
G1 X61.195 Y72.598 E.01086
G1 X61.076 Y73.005 E.01332
G1 X60.901 Y73.325 E.01144
M204 S1250
G1 X61.022 Y73.688 F9000
G1 E-2.24 F4200
;WIPE_START
G1 F7200
G1 X60.651 Y73.641 E-.22337
G1 X60.387 Y73.863 E-.19063
G1 X60.015 Y74.067 E-.2353
G1 X59.616 Y74.184 E-.23027
G1 X59.558 Y74.189 E-.03242
;WIPE_END
G1 E-.048 F4200
G1 Z.4 F9000
G1 X64.564 Y56.529
G1 Z.2
G1 E3.2 F2400
M204 S800
;TYPE:Perimeter
G1 F1200
G1 X64.194 Y56.429 E.01203
G1 X63.748 Y56.21 E.01557
G1 X63.414 Y55.954 E.01319
G1 X63.087 Y55.58 E.01557
G1 X62.877 Y55.216 E.01319
G1 X62.717 Y54.745 E.01557
G1 X62.662 Y54.328 E.01319
G1 X62.694 Y53.833 E.01557
G1 X62.803 Y53.426 E.0132
G1 X63.023 Y52.981 E.01557
G1 X63.275 Y52.652 E.01299
G1 X63.581 Y52.372 E.01299
G1 X64.005 Y52.115 E.01557
G1 X64.401 Y51.971 E.0132
G1 X64.892 Y51.895 E.01557
G1 X65.312 Y51.914 E.01319
G1 X65.794 Y52.032 E.01557
G1 X66.176 Y52.209 E.01319
G1 X66.576 Y52.503 E.01557
G1 X66.86 Y52.813 E.01319
G1 X67.121 Y53.243 E.01578
G1 X67.283 Y53.72 E.01578
G1 X67.338 Y54.137 E.01319
G1 X67.306 Y54.633 E.01557
G1 X67.197 Y55.039 E.01319
G1 X66.977 Y55.484 E.01556
G1 X66.725 Y55.813 E.013
G1 X66.419 Y56.093 E.01299
G1 X65.989 Y56.354 E.01578
G1 X65.513 Y56.516 E.01578
G1 X65.096 Y56.571 E.01319
G1 X64.623 Y56.54 E.01486
M204 S1250
G1 X64.662 Y56.164 F9000
M204 S800
;TYPE:External perimeter
G1 F1200
G1 X64.327 Y56.075 E.01087
G1 X63.948 Y55.888 E.01324
G1 X63.673 Y55.677 E.01086
G1 X63.395 Y55.359 E.01325
G1 X63.222 Y55.059 E.01086
G1 X63.086 Y54.659 E.01324
G1 X63.041 Y54.316 E.01086
G1 X63.068 Y53.895 E.01324
G1 X63.158 Y53.56 E.01087
G1 X63.345 Y53.181 E.01324
G1 X63.554 Y52.908 E.01079
G1 X63.808 Y52.675 E.01079
G1 X64.169 Y52.456 E.01324
G1 X64.495 Y52.338 E.01087
G1 X64.912 Y52.274 E.01324
G1 X65.258 Y52.289 E.01086
G1 X65.669 Y52.389 E.01324
G1 X65.983 Y52.536 E.01086
G1 X66.323 Y52.785 E.01324
G1 X66.557 Y53.041 E.01086
G1 X66.778 Y53.404 E.01332
G1 X66.914 Y53.806 E.01332
G1 X66.959 Y54.149 E.01086
G1 X66.932 Y54.571 E.01324
G1 X66.842 Y54.906 E.01087
G1 X66.655 Y55.284 E.01324
G1 X66.446 Y55.557 E.0108
G1 X66.192 Y55.79 E.01079
G1 X65.829 Y56.01 E.01332
G1 X65.427 Y56.147 E.01332
G1 X65.083 Y56.192 E.01086
G1 X64.722 Y56.168 E.01136
M204 S1250
G1 X64.441 Y56.431 F9000
G1 E-2.24 F4200
;WIPE_START
G1 F7200
G1 X64.327 Y56.075 E-.22475
G1 X63.948 Y55.888 E-.23401
G1 X63.673 Y55.677 E-.19198
G1 X63.395 Y55.359 E-.2341
G1 X63.37 Y55.317 E-.02716
;WIPE_END
G1 E-.048 F4200
G1 Z.4 F9000
G1 X50.998 Y87.102
G1 Z.2
G1 E3.2 F2400
M204 S800
;TYPE:Perimeter
G1 F1200
G1 X51.401 Y87.196 E.01298
G1 X51.648 Y87.286 E.00824
G1 X51.886 Y87.397 E.00824
G1 X52.215 Y87.596 E.01205
G1 X52.602 Y87.922 E.01586
G1 X52.924 Y88.304 E.01566
G1 X53.072 Y88.537 E.00864
G1 X53.236 Y88.87 E.01165
G1 X53.328 Y89.122 E.00843
G1 X53.418 Y89.488 E.0118
G1 X53.463 Y89.999 E.01611
G1 X53.42 Y90.498 E.01568
G1 X53.36 Y90.767 E.00864
G1 X53.239 Y91.124 E.01184
G1 X53.076 Y91.456 E.01159
G1 X52.924 Y91.695 E.00888
G1 X52.602 Y92.078 E.01568
G1 X52.215 Y92.404 E.01586
G1 X51.886 Y92.603 E.01205
G1 X51.648 Y92.714 E.00824
G1 X51.402 Y92.804 E.00822
G1 X51.036 Y92.894 E.0118
G1 X50.525 Y92.939 E.01611
G1 X50.02 Y92.895 E.01588
G1 X49.647 Y92.804 E.01205
G1 X49.394 Y92.712 E.00844
G1 X49.061 Y92.548 E.01165
G1 X48.828 Y92.399 E.00864
G1 X48.446 Y92.078 E.01566
G1 X48.125 Y91.696 E.01566
G1 X47.977 Y91.463 E.00864
G1 X47.806 Y91.119 E.01205
G1 X47.658 Y90.649 E.01546
G1 X47.61 Y90.377 E.00864
G1 X47.586 Y90.006 E.01165
G1 X47.598 Y89.738 E.00843
G1 X47.655 Y89.366 E.0118
G1 X47.806 Y88.882 E.01589
G1 X47.972 Y88.544 E.01181
G1 X48.124 Y88.305 E.00888
G1 X48.446 Y87.922 E.01568
G1 X48.828 Y87.601 E.01566
G1 X49.061 Y87.452 E.00864
G1 X49.405 Y87.282 E.01206
G1 X49.876 Y87.134 E.01546
G1 X50.147 Y87.086 E.00863
G1 X50.522 Y87.061 E.0118
G1 X50.939 Y87.097 E.01311
M204 S1250
G1 X50.966 Y87.478 F9000
M204 S800
;TYPE:External perimeter
G1 F1200
G1 X51.292 Y87.557 E.01051
G1 X51.504 Y87.635 E.00707
G1 X51.708 Y87.73 E.00708
G1 X51.995 Y87.904 E.0105
G1 X52.335 Y88.189 E.01393
G1 X52.619 Y88.528 E.01385
G1 X52.743 Y88.722 E.00722
G1 X52.889 Y89.018 E.01036
G1 X52.967 Y89.232 E.00714
G1 X53.045 Y89.55 E.01026
G1 X53.085 Y90 E.01416
G1 X53.046 Y90.44 E.01386
G1 X52.997 Y90.665 E.00722
G1 X52.89 Y90.98 E.01042
G1 X52.746 Y91.271 E.01019
G1 X52.619 Y91.472 E.00746
G1 X52.335 Y91.811 E.01386
G1 X51.995 Y92.096 E.01393
G1 X51.708 Y92.27 E.0105
G1 X51.504 Y92.365 E.00708
G1 X51.292 Y92.443 E.00707
G1 X50.974 Y92.521 E.01026
G1 X50.524 Y92.561 E.01416
G1 X50.082 Y92.522 E.01393
G1 X49.756 Y92.443 E.0105
G1 X49.542 Y92.365 E.00715
G1 X49.246 Y92.218 E.01036
G1 X49.052 Y92.095 E.00722
G1 X48.713 Y91.811 E.01385
G1 X48.429 Y91.472 E.01385
G1 X48.306 Y91.278 E.00722
G1 X48.157 Y90.978 E.0105
G1 X48.025 Y90.559 E.01378
G1 X47.985 Y90.332 E.00722
G1 X47.964 Y90.002 E.01036
G1 X47.974 Y89.775 E.00714
G1 X48.023 Y89.451 E.01026
G1 X48.157 Y89.022 E.01408
G1 X48.302 Y88.729 E.01027
G1 X48.429 Y88.528 E.00746
G1 X48.713 Y88.189 E.01386
G1 X49.052 Y87.905 E.01385
G1 X49.246 Y87.782 E.00721
G1 X49.546 Y87.633 E.01051
G1 X49.965 Y87.501 E.01378
G1 X50.192 Y87.461 E.00722
G1 X50.518 Y87.44 E.01026
G1 X50.906 Y87.473 E.01221
M204 S1250
G1 X51.18 Y87.219 F9000
G1 E-2.24 F4200
;WIPE_START
G1 F7200
G1 X51.292 Y87.557 E-.21864
G1 X51.504 Y87.635 E-.12503
G1 X51.708 Y87.73 E-.12507
G1 X51.995 Y87.904 E-.18555
G1 X52.335 Y88.189 E-.24613
G1 X52.348 Y88.205 E-.01158
;WIPE_END
G1 E-.048 F4200
G1 Z.4 F9000
G1 X58.491 Y108.68
G1 Z.2
G1 E3.2 F2400
M204 S800
;TYPE:Perimeter
G1 F1200
