; generated by PrusaSlicer 2.4.1 on 2022-05-05 at 23:04:29 UTC


;
;

;
;
; 

; external perimeters extrusion width = 0.45mm
; perimeters extrusion width = 0.45mm
; infill extrusion width = 0.45mm
; solid infill extrusion width = 0.45mm
; top infill extrusion width = 0.40mm
; support material extrusion width = 0.35mm
; first layer extrusion width = 0.42mm

M73 P0 R45
M201 X1250 Y1250 Z400 E5000 ; sets maximum accelerations, mm/sec^2
M203 X180 Y180 Z12 E80 ; sets maximum feedrates, mm / sec
M204 P1250 R1250 T1250 ; sets acceleration (P, T) and retract acceleration (R), mm/sec^2
M205 X8.00 Y8.00 Z2.00 E10.00 ; sets the jerk limits, mm/sec
M205 S0 T0 ; sets the minimum extruding and travel feed rate, mm/sec
M107
;TYPE:Custom
G90 ; use absolute coordinates
M83 ; extruder relative mode
M104 S170 ; set extruder temp for bed leveling
M140 S60 ; set bed temp
M109 R170 ; wait for bed leveling temp
M190 S60 ; wait for bed temp
G28 ; home all without mesh bed level
G29 ; mesh bed leveling 
M104 S215 ; set extruder temp
G92 E0.0
G1 Y-2.0 X179 F2400
G1 Z3 F720
M109 S215 ; wait for extruder temp

; intro line
G1 X170 F1000
G1 Z0.2 F720
G1 X110.0 E8.0 F900
G1 X40.0 E10.0 F700
G92 E0.0

M221 S95 ; set flow
G21 ; set units to millimeters
G90 ; use absolute coordinates
M83 ; use relative distances for extrusion
M900 K0.2 ; Filament gcode LA 1.5
; ; Filament gcode LA 1.0
M107
;LAYER_CHANGE
;Z:0.2
;HEIGHT:0.2
;BEFORE_LAYER_CHANGE
G92 E0.0
;0.2


G1 E-3.2 F4200
G1 Z.2 F9000
;AFTER_LAYER_CHANGE
;0.2
G1 Z.4
G1 X71.863 Y71.576
G1 Z.2
G1 E3.2 F2400
M204 S800
;TYPE:Skirt/Brim
;WIDTH:0.42
G1 F1200
G1 X72.48 Y70.957 E.02738
G1 X74.289 Y69.439 E.07403
G1 X76.14 Y68.148 E.07077
G1 X78.098 Y67.023 E.0708
G1 X81.101 Y65.702 E.10288
G1 X83.353 Y64.992 E.07403
G1 X85.558 Y64.508 E.07078
G1 X87.797 Y64.217 E.07079
G1 X91.021 Y64.145 E.10113
G1 X93.326 Y64.338 E.07253
G1 X95.651 Y64.748 E.07403
G1 X98.695 Y65.581 E.09895
G1 X100.892 Y66.527 E.07499
G1 X102.983 Y67.616 E.07394
G1 X104.885 Y68.833 E.07078
G1 X107.444 Y70.887 E.10289
G1 X109.043 Y72.48 E.07078
G1 X110.561 Y74.289 E.07403
G1 X111.852 Y76.14 E.07077
G1 X112.977 Y78.098 E.0708
G1 X114.298 Y81.101 E.10288
G1 X115.008 Y83.353 E.07403
G1 X115.492 Y85.558 E.07078
G1 X115.783 Y87.797 E.07079
G1 X115.854 Y91.077 E.10288
G1 X115.662 Y93.326 E.07078
G1 X115.252 Y95.651 E.07403
G1 X114.334 Y98.801 E.10288
G1 X113.474 Y100.889 E.07079
G1 X112.436 Y102.893 E.07078
G1 X111.167 Y104.885 E.07402
G1 X109.113 Y107.444 E.10289
G1 X107.52 Y109.043 E.07078
G1 X105.711 Y110.561 E.07403
G1 X103.86 Y111.852 E.07078
G1 X101.902 Y112.977 E.07079
G1 X98.899 Y114.298 E.10288
G1 X96.647 Y115.008 E.07403
G1 X94.442 Y115.492 E.07078
G1 X92.203 Y115.783 E.07079
G1 X88.923 Y115.854 E.10288
G1 X86.674 Y115.662 E.07078
G1 X84.349 Y115.252 E.07403
G1 X81.199 Y114.334 E.10288
G1 X79.111 Y113.474 E.07079
G1 X77.107 Y112.436 E.07078
G1 X75.115 Y111.167 E.07402
G1 X72.556 Y109.113 E.10289
G1 X70.957 Y107.52 E.07078
G1 X69.439 Y105.711 E.07403
G1 X68.148 Y103.86 E.07078
G1 X67.023 Y101.902 E.07079
G1 X65.702 Y98.899 E.10288
G1 X64.992 Y96.647 E.07403
G1 X64.508 Y94.442 E.07078
G1 X64.217 Y92.203 E.07079
G1 X64.146 Y88.923 E.10288
G1 X64.338 Y86.674 E.07078
G1 X64.748 Y84.349 E.07403
G1 X65.666 Y81.199 E.10288
G1 X66.526 Y79.111 E.07079
G1 X67.564 Y77.107 E.07078
G1 X68.833 Y75.115 E.07402
G1 X70.887 Y72.556 E.10289
G1 X71.821 Y71.618 E.04151
M204 S1250
; printing object wheel_shaft.stl id:0 copy 0
G1 E-2.24 F4200
;WIPE_START
G1 F7200
G1 X72.48 Y70.957 E-.51722
G1 X73.025 Y70.499 E-.39478
;WIPE_END
G1 E-.048 F4200
G1 Z.4 F9000
G1 X76.509 Y73.621
G1 Z.2
G1 E3.2 F2400
M204 S800
;TYPE:Support material
G1 F1200
G1 X76.75 Y73.642 E.00758
G1 X77.105 Y73.713 E.01136
G1 X77.559 Y73.878 E.01514
G1 X77.773 Y73.989 E.00757
G1 X78.074 Y74.191 E.01137
G1 X78.43 Y74.517 E.01513
G1 X78.586 Y74.702 E.00758
G1 X78.787 Y75.003 E.01137
G1 X78.991 Y75.441 E.01514
G1 X79.064 Y75.671 E.00757
G1 X79.134 Y76.027 E.01136
G1 X79.155 Y76.509 E.01514
G1 X79.134 Y76.75 E.00758
G1 X79.064 Y77.105 E.01136
G1 X78.899 Y77.559 E.01514
G1 X78.787 Y77.773 E.00757
G1 X78.586 Y78.074 E.01137
G1 X78.26 Y78.43 E.01513
G1 X78.074 Y78.586 E.00758
G1 X77.773 Y78.787 E.01137
G1 X77.335 Y78.991 E.01514
G1 X77.105 Y79.064 E.00757
G1 X76.75 Y79.134 E.01136
G1 X76.267 Y79.155 E.01514
G1 X76.027 Y79.134 E.00758
G1 X75.671 Y79.064 E.01136
G1 X75.218 Y78.899 E.01514
G1 X75.003 Y78.787 E.00757
G1 X74.702 Y78.586 E.01137
G1 X74.346 Y78.26 E.01514
G1 X74.191 Y78.075 E.00757
G1 X73.989 Y77.773 E.01137
G1 X73.785 Y77.336 E.01514
G1 X73.713 Y77.105 E.00758
G1 X73.642 Y76.75 E.01136
G1 X73.621 Y76.267 E.01514
G1 X73.642 Y76.027 E.00758
G1 X73.713 Y75.671 E.01136
G1 X73.878 Y75.218 E.01514
G1 X73.989 Y75.003 E.00757
G1 X74.191 Y74.702 E.01136
G1 X74.517 Y74.346 E.01514
G1 X74.702 Y74.191 E.00757
G1 X75.003 Y73.989 E.01136
G1 X75.441 Y73.785 E.01514
G1 X75.907 Y73.66 E.01513
G1 X76.147 Y73.629 E.00758
G1 X76.452 Y73.62 E.00959
M204 S1250
G1 X78.688 Y77.602 F9000
M204 S800
G1 F1200
G1 X78.688 Y75.603 E.06267
G1 X78.493 Y75.173 E.01479
G1 X78.269 Y74.849 E.01236
G1 X78.269 Y77.927 E.09651
G1 X78.107 Y78.107 E.00758
G1 X77.85 Y78.33 E.01067
G1 X77.85 Y74.447 E.12175
G1 X77.431 Y74.193 E.01536
G1 X77.431 Y78.583 E.13766
G1 X77.012 Y78.737 E.01399
G1 X77.012 Y74.039 E.1473
G1 X76.593 Y73.967 E.01333
G1 X76.593 Y78.81 E.15186
G1 X76.174 Y78.809 E.01314
G1 X76.174 Y73.967 E.15181
G1 X75.755 Y74.042 E.01334
M73 P1 R45
G1 X75.755 Y78.735 E.14714
G1 X75.336 Y78.578 E.01402
G1 X75.336 Y74.198 E.13735
G1 X74.917 Y74.454 E.0154
G1 X74.917 Y78.322 E.12129
G1 X74.669 Y78.107 E.01029
G1 X74.498 Y77.915 E.00807
G1 X74.498 Y74.861 E.09574
G1 X74.232 Y75.266 E.01517
G1 X74.079 Y75.632 E.01245
G1 X74.079 Y77.583 E.06117
M204 S1250
G1 E-2.24 F4200
;WIPE_START
G1 F7200
G1 X74.079 Y75.937 E-.912
;WIPE_END
G1 E-.048 F4200
G1 Z.4 F9000
G1 X76.509 Y100.845
G1 Z.2
G1 E3.2 F2400
M204 S800
G1 F1200
G1 X76.75 Y100.866 E.00758
G1 X77.105 Y100.936 E.01136
G1 X77.559 Y101.101 E.01514
G1 X77.773 Y101.213 E.00757
G1 X78.074 Y101.414 E.01137
G1 X78.43 Y101.74 E.01513
G1 X78.586 Y101.926 E.00758
G1 X78.787 Y102.227 E.01137
G1 X78.991 Y102.664 E.01514
G1 X79.064 Y102.895 E.00757
G1 X79.134 Y103.25 E.01136
G1 X79.155 Y103.733 E.01514
G1 X79.134 Y103.973 E.00758
G1 X79.064 Y104.329 E.01136
G1 X78.899 Y104.782 E.01514
G1 X78.787 Y104.997 E.00757
G1 X78.586 Y105.298 E.01137
G1 X78.26 Y105.654 E.01514
G1 X78.074 Y105.809 E.00758
G1 X77.773 Y106.011 E.01136
G1 X77.336 Y106.215 E.01514
G1 X77.105 Y106.287 E.00757
G1 X76.75 Y106.358 E.01136
G1 X76.267 Y106.379 E.01514
G1 X76.027 Y106.358 E.00758
G1 X75.671 Y106.287 E.01136
G1 X75.218 Y106.122 E.01514
G1 X75.003 Y106.011 E.00757
G1 X74.702 Y105.809 E.01136
G1 X74.346 Y105.483 E.01514
G1 X74.191 Y105.298 E.00757
G1 X73.989 Y104.997 E.01137
G1 X73.785 Y104.559 E.01514
G1 X73.713 Y104.329 E.00758
G1 X73.642 Y103.973 E.01136
G1 X73.621 Y103.491 E.01514
G1 X73.642 Y103.25 E.00758
G1 X73.713 Y102.895 E.01136
G1 X73.878 Y102.441 E.01514
G1 X73.989 Y102.227 E.00757
G1 X74.191 Y101.926 E.01136
G1 X74.517 Y101.57 E.01513
G1 X74.702 Y101.414 E.00758
G1 X75.003 Y101.213 E.01137
G1 X75.441 Y101.009 E.01514
G1 X75.907 Y100.884 E.01513
G1 X76.147 Y100.852 E.00758
G1 X76.452 Y100.843 E.00959
M204 S1250
G1 X78.688 Y104.825 F9000
M204 S800
G1 F1200
G1 X78.688 Y102.826 E.06267
G1 X78.493 Y102.397 E.01479
G1 X78.269 Y102.073 E.01236
G1 X78.269 Y105.151 E.09651
G1 X78.107 Y105.331 E.00759
G1 X77.85 Y105.553 E.01066
G1 X77.85 Y101.67 E.12175
G1 X77.431 Y101.417 E.01536
G1 X77.431 Y105.807 E.13766
G1 X77.012 Y105.961 E.01399
G1 X77.012 Y101.263 E.1473
G1 X76.593 Y101.19 E.01333
G1 X76.593 Y106.033 E.15186
G1 X76.174 Y106.033 E.01314
G1 X76.174 Y101.191 E.15181
G1 X75.755 Y101.265 E.01334
G1 X75.755 Y105.958 E.14714
G1 X75.336 Y105.802 E.01402
G1 X75.336 Y101.422 E.13735
G1 X74.917 Y101.678 E.0154
G1 X74.917 Y105.546 E.12129
G1 X74.67 Y105.33 E.01028
G1 X74.498 Y105.139 E.00808
G1 X74.498 Y102.085 E.09574
G1 X74.232 Y102.489 E.01517
G1 X74.079 Y102.856 E.01245
G1 X74.079 Y104.806 E.06117
M204 S1250
G1 E-2.24 F4200
;WIPE_START
G1 F7200
G1 X74.079 Y103.161 E-.912
;WIPE_END
G1 E-.048 F4200
G1 Z.4 F9000
G1 X103.733 Y100.845
G1 Z.2
G1 E3.2 F2400
M204 S800
G1 F1200
G1 X103.973 Y100.866 E.00758
G1 X104.329 Y100.936 E.01136
G1 X104.782 Y101.101 E.01514
G1 X104.997 Y101.213 E.00757
G1 X105.298 Y101.414 E.01137
G1 X105.654 Y101.74 E.01514
G1 X105.809 Y101.926 E.00757
G1 X106.011 Y102.227 E.01137
G1 X106.215 Y102.664 E.01514
G1 X106.287 Y102.895 E.00757
G1 X106.358 Y103.25 E.01136
G1 X106.379 Y103.733 E.01514
G1 X106.358 Y103.973 E.00758
G1 X106.287 Y104.329 E.01136
G1 X106.122 Y104.782 E.01514
G1 X106.011 Y104.997 E.00757
G1 X105.809 Y105.298 E.01136
G1 X105.483 Y105.654 E.01514
G1 X105.298 Y105.809 E.00757
G1 X104.997 Y106.011 E.01136
G1 X104.559 Y106.215 E.01514
G1 X104.329 Y106.287 E.00757
G1 X103.973 Y106.358 E.01136
G1 X103.491 Y106.379 E.01514
G1 X103.25 Y106.358 E.00758
G1 X102.895 Y106.287 E.01136
G1 X102.441 Y106.122 E.01514
G1 X102.227 Y106.011 E.00757
G1 X101.926 Y105.809 E.01136
G1 X101.57 Y105.483 E.01513
G1 X101.414 Y105.298 E.00758
G1 X101.213 Y104.997 E.01137
G1 X101.009 Y104.559 E.01514
G1 X100.936 Y104.329 E.00758
G1 X100.866 Y103.973 E.01136
G1 X100.845 Y103.491 E.01514
G1 X100.866 Y103.25 E.00758
G1 X100.936 Y102.895 E.01136
G1 X101.101 Y102.441 E.01514
G1 X101.213 Y102.227 E.00757
G1 X101.414 Y101.926 E.01137
G1 X101.74 Y101.57 E.01513
G1 X101.926 Y101.414 E.00758
G1 X102.227 Y101.213 E.01137
G1 X102.665 Y101.009 E.01514
G1 X103.131 Y100.884 E.01513
G1 X103.37 Y100.852 E.00758
G1 X103.676 Y100.843 E.00959
M204 S1250
G1 X105.921 Y104.806 F9000
M204 S800
G1 F1200
G1 X105.921 Y102.856 E.06117
G1 X105.768 Y102.489 E.01244
G1 X105.502 Y102.085 E.01517
G1 X105.502 Y105.139 E.09574
G1 X105.33 Y105.33 E.00807
G1 X105.083 Y105.546 E.01029
G1 X105.083 Y101.678 E.12129
G1 X104.664 Y101.422 E.0154
G1 X104.664 Y105.802 E.13735
G1 X104.245 Y105.958 E.01402
G1 X104.245 Y101.265 E.14714
G1 X103.826 Y101.191 E.01334
G1 X103.826 Y106.033 E.15181
G1 X103.407 Y106.033 E.01314
G1 X103.407 Y101.19 E.15186
G1 X102.988 Y101.263 E.01333
G1 X102.988 Y105.961 E.1473
G1 X102.569 Y105.807 E.01399
G1 X102.569 Y101.417 E.13766
G1 X102.15 Y101.67 E.01536
G1 X102.15 Y105.553 E.12175
G1 X101.893 Y105.331 E.01066
G1 X101.731 Y105.151 E.00759
G1 X101.731 Y102.073 E.09651
G1 X101.507 Y102.397 E.01236
G1 X101.312 Y102.826 E.01479
G1 X101.312 Y104.825 E.06267
M204 S1250
G1 E-2.24 F4200
;WIPE_START
G1 F7200
G1 X101.312 Y103.179 E-.912
;WIPE_END
G1 E-.048 F4200
G1 Z.4 F9000
G1 X103.733 Y73.621
G1 Z.2
G1 E3.2 F2400
M204 S800
G1 F1200
G1 X103.973 Y73.642 E.00758
G1 X104.329 Y73.713 E.01136
G1 X104.782 Y73.878 E.01514
G1 X104.997 Y73.989 E.00757
G1 X105.298 Y74.191 E.01137
G1 X105.654 Y74.517 E.01514
G1 X105.809 Y74.702 E.00757
G1 X106.011 Y75.003 E.01137
G1 X106.215 Y75.441 E.01514
G1 X106.287 Y75.671 E.00757
G1 X106.358 Y76.027 E.01136
G1 X106.379 Y76.509 E.01514
G1 X106.358 Y76.75 E.00758
G1 X106.287 Y77.105 E.01136
G1 X106.122 Y77.559 E.01514
G1 X106.011 Y77.773 E.00757
G1 X105.809 Y78.074 E.01136
G1 X105.483 Y78.43 E.01513
G1 X105.298 Y78.586 E.00758
G1 X104.997 Y78.787 E.01137
G1 X104.559 Y78.991 E.01514
G1 X104.329 Y79.064 E.00757
G1 X103.973 Y79.134 E.01136
G1 X103.491 Y79.155 E.01514
G1 X103.25 Y79.134 E.00758
G1 X102.895 Y79.064 E.01136
G1 X102.441 Y78.899 E.01514
G1 X102.227 Y78.787 E.00757
G1 X101.926 Y78.586 E.01137
G1 X101.57 Y78.26 E.01513
G1 X101.414 Y78.074 E.00758
G1 X101.213 Y77.773 E.01137
G1 X101.009 Y77.336 E.01514
G1 X100.936 Y77.105 E.00758
G1 X100.866 Y76.75 E.01136
G1 X100.845 Y76.267 E.01514
G1 X100.866 Y76.027 E.00758
G1 X100.936 Y75.671 E.01136
G1 X101.101 Y75.218 E.01514
G1 X101.213 Y75.003 E.00757
G1 X101.414 Y74.702 E.01137
G1 X101.74 Y74.346 E.01514
G1 X101.926 Y74.191 E.00758
G1 X102.227 Y73.989 E.01136
G1 X102.664 Y73.785 E.01514
G1 X103.131 Y73.66 E.01513
G1 X103.37 Y73.629 E.00758
G1 X103.676 Y73.62 E.00959
M204 S1250
G1 X105.921 Y77.583 F9000
M204 S800
G1 F1200
G1 X105.921 Y75.632 E.06117
G1 X105.768 Y75.266 E.01245
G1 X105.502 Y74.861 E.01517
G1 X105.502 Y77.915 E.09574
G1 X105.331 Y78.107 E.00807
G1 X105.083 Y78.322 E.01029
G1 X105.083 Y74.454 E.12129
G1 X104.664 Y74.198 E.0154
G1 X104.664 Y78.578 E.13735
G1 X104.245 Y78.735 E.01402
G1 X104.245 Y74.042 E.14714
G1 X103.826 Y73.967 E.01334
G1 X103.826 Y78.809 E.15181
G1 X103.407 Y78.81 E.01314
G1 X103.407 Y73.967 E.15186
G1 X102.988 Y74.039 E.01333
G1 X102.988 Y78.737 E.1473
G1 X102.569 Y78.583 E.01399
G1 X102.569 Y74.193 E.13766
G1 X102.15 Y74.447 E.01536
G1 X102.15 Y78.33 E.12175
G1 X101.893 Y78.107 E.01067
G1 X101.731 Y77.927 E.00758
G1 X101.731 Y74.849 E.09651
G1 X101.507 Y75.173 E.01236
G1 X101.312 Y75.603 E.01479
G1 X101.312 Y77.602 E.06267
M204 S1250
G1 E-2.24 F4200
;WIPE_START
G1 F7200
G1 X101.312 Y75.956 E-.912
;WIPE_END
G1 E-.048 F4200
G1 Z.4 F9000
G1 X103.136 Y99.982
G1 Z.2
M73 P1 R44
G1 E3.2 F2400
M204 S800
;TYPE:External perimeter
G1 F1200
G1 X103.6 Y99.952 E.01458
G1 X103.931 Y99.965 E.01037
G1 X104.247 Y100.007 E.01002
G1 X104.561 Y100.077 E.01008
G1 X105.01 Y100.229 E.01487
G1 X105.302 Y100.365 E.01008
G1 X105.578 Y100.525 E.01001
G1 X105.842 Y100.709 E.01008
G1 X106.2 Y101.023 E.01494
G1 X106.514 Y101.382 E.01494
G1 X106.699 Y101.645 E.01008
G1 X106.858 Y101.922 E.01001
G1 X106.993 Y102.211 E.01001
G1 X107.103 Y102.511 E.01001
G1 X107.185 Y102.82 E.01002
G1 X107.241 Y103.136 E.01008
G1 X107.272 Y103.612 E.01494
G1 X107.241 Y104.088 E.01495
G1 X107.183 Y104.406 E.01013
G1 X107.095 Y104.716 E.0101
G1 X106.974 Y105.017 E.01018
G1 X106.815 Y105.3 E.01017
G1 X106.629 Y105.559 E.01001
G1 X106.13 Y106.13 E.02377
G1 X105.559 Y106.629 E.02377
G1 X105.3 Y106.815 E.01001
G1 X105.017 Y106.974 E.01017
G1 X104.716 Y107.095 E.01018
G1 X104.406 Y107.183 E.0101
G1 X104.088 Y107.241 E.01013
G1 X103.612 Y107.272 E.01495
G1 X103.136 Y107.241 E.01494
G1 X102.82 Y107.185 E.01008
G1 X102.511 Y107.103 E.01002
G1 X102.211 Y106.993 E.01001
G1 X101.922 Y106.859 E.01001
G1 X101.645 Y106.699 E.01001
G1 X101.382 Y106.514 E.01008
G1 X101.023 Y106.2 E.01494
G1 X100.709 Y105.842 E.01494
G1 X100.525 Y105.578 E.01008
G1 X100.365 Y105.302 E.01001
G1 X100.23 Y105.012 E.01001
G1 X100.121 Y104.713 E.01001
G1 X100.038 Y104.404 E.01002
G1 X99.982 Y104.087 E.01008
G1 X99.951 Y103.612 E.01494
G1 X99.982 Y103.136 E.01494
G1 X100.038 Y102.82 E.01008
G1 X100.121 Y102.511 E.01002
G1 X100.23 Y102.211 E.01001
G1 X100.365 Y101.922 E.01001
G1 X100.525 Y101.645 E.01001
G1 X100.709 Y101.382 E.01008
G1 X101.023 Y101.023 E.01494
G1 X101.382 Y100.709 E.01494
G1 X101.645 Y100.525 E.01008
G1 X101.922 Y100.365 E.01001
G1 X102.211 Y100.23 E.01001
G1 X102.511 Y100.121 E.01001
G1 X102.82 Y100.038 E.01002
G1 X103.077 Y99.993 E.0082
M204 S1250
G1 X103.294 Y99.615 F9000
G1 E-2.24 F4200
;WIPE_START
G1 F7200
G1 X103.6 Y99.952 E-.29069
G1 X103.931 Y99.965 E-.18335
G1 X104.247 Y100.007 E-.17703
G1 X104.561 Y100.077 E-.17824
G1 X104.703 Y100.125 E-.08268
;WIPE_END
G1 E-.048 F4200
G1 Z.4 F9000
G1 X80.018 Y103.136
G1 Z.2
G1 E3.2 F2400
M204 S800
G1 F1200
G1 X80.049 Y103.612 E.01494
G1 X80.018 Y104.087 E.01494
G1 X79.962 Y104.404 E.01008
G1 X79.879 Y104.713 E.01002
G1 X79.77 Y105.013 E.01001
G1 X79.635 Y105.302 E.01001
G1 X79.475 Y105.578 E.01001
G1 X79.291 Y105.842 E.01008
G1 X78.977 Y106.2 E.01494
G1 X78.618 Y106.514 E.01494
G1 X78.355 Y106.699 E.01008
G1 X78.078 Y106.858 E.01001
G1 X77.789 Y106.993 E.01001
G1 X77.489 Y107.103 E.01001
G1 X77.18 Y107.185 E.01002
G1 X76.864 Y107.241 E.01008
G1 X76.388 Y107.272 E.01494
G1 X75.912 Y107.241 E.01495
G1 X75.594 Y107.183 E.01013
G1 X75.284 Y107.095 E.0101
G1 X74.983 Y106.974 E.01018
G1 X74.7 Y106.815 E.01017
G1 X74.441 Y106.629 E.01001
G1 X73.87 Y106.13 E.02377
G1 X73.371 Y105.559 E.02377
G1 X73.185 Y105.3 E.01001
G1 X73.026 Y105.017 E.01017
G1 X72.905 Y104.716 E.01018
G1 X72.817 Y104.406 E.0101
G1 X72.759 Y104.088 E.01013
G1 X72.728 Y103.612 E.01495
G1 X72.759 Y103.136 E.01494
G1 X72.815 Y102.82 E.01008
G1 X72.897 Y102.511 E.01002
