; generated by PrusaSlicer 2.4.1 on 2022-05-05 at 23:04:26 UTC


;
;

;
;
; 

; external perimeters extrusion width = 0.45mm
; perimeters extrusion width = 0.45mm
; infill extrusion width = 0.45mm
; solid infill extrusion width = 0.45mm
; top infill extrusion width = 0.40mm
; support material extrusion width = 0.35mm
; first layer extrusion width = 0.42mm

M73 P0 R20
M201 X1250 Y1250 Z400 E5000 ; sets maximum accelerations, mm/sec^2
M203 X180 Y180 Z12 E80 ; sets maximum feedrates, mm / sec
M204 P1250 R1250 T1250 ; sets acceleration (P, T) and retract acceleration (R), mm/sec^2
M205 X8.00 Y8.00 Z2.00 E10.00 ; sets the jerk limits, mm/sec
M205 S0 T0 ; sets the minimum extruding and travel feed rate, mm/sec
M107
;TYPE:Custom
G90 ; use absolute coordinates
M83 ; extruder relative mode
M104 S170 ; set extruder temp for bed leveling
M140 S60 ; set bed temp
M109 R170 ; wait for bed leveling temp
M190 S60 ; wait for bed temp
G28 ; home all without mesh bed level
G29 ; mesh bed leveling 
M104 S215 ; set extruder temp
G92 E0.0
G1 Y-2.0 X179 F2400
G1 Z3 F720
M109 S215 ; wait for extruder temp

; intro line
G1 X170 F1000
G1 Z0.2 F720
G1 X110.0 E8.0 F900
G1 X40.0 E10.0 F700
G92 E0.0

M221 S95 ; set flow
G21 ; set units to millimeters
G90 ; use absolute coordinates
M83 ; use relative distances for extrusion
M900 K0.2 ; Filament gcode LA 1.5
; ; Filament gcode LA 1.0
M107
;LAYER_CHANGE
;Z:0.2
;HEIGHT:0.2
;BEFORE_LAYER_CHANGE
G92 E0.0
;0.2


G1 E-3.2 F4200
M73 P1 R20
G1 Z.2 F9000
;AFTER_LAYER_CHANGE
;0.2
G1 Z.4
G1 X71.864 Y71.576
G1 Z.2
G1 E3.2 F2400
M204 S800
;TYPE:Skirt/Brim
;WIDTH:0.42
G1 F1200
G1 X72.48 Y70.957 E.02738
G1 X74.289 Y69.439 E.07403
G1 X76.14 Y68.148 E.07078
G1 X79.017 Y66.57 E.10289
G1 X81.183 Y65.672 E.0735
G1 X83.353 Y64.992 E.0713
G1 X85.558 Y64.508 E.07078
G1 X87.797 Y64.217 E.07079
G1 X91.077 Y64.146 E.10288
G1 X93.326 Y64.338 E.07078
G1 X95.651 Y64.748 E.07403
G1 X98.801 Y65.666 E.10288
G1 X100.889 Y66.526 E.07079
G1 X102.893 Y67.564 E.07078
G1 X104.885 Y68.833 E.07402
G1 X107.444 Y70.887 E.10288
G1 X109.043 Y72.48 E.07078
G1 X110.561 Y74.289 E.07403
G1 X111.852 Y76.14 E.07078
G1 X112.977 Y78.098 E.07079
G1 X114.298 Y81.101 E.10288
G1 X115.008 Y83.353 E.07403
G1 X115.492 Y85.558 E.07078
G1 X115.783 Y87.797 E.07079
G1 X115.854 Y91.077 E.10288
G1 X115.662 Y93.326 E.07078
G1 X115.252 Y95.651 E.07403
G1 X114.556 Y98.162 E.0817
G1 X113.474 Y100.889 E.09197
G1 X112.436 Y102.893 E.07078
G1 X111.167 Y104.885 E.07402
G1 X109.113 Y107.444 E.10288
G1 X107.52 Y109.043 E.07078
G1 X105.711 Y110.561 E.07403
G1 X103.86 Y111.852 E.07078
G1 X101.902 Y112.977 E.07079
G1 X98.899 Y114.298 E.10288
G1 X96.647 Y115.008 E.07403
G1 X94.442 Y115.492 E.07078
G1 X92.203 Y115.783 E.07079
G1 X88.923 Y115.854 E.10288
G1 X86.674 Y115.662 E.07078
G1 X84.349 Y115.252 E.07403
G1 X81.838 Y114.556 E.0817
G1 X79.111 Y113.474 E.09197
G1 X77.107 Y112.436 E.07078
G1 X75.115 Y111.167 E.07402
G1 X72.556 Y109.113 E.10288
G1 X70.957 Y107.52 E.07078
G1 X69.439 Y105.711 E.07403
G1 X68.148 Y103.86 E.07078
G1 X66.57 Y100.983 E.10289
G1 X65.672 Y98.817 E.0735
G1 X64.992 Y96.647 E.0713
G1 X64.508 Y94.442 E.07078
G1 X64.217 Y92.203 E.07079
G1 X64.146 Y88.923 E.10288
G1 X64.338 Y86.674 E.07078
G1 X64.748 Y84.349 E.07403
G1 X65.666 Y81.199 E.10288
G1 X66.526 Y79.111 E.07079
G1 X67.564 Y77.107 E.07078
G1 X68.833 Y75.115 E.07402
G1 X70.887 Y72.556 E.10288
G1 X71.821 Y71.618 E.04152
M204 S1250
; printing object wheel_spoiler.stl id:0 copy 0
G1 E-2.24 F4200
;WIPE_START
M73 P2 R20
G1 F7200
G1 X72.48 Y70.957 E-.51715
G1 X73.026 Y70.499 E-.39485
;WIPE_END
G1 E-.048 F4200
G1 Z.4 F9000
G1 X87.523 Y87.476
G1 Z.2
G1 E3.2 F2400
M204 S800
;TYPE:Perimeter
G1 F1200
G1 X87.965 Y87.105 E.0181
G1 X88.351 Y86.87 E.01417
G1 X88.657 Y86.726 E.01062
G1 X89.222 Y86.548 E.01856
G1 X89.544 Y86.492 E.01027
G1 X89.995 Y86.461 E.01417
G1 X90.601 Y86.513 E.01907
G1 X90.922 Y86.584 E.0103
G1 X91.348 Y86.729 E.01411
G1 X91.639 Y86.865 E.01008
G1 X92.035 Y87.105 E.01451
G1 X92.503 Y87.497 E.01914
G1 X92.895 Y87.965 E.01913
G1 X93.13 Y88.351 E.01417
G1 X93.271 Y88.651 E.01041
G1 X93.416 Y89.078 E.01413
G1 X93.487 Y89.398 E.01028
G1 X93.539 Y90 E.01894
G1 X93.487 Y90.602 E.01894
G1 X93.416 Y90.922 E.01028
G1 X93.271 Y91.348 E.01411
G1 X93.135 Y91.639 E.01008
G1 X92.895 Y92.035 E.01451
G1 X92.503 Y92.503 E.01914
G1 X92.035 Y92.895 E.01913
G1 X91.649 Y93.13 E.01417
G1 X91.349 Y93.271 E.01041
G1 X90.922 Y93.416 E.01413
G1 X90.602 Y93.487 E.01028
G1 X90 Y93.539 E.01894
G1 X89.398 Y93.487 E.01894
G1 X89.078 Y93.416 E.01028
G1 X88.652 Y93.271 E.01411
G1 X88.361 Y93.135 E.01008
G1 X87.965 Y92.895 E.01451
G1 X87.497 Y92.503 E.01914
G1 X87.105 Y92.035 E.01913
G1 X86.87 Y91.649 E.01417
G1 X86.729 Y91.349 E.01041
G1 X86.584 Y90.922 E.01413
G1 X86.513 Y90.602 E.01028
G1 X86.461 Y90 E.01894
G1 X86.513 Y89.398 E.01894
G1 X86.584 Y89.078 E.01028
G1 X86.729 Y88.652 E.01411
G1 X86.865 Y88.361 E.01008
G1 X87.105 Y87.965 E.01451
G1 X87.48 Y87.518 E.01829
M204 S1250
G1 X87.765 Y87.765 F9000
M204 S800
;TYPE:External perimeter
G1 F1200
G1 X88.185 Y87.412 E.0172
G1 X88.529 Y87.203 E.01263
G1 X88.795 Y87.078 E.00919
G1 X89.311 Y86.915 E.01699
G1 X89.59 Y86.866 E.00886
G1 X89.992 Y86.84 E.01263
G1 X90.544 Y86.887 E.01739
G1 X90.82 Y86.948 E.00887
G1 X91.207 Y87.079 E.01282
G1 X91.461 Y87.198 E.00879
G1 X91.815 Y87.412 E.01296
G1 X92.235 Y87.765 E.0172
G1 X92.588 Y88.185 E.0172
G1 X92.797 Y88.529 E.01263
G1 X92.921 Y88.792 E.00912
G1 X93.052 Y89.18 E.01283
G1 X93.113 Y89.456 E.00886
G1 X93.161 Y90 E.01713
G1 X93.113 Y90.544 E.01713
G1 X93.052 Y90.82 E.00886
G1 X92.921 Y91.207 E.01282
G1 X92.802 Y91.461 E.00879
G1 X92.588 Y91.815 E.01296
G1 X92.235 Y92.235 E.0172
G1 X91.815 Y92.588 E.0172
G1 X91.471 Y92.797 E.01263
G1 X91.208 Y92.921 E.00912
G1 X90.82 Y93.052 E.01283
G1 X90.544 Y93.113 E.00886
G1 X90 Y93.161 E.01713
G1 X89.456 Y93.113 E.01713
G1 X89.18 Y93.052 E.00886
G1 X88.793 Y92.921 E.01282
G1 X88.539 Y92.802 E.00879
G1 X88.185 Y92.588 E.01296
G1 X87.765 Y92.235 E.0172
G1 X87.412 Y91.815 E.0172
G1 X87.203 Y91.471 E.01263
G1 X87.079 Y91.208 E.00912
G1 X86.948 Y90.82 E.01283
G1 X86.887 Y90.544 E.00886
G1 X86.839 Y90 E.01713
G1 X86.887 Y89.456 E.01713
G1 X86.948 Y89.18 E.00886
G1 X87.079 Y88.793 E.01282
G1 X87.198 Y88.539 E.00879
G1 X87.412 Y88.185 E.01296
G1 X87.726 Y87.811 E.01532
M204 S1250
G1 X87.664 Y87.378 F9000
G1 E-2.24 F4200
;WIPE_START
G1 F7200
G1 X88.185 Y87.412 E-.33677
G1 X88.529 Y87.203 E-.22323
G1 X88.795 Y87.078 E-.16241
G1 X89.121 Y86.976 E-.18959
;WIPE_END
G1 E-.048 F4200
G1 Z.4 F9000
G1 X101.737 Y77.865
G1 Z.2
G1 E3.2 F2400
M204 S800
;TYPE:Perimeter
G1 F1200
G1 X101.445 Y77.399 E.01726
G1 X101.28 Y76.912 E.01612
G1 X101.224 Y76.486 E.01346
G1 X101.257 Y75.98 E.01591
G1 X101.368 Y75.565 E.01346
G1 X101.593 Y75.109 E.01592
G1 X101.85 Y74.774 E.01326
G1 X102.162 Y74.488 E.01327
M73 P2 R19
G1 X102.601 Y74.222 E.01611
G1 X103.088 Y74.056 E.01612
G1 X103.514 Y74 E.01346
G1 X104.02 Y74.033 E.01591
G1 X104.435 Y74.145 E.01347
G1 X104.891 Y74.369 E.01592
G1 X105.226 Y74.627 E.01326
G1 X105.512 Y74.938 E.01327
G1 X105.778 Y75.378 E.01611
G1 X105.944 Y75.865 E.01612
G1 X106 Y76.29 E.01346
G1 X105.967 Y76.797 E.01591
G1 X105.855 Y77.212 E.01347
G1 X105.631 Y77.667 E.01592
G1 X105.373 Y78.002 E.01326
G1 X105.062 Y78.288 E.01327
G1 X104.622 Y78.555 E.01611
G1 X104.135 Y78.72 E.01612
G1 X103.71 Y78.776 E.01346
G1 X103.203 Y78.743 E.01591
G1 X102.788 Y78.632 E.01346
G1 X102.333 Y78.407 E.01592
G1 X101.998 Y78.15 E.01326
G1 X101.777 Y77.91 E.01022
M204 S1250
G1 X102.015 Y77.611 F9000
M204 S800
;TYPE:External perimeter
G1 F1200
G1 X101.789 Y77.238 E.01365
G1 X101.649 Y76.826 E.01366
G1 X101.603 Y76.474 E.01113
G1 X101.631 Y76.041 E.01358
G1 X101.723 Y75.698 E.01114
G1 X101.915 Y75.31 E.01359
G1 X102.129 Y75.03 E.01106
G1 X102.389 Y74.791 E.01107
G1 X102.762 Y74.565 E.01365
G1 X103.174 Y74.425 E.01366
G1 X103.526 Y74.379 E.01113
G1 X103.959 Y74.407 E.01358
G1 X104.302 Y74.499 E.01114
G1 X104.69 Y74.691 E.01359
G1 X104.97 Y74.906 E.01106
G1 X105.209 Y75.166 E.01107
G1 X105.435 Y75.538 E.01365
G1 X105.575 Y75.951 E.01366
G1 X105.621 Y76.303 E.01113
G1 X105.593 Y76.735 E.01358
G1 X105.501 Y77.078 E.01114
G1 X105.309 Y77.467 E.01359
G1 X105.094 Y77.747 E.01106
G1 X104.834 Y77.985 E.01107
G1 X104.462 Y78.211 E.01365
G1 X104.049 Y78.351 E.01366
G1 X103.697 Y78.397 E.01113
G1 X103.265 Y78.369 E.01358
G1 X102.922 Y78.277 E.01114
G1 X102.533 Y78.085 E.01359
G1 X102.253 Y77.871 E.01106
G1 X102.055 Y77.655 E.00919
M204 S1250
G1 X101.618 Y77.657 F9000
G1 E-2.24 F4200
;WIPE_START
G1 F7200
G1 X101.789 Y77.238 E-.27399
G1 X101.649 Y76.826 E-.24143
G1 X101.603 Y76.474 E-.19677
G1 X101.626 Y76.114 E-.19981
;WIPE_END
G1 E-.048 F4200
G1 Z.4 F9000
G1 X78.771 Y76.254
G1 Z.2
G1 E3.2 F2400
M204 S800
;TYPE:Perimeter
G1 F1200
G1 X78.743 Y76.797 E.01706
G1 X78.632 Y77.212 E.01346
G1 X78.407 Y77.667 E.01592
G1 X78.15 Y78.002 E.01326
G1 X77.838 Y78.288 E.01327
G1 X77.399 Y78.555 E.01611
G1 X76.912 Y78.72 E.01612
G1 X76.486 Y78.776 E.01346
G1 X75.98 Y78.743 E.01591
G1 X75.565 Y78.632 E.01346
G1 X75.109 Y78.407 E.01592
G1 X74.774 Y78.15 E.01326
G1 X74.488 Y77.838 E.01327
G1 X74.222 Y77.399 E.01611
G1 X74.056 Y76.912 E.01612
G1 X74 Y76.486 E.01346
G1 X74.033 Y75.98 E.01591
G1 X74.145 Y75.565 E.01347
G1 X74.369 Y75.109 E.01592
G1 X74.627 Y74.774 E.01326
G1 X74.938 Y74.488 E.01327
G1 X75.378 Y74.222 E.01611
G1 X75.865 Y74.056 E.01612
G1 X76.29 Y74 E.01346
G1 X76.797 Y74.033 E.01591
G1 X77.212 Y74.145 E.01347
G1 X77.667 Y74.369 E.01592
G1 X78.002 Y74.627 E.01326
G1 X78.288 Y74.938 E.01327
G1 X78.555 Y75.378 E.01611
G1 X78.72 Y75.865 E.01612
G1 X78.763 Y76.194 E.01042
M204 S1250
G1 X78.397 Y76.303 F9000
M204 S800
;TYPE:External perimeter
G1 F1200
G1 X78.369 Y76.735 E.01358
G1 X78.277 Y77.078 E.01114
G1 X78.085 Y77.467 E.01359
G1 X77.871 Y77.747 E.01106
G1 X77.611 Y77.985 E.01107
G1 X77.238 Y78.211 E.01365
G1 X76.826 Y78.351 E.01366
G1 X76.474 Y78.397 E.01113
G1 X76.041 Y78.369 E.01358
G1 X75.698 Y78.277 E.01114
G1 X75.31 Y78.085 E.01359
G1 X75.03 Y77.871 E.01106
G1 X74.791 Y77.611 E.01107
G1 X74.565 Y77.238 E.01365
G1 X74.425 Y76.826 E.01366
G1 X74.379 Y76.474 E.01113
G1 X74.407 Y76.041 E.01358
G1 X74.499 Y75.698 E.01114
G1 X74.691 Y75.31 E.01359
G1 X74.906 Y75.03 E.01106
G1 X75.166 Y74.791 E.01107
G1 X75.538 Y74.565 E.01365
G1 X75.951 Y74.425 E.01366
G1 X76.303 Y74.379 E.01113
G1 X76.735 Y74.407 E.01358
G1 X77.078 Y74.499 E.01114
G1 X77.467 Y74.691 E.01359
G1 X77.747 Y74.906 E.01106
G1 X77.985 Y75.166 E.01107
G1 X78.211 Y75.538 E.01365
G1 X78.351 Y75.951 E.01366
G1 X78.39 Y76.243 E.00925
M204 S1250
G1 X78.751 Y76.49 F9000
G1 E-2.24 F4200
;WIPE_START
G1 F7200
G1 X78.369 Y76.735 E-.27276
G1 X78.277 Y77.078 E-.1968
G1 X78.085 Y77.467 E-.24021
G1 X77.871 Y77.747 E-.19548
G1 X77.862 Y77.755 E-.00675
;WIPE_END
G1 E-.048 F4200
G1 Z.4 F9000
G1 X76.76 Y101.255
G1 Z.2
G1 E3.2 F2400
M204 S800
;TYPE:Perimeter
G1 F1200
G1 X77.212 Y101.368 E.01461
G1 X77.667 Y101.593 E.01592
G1 X78.002 Y101.85 E.01326
G1 X78.288 Y102.162 E.01327
G1 X78.555 Y102.601 E.01611
G1 X78.72 Y103.088 E.01612
G1 X78.776 Y103.514 E.01346
G1 X78.743 Y104.02 E.01591
G1 X78.632 Y104.435 E.01346
G1 X78.407 Y104.891 E.01592
G1 X78.15 Y105.226 E.01326
G1 X77.838 Y105.512 E.01327
G1 X77.399 Y105.778 E.01611
G1 X76.912 Y105.944 E.01612
G1 X76.486 Y106 E.01346
G1 X75.98 Y105.967 E.01591
G1 X75.565 Y105.855 E.01347
G1 X75.109 Y105.631 E.01592
G1 X74.774 Y105.373 E.01326
G1 X74.488 Y105.062 E.01327
G1 X74.222 Y104.622 E.01611
G1 X74.056 Y104.135 E.01612
G1 X74 Y103.71 E.01346
G1 X74.033 Y103.203 E.01591
G1 X74.145 Y102.788 E.01347
G1 X74.369 Y102.333 E.01592
G1 X74.627 Y101.998 E.01326
G1 X74.938 Y101.712 E.01327
G1 X75.378 Y101.445 E.01611
G1 X75.865 Y101.28 E.01612
G1 X76.29 Y101.224 E.01346
G1 X76.7 Y101.251 E.01287
M204 S1250
G1 X76.735 Y101.631 F9000
M204 S800
;TYPE:External perimeter
G1 F1200
G1 X77.078 Y101.723 E.01114
G1 X77.467 Y101.915 E.01359
G1 X77.747 Y102.129 E.01106
G1 X77.985 Y102.389 E.01107
G1 X78.211 Y102.762 E.01365
G1 X78.351 Y103.174 E.01366
G1 X78.397 Y103.526 E.01113
G1 X78.369 Y103.959 E.01358
G1 X78.277 Y104.302 E.01114
G1 X78.085 Y104.69 E.01359
G1 X77.871 Y104.97 E.01106
G1 X77.611 Y105.209 E.01107
G1 X77.238 Y105.435 E.01365
G1 X76.826 Y105.575 E.01366
G1 X76.474 Y105.621 E.01113
G1 X76.041 Y105.593 E.01358
G1 X75.698 Y105.501 E.01114
G1 X75.31 Y105.309 E.01359
G1 X75.03 Y105.094 E.01106
G1 X74.791 Y104.834 E.01107
G1 X74.565 Y104.462 E.01365
G1 X74.425 Y104.049 E.01366
G1 X74.379 Y103.697 E.01113
G1 X74.407 Y103.265 E.01358
G1 X74.499 Y102.922 E.01114
G1 X74.691 Y102.533 E.01359
G1 X74.906 Y102.253 E.01106
G1 X75.166 Y102.015 E.01107
G1 X75.538 Y101.789 E.01365
G1 X75.951 Y101.649 E.01366
G1 X76.303 Y101.603 E.01113
G1 X76.675 Y101.627 E.0117
M204 S1250
G1 X76.961 Y101.357 F9000
G1 E-2.24 F4200
;WIPE_START
G1 F7200
G1 X77.078 Y101.723 E-.22951
G1 X77.467 Y101.915 E-.24021
G1 X77.747 Y102.129 E-.19548
G1 X77.985 Y102.389 E-.19561
G1 X78.033 Y102.468 E-.0512
;WIPE_END
G1 E-.048 F4200
G1 Z.4 F9000
G1 X101.255 Y103.24
G1 Z.2
G1 E3.2 F2400
M204 S800
;TYPE:Perimeter
G1 F1200
G1 X101.368 Y102.788 E.01461
G1 X101.593 Y102.333 E.01592
G1 X101.85 Y101.998 E.01326
G1 X102.162 Y101.712 E.01327
G1 X102.601 Y101.445 E.01611
G1 X103.088 Y101.28 E.01612
G1 X103.514 Y101.224 E.01346
G1 X104.02 Y101.257 E.01591
G1 X104.435 Y101.368 E.01346
G1 X104.891 Y101.593 E.01592
G1 X105.226 Y101.85 E.01326
G1 X105.512 Y102.162 E.01327
G1 X105.778 Y102.601 E.01611
G1 X105.944 Y103.088 E.01612
G1 X106 Y103.514 E.01346
G1 X105.967 Y104.02 E.01591
G1 X105.855 Y104.435 E.01347
G1 X105.631 Y104.891 E.01592
G1 X105.373 Y105.226 E.01326
G1 X105.062 Y105.512 E.01327
G1 X104.622 Y105.778 E.01611
G1 X104.135 Y105.944 E.01612
G1 X103.71 Y106 E.01346
G1 X103.203 Y105.967 E.01591
G1 X102.788 Y105.855 E.01347
G1 X102.333 Y105.631 E.01592
G1 X101.998 Y105.373 E.01326
G1 X101.712 Y105.062 E.01327
G1 X101.445 Y104.622 E.01611
G1 X101.28 Y104.135 E.01612
G1 X101.224 Y103.71 E.01346
G1 X101.251 Y103.3 E.01287
M204 S1250
G1 X101.631 Y103.265 F9000
M204 S800
;TYPE:External perimeter
G1 F1200
G1 X101.723 Y102.922 E.01114
G1 X101.915 Y102.533 E.01359
G1 X102.129 Y102.253 E.01106
G1 X102.389 Y102.015 E.01107
G1 X102.762 Y101.789 E.01365
G1 X103.174 Y101.649 E.01366
G1 X103.526 Y101.603 E.01113
G1 X103.959 Y101.631 E.01358
G1 X104.302 Y101.723 E.01114
G1 X104.69 Y101.915 E.01359
G1 X104.97 Y102.129 E.01106
G1 X105.209 Y102.389 E.01107
G1 X105.435 Y102.762 E.01365
G1 X105.575 Y103.174 E.01366
G1 X105.621 Y103.526 E.01113
G1 X105.593 Y103.959 E.01358
G1 X105.501 Y104.302 E.01114
G1 X105.309 Y104.69 E.01359
G1 X105.094 Y104.97 E.01106
G1 X104.834 Y105.209 E.01107
G1 X104.462 Y105.435 E.01365
G1 X104.049 Y105.575 E.01366
G1 X103.697 Y105.621 E.01113
G1 X103.265 Y105.593 E.01358
G1 X102.922 Y105.501 E.01114
G1 X102.533 Y105.309 E.01359
G1 X102.253 Y105.094 E.01106
G1 X102.015 Y104.834 E.01107
G1 X101.789 Y104.462 E.01365
G1 X101.649 Y104.049 E.01366
G1 X101.603 Y103.697 E.01113
G1 X101.627 Y103.325 E.0117
M204 S1250
G1 X101.357 Y103.039 F9000
G1 E-2.24 F4200
;WIPE_START
G1 F7200
G1 X101.723 Y102.922 E-.22951
G1 X101.915 Y102.533 E-.24021
G1 X102.129 Y102.253 E-.19548
G1 X102.389 Y102.015 E-.19561
G1 X102.468 Y101.967 E-.0512
;WIPE_END
G1 E-.048 F4200
G1 Z.4 F9000
G1 X104.971 Y107.073
G1 Z.2
G1 E3.2 F2400
M204 S800
;TYPE:Perimeter
G1 F1200
G1 X104.599 Y107.399 E.01548
G1 X103.827 Y108.019 E.03107
G1 X103.027 Y108.605 E.03107
G1 X102.204 Y109.156 E.03107
G1 X101.356 Y109.67 E.03107
G1 X100.488 Y110.146 E.03107
G1 X99.599 Y110.585 E.03107
G1 X98.692 Y110.984 E.03107
G1 X97.768 Y111.343 E.03107
G1 X96.83 Y111.661 E.03107
G1 X95.878 Y111.939 E.03107
G1 X94.916 Y112.174 E.03107
G1 X93.944 Y112.368 E.03107
G1 X92.965 Y112.518 E.03107
G1 X91.98 Y112.626 E.03107
G1 X90.991 Y112.691 E.03107
G1 X90 Y112.713 E.03107
G1 X89.009 Y112.691 E.03107
G1 X88.02 Y112.626 E.03107
G1 X87.035 Y112.518 E.03107
G1 X86.056 Y112.368 E.03107
G1 X85.084 Y112.174 E.03107
G1 X84.122 Y111.939 E.03107
G1 X83.169 Y111.661 E.03112
