; generated by PrusaSlicer 2.5.0 on 2023-01-28 at 13:03:52 UTC


;
;

;
;
; 

; external perimeters extrusion width = 0.68mm
; perimeters extrusion width = 0.68mm
; infill extrusion width = 0.68mm
; solid infill extrusion width = 0.68mm
; top infill extrusion width = 0.60mm
; support material extrusion width = 0.55mm
; first layer extrusion width = 0.65mm

M73 P0 R21
M201 X2500 Y2500 Z400 E5000 ; sets maximum accelerations, mm/sec^2
M203 X180 Y180 Z12 E80 ; sets maximum feedrates, mm / sec
M204 P1250 R1250 T2500 ; sets acceleration (P, T) and retract acceleration (R), mm/sec^2
M205 X8.00 Y8.00 Z2.00 E10.00 ; sets the jerk limits, mm/sec
M205 S0 T0 ; sets the minimum extruding and travel feed rate, mm/sec
M107
;TYPE:Custom
M862.3 P "MINI" ; printer model check
G90 ; use absolute coordinates
M83 ; extruder relative mode
M104 S170 ; set extruder temp for bed leveling
M140 S60 ; set bed temp
M109 R170 ; wait for bed leveling temp
M190 S60 ; wait for bed temp
M204 T1250 ; set travel acceleration
G28 ; home all without mesh bed level
G29 ; mesh bed leveling 
M204 T2500 ; restore travel acceleration
M104 S215 ; set extruder temp
G92 E0
G1 Y-2 X179 F2400
G1 Z3 F720
M109 S215 ; wait for extruder temp

; intro line
G1 X170 F1000
G1 Z0.2 F720
G1 X110 E8 F900
G1 X40 E10 F700
G92 E0

M221 S95 ; set flow
G21 ; set units to millimeters
G90 ; use absolute coordinates
M83 ; use relative distances for extrusion
M900 K0.12 ; Filament gcode LA 1.5
; ; Filament gcode LA 1.0
M107
;LAYER_CHANGE
;Z:0.2
;HEIGHT:0.2
;BEFORE_LAYER_CHANGE
G92 E0.0
;0.2


G1 E-3.2 F4200
M73 P1 R21
G1 Z.2 F720
;AFTER_LAYER_CHANGE
;0.2
G1 Z.4
G1 X78.293 Y78.222 F9000
G1 Z.2 F720
G1 E3.2 F2400
M204 P800
;TYPE:Skirt/Brim
;WIDTH:0.65
G1 F1200
G1 X79.369 Y77.242 E.0735
G1 X81.029 Y76.025 E.10391
G1 X82.383 Y75.243 E.07889
G1 X83.697 Y74.636 E.07311
G1 X85.641 Y73.976 E.1036
G1 X87.06 Y73.656 E.07345
G1 X88.562 Y73.455 E.07651
G1 X90.027 Y73.393 E.07398
G1 X92.057 Y73.522 E.10268
G1 X93.539 Y73.775 E.0759
G1 X94.94 Y74.145 E.07314
G1 X96.408 Y74.679 E.07885
G1 X98.253 Y75.589 E.10386
G1 X99.479 Y76.364 E.0732
G1 X100.631 Y77.242 E.07312
G1 X101.778 Y78.293 E.0785
G1 X102.758 Y79.369 E.0735
G1 X103.975 Y81.029 E.10391
G1 X104.757 Y82.383 E.07889
G1 X105.364 Y83.697 E.07311
G1 X106.024 Y85.641 E.1036
G1 X106.344 Y87.06 E.07345
G1 X106.548 Y88.609 E.07886
G1 X106.606 Y90.057 E.07314
G1 X106.473 Y92.104 E.10356
G1 X106.225 Y93.539 E.0735
G1 X105.855 Y94.94 E.07314
G1 X105.321 Y96.408 E.07885
G1 X104.411 Y98.253 E.10386
G1 X103.636 Y99.479 E.0732
G1 X102.758 Y100.631 E.07312
G1 X101.707 Y101.778 E.0785
G1 X100.631 Y102.758 E.0735
G1 X98.971 Y103.975 E.10391
G1 X97.617 Y104.757 E.07889
G1 X96.303 Y105.364 E.07311
G1 X94.359 Y106.024 E.1036
G1 X92.94 Y106.344 E.07345
G1 X91.391 Y106.548 E.07886
G1 X89.943 Y106.606 E.07314
G1 X87.896 Y106.473 E.10356
G1 X86.461 Y106.225 E.0735
G1 X85.06 Y105.855 E.07314
G1 X83.592 Y105.321 E.07885
G1 X81.747 Y104.411 E.10386
G1 X80.521 Y103.636 E.0732
G1 X79.369 Y102.758 E.07312
G1 X78.222 Y101.707 E.0785
G1 X77.242 Y100.631 E.0735
G1 X76.025 Y98.971 E.10391
G1 X75.243 Y97.617 E.07889
G1 X74.636 Y96.303 E.07311
G1 X73.976 Y94.359 E.1036
G1 X73.656 Y92.94 E.07345
G1 X73.452 Y91.391 E.07886
G1 X73.394 Y89.943 E.07314
G1 X73.527 Y87.896 E.10356
G1 X73.775 Y86.461 E.0735
G1 X74.145 Y85.06 E.07314
G1 X74.679 Y83.592 E.07885
G1 X75.589 Y81.747 E.10386
G1 X76.364 Y80.521 E.0732
G1 X77.242 Y79.369 E.07312
G1 X78.232 Y78.289 E.07396
M204 P1250
; printing object wheel_axle.stl id:0 copy 0
G1 E-2.24 F4200
;WIPE_START
G1 F7200
G1 X79.369 Y77.242 E-.85658
G1 X79.45 Y77.183 E-.05542
;WIPE_END
G1 E-.048 F4200
G1 Z.4 F720
G1 X89.482 Y78.359 F9000
G1 Z.2 F720
G1 E3.2 F2400
M204 P800
;TYPE:Perimeter
;WIDTH:0.649999
G1 F1200
G1 X90.25 Y78.353 E.03874
G1 X91.031 Y78.393 E.03949
G1 X91.597 Y78.458 E.02877
G1 X92.596 Y78.641 E.05125
G1 X93.57 Y78.908 E.05097
G1 X94.509 Y79.256 E.05057
G1 X95.415 Y79.682 E.05054
G1 X95.853 Y79.924 E.02525
G1 X96.696 Y80.463 E.05053
G1 X97.1 Y80.76 E.0253
G1 X97.547 Y81.122 E.02901
G1 X97.221 Y81.283 E.01832
G1 X96.704 Y81.609 E.03084
G1 X96.315 Y81.953 E.02624
G1 X95.871 Y82.478 E.0347
G1 X95.57 Y82.996 E.03027
G1 X95.329 Y83.577 E.03171
G1 X95.206 Y84.071 E.02573
G1 X95.153 Y84.69 E.03135
G1 X95.167 Y85.107 E.02102
G1 X95.242 Y85.613 E.02585
G1 X95.43 Y86.203 E.03124
G1 X95.602 Y86.582 E.02103
G1 X95.911 Y87.082 E.02966
G1 X96.265 Y87.494 E.02742
G1 X96.574 Y87.782 E.02133
G1 X97.04 Y88.119 E.02903
G1 X97.53 Y88.367 E.02774
G1 X97.92 Y88.514 E.02103
G1 X98.499 Y88.651 E.03004
G1 X99.034 Y88.69 E.02705
G1 X99.577 Y88.657 E.02748
G1 X100.291 Y88.506 E.03684
G1 X100.984 Y88.206 E.03813
G1 X101.461 Y87.902 E.02855
G1 X101.476 Y87.977 E.00389
G1 X101.61 Y89 E.05206
G1 X101.653 Y90.031 E.05209
G1 X101.604 Y91.062 E.0521
G1 X101.464 Y92.085 E.05211
G1 X101.236 Y93.087 E.05187
G1 X100.924 Y94.054 E.05129
G1 X100.529 Y94.99 E.0513
G1 X100.054 Y95.889 E.05131
G1 X99.503 Y96.743 E.05132
G1 X98.879 Y97.545 E.05131
G1 X98.187 Y98.29 E.05131
G1 X97.442 Y98.966 E.05077
G1 X96.645 Y99.572 E.05054
G1 X95.799 Y100.107 E.05053
G1 X94.911 Y100.568 E.05052
G1 X94.452 Y100.769 E.02529
G1 X93.913 Y100.975 E.02913
G1 X93.929 Y100.831 E.00734
G1 X93.92 Y100.097 E.03704
G1 X93.841 Y99.603 E.02525
G1 X93.647 Y99.003 E.03181
G1 X93.424 Y98.556 E.02524
G1 X93.156 Y98.131 E.02534
G1 X92.797 Y97.721 E.02751
G1 X92.375 Y97.357 E.02818
G1 X91.889 Y97.043 E.02917
G1 X91.338 Y96.788 E.03064
G1 X90.733 Y96.628 E.03163
G1 X90.013 Y96.557 E.0365
G1 X89.381 Y96.613 E.03204
G1 X88.802 Y96.744 E.02995
G1 X88.128 Y97.033 E.03703
G1 X87.613 Y97.358 E.03074
G1 X87.221 Y97.703 E.02635
G1 X86.778 Y98.228 E.03469
G1 X86.483 Y98.734 E.02957
G1 X86.253 Y99.266 E.02927
G1 X86.13 Y99.757 E.02554
G1 X86.06 Y100.435 E.03443
G1 X86.091 Y100.977 E.02736
G1 X85.541 Y100.766 E.02977
G1 X85.075 Y100.561 E.02567
G1 X84.173 Y100.092 E.0513
G1 X83.316 Y99.546 E.05132
G1 X82.509 Y98.927 E.05133
G1 X82.127 Y98.592 E.02566
G1 X81.408 Y97.873 E.05131
G1 X81.073 Y97.491 E.02566
G1 X80.454 Y96.684 E.05133
G1 X79.908 Y95.827 E.05132
G1 X79.439 Y94.925 E.05131
G1 X79.05 Y93.986 E.05132
G1 X78.744 Y93.016 E.05132
G1 X78.623 Y92.522 E.02566
G1 X78.447 Y91.521 E.05132
G1 X78.358 Y90.508 E.05132
G1 X78.347 Y90 E.02566
G1 X78.393 Y88.969 E.0521
G1 X78.448 Y88.471 E.0253
G1 X78.539 Y87.899 E.02924
G1 X78.635 Y87.972 E.00606
G1 X79.402 Y88.395 E.04424
G1 X80.119 Y88.609 E.03778
G1 X80.626 Y88.681 E.02585
G1 X81.31 Y88.67 E.03449
G1 X81.825 Y88.587 E.02633
G1 X82.403 Y88.397 E.03075
G1 X82.853 Y88.173 E.02536
G1 X83.451 Y87.762 E.03663
G1 X83.947 Y87.259 E.03567
G1 X84.259 Y86.832 E.02667
G1 X84.524 Y86.313 E.02943
G1 X84.753 Y85.616 E.03703
G1 X84.838 Y84.952 E.03382
G1 X84.833 Y84.393 E.02817
G1 X84.697 Y83.672 E.03704
G1 X84.451 Y83.016 E.03537
G1 X84.182 Y82.549 E.02722
G1 X83.813 Y82.095 E.02956
G1 X83.431 Y81.721 E.02694
G1 X82.947 Y81.373 E.03013
G1 X82.47 Y81.133 E.02695
G1 X82.509 Y81.073 E.00361
G1 X83.303 Y80.463 E.05053
G1 X84.147 Y79.924 E.05053
G1 X85.033 Y79.459 E.05053
M73 P2 R21
G1 X85.956 Y79.072 E.05053
G1 X86.911 Y78.765 E.05062
G1 X87.404 Y78.641 E.02566
G1 X88.402 Y78.458 E.05122
G1 X89.393 Y78.365 E.05023
M204 P1250
G1 X89.469 Y77.752 F9000
M204 P800
G1 F1200
G1 X90.263 Y77.746 E.04009
G1 X91.08 Y77.787 E.04127
G1 X91.69 Y77.858 E.031
G1 X92.74 Y78.051 E.05392
G1 X93.765 Y78.334 E.05364
G1 X94.754 Y78.7 E.05325
G1 X95.707 Y79.15 E.05322
G1 X96.168 Y79.405 E.02659
G1 X97.055 Y79.974 E.0532
G1 X97.892 Y80.617 E.05326
G1 X98.289 Y80.966 E.02666
G1 X98.767 Y81.433 E.03374
G1 X98.391 Y81.49 E.0192
G1 X97.721 Y81.706 E.03556
G1 X97.197 Y82.007 E.03048
G1 X96.725 Y82.4 E.03102
G1 X96.353 Y82.848 E.02936
G1 X96.114 Y83.265 E.02427
G1 X95.916 Y83.734 E.02571
G1 X95.785 Y84.335 E.03104
G1 X95.769 Y85.027 E.03497
G1 X95.878 Y85.632 E.03104
G1 X96.128 Y86.278 E.03497
G1 X96.484 Y86.823 E.03285
G1 X96.943 Y87.301 E.03345
G1 X97.443 Y87.648 E.03072
G1 X98.077 Y87.928 E.03498
G1 X98.678 Y88.058 E.03103
G1 X99.279 Y88.084 E.03038
G1 X99.847 Y88.001 E.02896
G1 X100.415 Y87.815 E.03018
G1 X101.061 Y87.446 E.03756
G1 X101.462 Y87.1 E.02674
G1 X101.803 Y86.692 E.02684
G1 X101.971 Y87.354 E.03446
G1 X102.076 Y87.885 E.02734
G1 X102.16 Y88.443 E.02847
G1 X102.25 Y89.502 E.05365
G1 X102.245 Y90.587 E.05478
G1 X102.145 Y91.667 E.05476
G1 X101.95 Y92.734 E.05473
G1 X101.665 Y93.768 E.05415
G1 X101.285 Y94.787 E.05489
G1 X100.834 Y95.737 E.0531
G1 X100.565 Y96.217 E.02778
G1 X99.992 Y97.102 E.0532
G1 X99.335 Y97.946 E.05398
G1 X98.6 Y98.736 E.0545
G1 X97.822 Y99.439 E.05292
G1 X96.982 Y100.077 E.05321
G1 X96.091 Y100.639 E.0532
G1 X95.155 Y101.123 E.0532
G1 X94.18 Y101.526 E.05325
G1 X93.679 Y101.695 E.02668
G1 X93.032 Y101.877 E.03394
G1 X93.094 Y101.749 E.00717
G1 X93.28 Y101.099 E.03417
G1 X93.338 Y100.421 E.03431
G1 X93.247 Y99.725 E.03547
G1 X93.077 Y99.211 E.02731
G1 X92.905 Y98.871 E.01923
G1 X92.564 Y98.366 E.03075
G1 X92.155 Y97.953 E.02936
G1 X91.62 Y97.588 E.03266
G1 X91.134 Y97.359 E.02713
G1 X90.591 Y97.218 E.02831
G1 X89.83 Y97.165 E.03852
G1 X89.298 Y97.24 E.02713
G1 X88.787 Y97.395 E.02693
G1 X88.334 Y97.618 E.0255
G1 X87.866 Y97.936 E.02855
G1 X87.453 Y98.345 E.02936
G1 X87.139 Y98.78 E.02704
G1 X86.896 Y99.273 E.02779
G1 X86.72 Y99.901 E.03293
G1 X86.664 Y100.513 E.03103
G1 X86.756 Y101.29 E.03946
G1 X86.965 Y101.876 E.03144
G1 X86.313 Y101.693 E.03417
G1 X85.807 Y101.521 E.02701
G1 X84.818 Y101.112 E.05399
G1 X83.87 Y100.618 E.05398
G1 X82.968 Y100.043 E.05399
G1 X82.119 Y99.392 E.054
G1 X81.717 Y99.039 E.027
G1 X80.961 Y98.283 E.05399
G1 X80.608 Y97.881 E.027
G1 X79.957 Y97.032 E.054
G1 X79.382 Y96.13 E.05399
G1 X78.888 Y95.182 E.05398
G1 X78.479 Y94.193 E.05399
G1 X78.157 Y93.173 E.05399
G1 X77.926 Y92.129 E.05399
G1 X77.844 Y91.6 E.027
G1 X77.751 Y90.535 E.05399
G1 X77.74 Y90 E.027
G1 X77.789 Y88.903 E.05544
G1 X77.929 Y87.857 E.05326
G1 X78.064 Y87.209 E.03342
G1 X78.197 Y86.689 E.02708
G1 X78.611 Y87.174 E.03219
G1 X79.004 Y87.49 E.02545
G1 X79.654 Y87.843 E.03731
G1 X80.264 Y88.019 E.03204
G1 X80.653 Y88.074 E.01984
G1 X81.201 Y88.072 E.02768
G1 X81.697 Y87.993 E.02534
G1 X82.196 Y87.827 E.02655
G1 X82.538 Y87.654 E.01936
G1 X83.041 Y87.314 E.03063
G1 X83.466 Y86.889 E.03033
G1 X83.804 Y86.4 E.03005
G1 X84.087 Y85.756 E.03551
G1 X84.215 Y85.165 E.03049
G1 X84.231 Y84.473 E.03497
G1 X84.122 Y83.868 E.03104
G1 X83.872 Y83.222 E.03497
G1 X83.54 Y82.704 E.03103
G1 X83.062 Y82.203 E.03497
G1 X82.557 Y81.852 E.03103
G1 X81.863 Y81.556 E.03808
G1 X81.23 Y81.436 E.03251
G1 X81.717 Y80.961 E.03433
G1 X82.119 Y80.608 E.027
G1 X82.968 Y79.957 E.054
G1 X83.87 Y79.382 E.05399
G1 X84.818 Y78.888 E.05398
G1 X85.807 Y78.479 E.05399
G1 X86.827 Y78.157 E.05399
G1 X87.871 Y77.926 E.05399
G1 X88.4 Y77.844 E.02701
G1 X89.379 Y77.757 E.04963
M204 P1250
G1 X89.497 Y77.148 F9000
M204 P800
G1 F1200
G1 X90.416 Y77.146 E.04637
G1 X91.267 Y77.197 E.04303
G1 X91.782 Y77.258 E.0262
G1 X92.885 Y77.462 E.05659
G1 X93.429 Y77.6 E.02835
G1 X94.484 Y77.941 E.05597
G1 X95.504 Y78.37 E.05586
G1 X95.999 Y78.618 E.02796
G1 X96.955 Y79.175 E.05586
G1 X97.86 Y79.813 E.0559
G1 X98.708 Y80.527 E.05596
G1 X99.493 Y81.314 E.05608
G1 X99.86 Y81.733 E.02811
G1 X100.322 Y82.322 E.0378
G1 X100.119 Y82.222 E.01143
G1 X99.638 Y82.082 E.0253
G1 X99.053 Y82.02 E.02966
G1 X98.483 Y82.09 E.02898
G1 X97.962 Y82.263 E.02775
G1 X97.512 Y82.526 E.02628
G1 X97.135 Y82.848 E.02502
G1 X96.802 Y83.262 E.02681
G1 X96.553 Y83.75 E.02766
G1 X96.402 Y84.279 E.02775
G1 X96.363 Y84.826 E.0277
G1 X96.427 Y85.345 E.02642
G1 X96.586 Y85.83 E.02574
G1 X96.84 Y86.294 E.02673
G1 X97.178 Y86.693 E.02639
G1 X97.56 Y87.009 E.02503
G1 X98.082 Y87.286 E.02981
G1 X98.576 Y87.432 E.02601
G1 X99.153 Y87.48 E.02923
G1 X99.703 Y87.41 E.02799
G1 X100.194 Y87.249 E.02609
G1 X100.674 Y86.974 E.02794
G1 X100.981 Y86.716 E.02021
G1 X101.352 Y86.283 E.0288
G1 X101.622 Y85.776 E.02898
G1 X101.767 Y85.302 E.02503
G1 X101.811 Y84.9 E.02042
G1 X102.093 Y85.603 E.03827
G1 X102.433 Y86.684 E.05718
G1 X102.676 Y87.793 E.0573
G1 X102.764 Y88.377 E.0298
G1 X102.826 Y88.986 E.03092
G1 X102.866 Y90.058 E.05412
G1 X102.851 Y90.627 E.02875
G1 X102.811 Y91.194 E.02871
G1 X102.745 Y91.76 E.02873
G1 X102.655 Y92.322 E.02874
G1 X102.54 Y92.878 E.02868
G1 X102.24 Y93.963 E.05682
G1 X102.056 Y94.494 E.02837
G1 X101.824 Y95.069 E.0313
G1 X101.366 Y96.029 E.05369
G1 X101.084 Y96.532 E.02912
G1 X100.772 Y97.034 E.02981
G1 X100.482 Y97.461 E.02608
G1 X99.792 Y98.346 E.05665
G1 X99.418 Y98.765 E.02834
G1 X99 Y99.194 E.03023
G1 X98.202 Y99.913 E.05421
G1 X97.32 Y100.581 E.05588
G1 X96.858 Y100.887 E.02795
G1 X95.897 Y101.436 E.05587
G1 X94.892 Y101.901 E.05589
G1 X93.849 Y102.278 E.05597
G1 X93.266 Y102.445 E.03061
G1 X92.61 Y102.597 E.03402
G1 X92.098 Y102.693 E.02628
G1 X91.492 Y102.778 E.03091
G1 X91.958 Y102.402 E.03026
G1 X92.259 Y102.033 E.02401
G1 X92.541 Y101.499 E.0305
G1 X92.691 Y100.954 E.0285
G1 X92.73 Y100.421 E.027
G1 X92.66 Y99.89 E.02703
G1 X92.5 Y99.402 E.02593
G1 X92.224 Y98.919 E.02809
G1 X91.902 Y98.542 E.02503
G1 X91.533 Y98.241 E.02403
G1 X91.026 Y97.972 E.02899
G1 X90.454 Y97.809 E.02998
G1 X89.96 Y97.77 E.02503
G1 X89.39 Y97.84 E.02898
G1 X88.864 Y98.015 E.02801
G1 X88.419 Y98.276 E.02602
G1 X88.042 Y98.598 E.02503
G1 X87.708 Y99.013 E.02688
G1 X87.453 Y99.515 E.02842
G1 X87.309 Y100.046 E.02776
G1 X87.27 Y100.54 E.02503
G1 X87.34 Y101.11 E.02898
G1 X87.493 Y101.581 E.02503
G1 X87.776 Y102.081 E.02898
G1 X88.098 Y102.458 E.02503
G1 X88.467 Y102.759 E.02403
G1 X88.32 Y102.758 E.0074
G1 X87.766 Y102.672 E.02834
G1 X86.67 Y102.429 E.05667
G1 X85.599 Y102.092 E.05667
G1 X85.076 Y101.888 E.02834
G1 X84.058 Y101.414 E.05667
G1 X83.566 Y101.144 E.02834
G1 X82.619 Y100.541 E.05667
G1 X81.729 Y99.857 E.05667
G1 X80.901 Y99.099 E.05666
G1 X80.143 Y98.271 E.05666
G1 X79.459 Y97.381 E.05667
G1 X79.147 Y96.914 E.02834
G1 X78.586 Y95.942 E.05666
G1 X78.112 Y94.924 E.05667
G1 X77.908 Y94.401 E.02833
G1 X77.571 Y93.33 E.05667
G1 X77.328 Y92.234 E.05667
G1 X77.181 Y91.121 E.05667
G1 X77.132 Y90 E.05666
G1 X77.148 Y89.389 E.03086
G1 X77.248 Y88.286 E.05589
G1 X77.333 Y87.739 E.02798
G1 X77.576 Y86.651 E.05624
G1 X77.757 Y86.045 E.03193
G1 X77.974 Y85.431 E.03289
G1 X78.169 Y84.946 E.02638
G1 X78.226 Y85.263 E.01628
G1 X78.393 Y85.812 E.02896
G1 X78.626 Y86.251 E.02505
G1 X78.991 Y86.693 E.02897
G1 X79.374 Y87.009 E.02503
G1 X79.906 Y87.29 E.03039
G1 X80.452 Y87.441 E.0286
G1 X80.975 Y87.48 E.02644
G1 X81.517 Y87.41 E.02759
G1 X82.01 Y87.248 E.0262
G1 X82.488 Y86.974 E.02782
G1 X82.865 Y86.652 E.02503
G1 X83.185 Y86.257 E.02568
G1 X83.427 Y85.793 E.0264
G1 X83.58 Y85.302 E.02596
G1 X83.635 Y84.73 E.02898
G1 X83.588 Y84.237 E.02504
G1 X83.415 Y83.674 E.02971
G1 X83.163 Y83.21 E.02667
G1 X82.822 Y82.807 E.02664
G1 X82.44 Y82.491 E.02504
G1 X81.983 Y82.246 E.02618
G1 X81.459 Y82.076 E.0278
G1 X80.827 Y82.019 E.03202
G1 X80.297 Y82.09 E.02699
G1 X79.686 Y82.31 E.03276
G1 X80.146 Y81.725 E.03755
G1 X80.912 Y80.891 E.05717
G1 X81.369 Y80.458 E.03179
G1 X82.195 Y79.771 E.05421
G1 X82.655 Y79.436 E.02873
G1 X83.129 Y79.122 E.02872
G1 X83.617 Y78.828 E.02874
G1 X84.117 Y78.557 E.02873
G1 X84.629 Y78.309 E.02871
G1 X85.151 Y78.082 E.02874
G1 X85.683 Y77.88 E.02872
G1 X86.222 Y77.701 E.02869
G1 X86.769 Y77.546 E.02869
G1 X87.868 Y77.312 E.05671
G1 X88.425 Y77.231 E.02839
G1 X89.407 Y77.153 E.04976
M204 P1250
G1 X89.466 Y76.542 F9000
M204 P800
;TYPE:External perimeter
G1 F1200
G1 X90.447 Y76.539 E.04951
G1 X91.333 Y76.594 E.04481
G1 X92.455 Y76.753 E.0572
G1 X93.029 Y76.872 E.0296
G1 X94.155 Y77.184 E.05899
G1 X94.704 Y77.375 E.02934
G1 X95.772 Y77.826 E.05853
G1 X96.291 Y78.086 E.02929
G1 X97.293 Y78.67 E.05854
G1 X98.24 Y79.34 E.05857
G1 X98.692 Y79.705 E.02931
G1 X99.128 Y80.089 E.02934
G1 X99.548 Y80.492 E.02937
G1 X99.95 Y80.913 E.0294
G1 X100.334 Y81.353 E.02944
G1 X100.699 Y81.808 E.02948
;WIDTH:0.692465
G1 X101.027 Y82.293 E.03158
;WIDTH:0.728906
G1 X101.119 Y82.464 E.01113
;WIDTH:0.765346
G1 X101.212 Y82.636 E.01173
;WIDTH:0.801806
G1 X101.619 Y83.301 E.04919
